(.../pcb-gcode-3_6_0_4/pcb-gcode.ulp)
(Copyright 2005 - 2012 by John Johnson)
(See readme.txt for licensing terms.)
(This file generated from the board:)
(.../AutoWatering/watering_board.brd)
(Current profile is .../pcb-gcode-3_6_0_4/profiles/generic.pp  )
(This file generated 4/8/22 3:53 PM)
(Settings from pcb-machine.h)
(  Tool Size)
(0.5500 )
(Z Axis Settings)
(  High     Up        Down     Drill)
(12.7000 	2.5400 	-0.1000 	-1.6000 )
(spindle on time = 3.0000)
(milling depth = -0.0800)
(text depth = -0.0400)
(tool change at 0.0000 0.0000 25.4000 )
(feed rate xy = F24.00 )
(feed rate z  = F18.00 )
(Settings from pcb-defaults.h)
(isolate min = 0.0254)
(isolate max = 0.5080)
(isolate step = 0.3000)
(Generated top outlines, top drill, bottom outlines, bottom drill, )
(Unit of measure: mm)
( Tool|       Size       |  Min Sub |  Max Sub |   Count )
( T01  0.900mm 0.0354in 0.0000in 0.0000in )
( T02  1.000mm 0.0394in 0.0000in 0.0000in )
( T03  1.016mm 0.0400in 0.0000in 0.0000in )
(Metric Mode)
G21
(Absolute Coordinates)
G90
M05
G00 Z25.4000 
G00 X0.0000 Y0.0000 
M06 T01  ; 0.9000 
G00 Z2.5400 
M03
G04 P3.000000
G00 Z2.540000
G00 X-36.8300 Y5.0800 
G01 Z-1.6000 F18.00 
G01 Z2.540000
(R2.5400  P1.000000)
M05
G00 Z25.4000 
M06 T02  ; 1.0000 
G00 Z2.5400 
M03
G04 P3.000000
G00 Z2.540000
G00 X-35.5600 Y33.0200 
G01 Z-1.6000 F18.00 
G01 Z2.540000
(R2.5400  P1.000000)
(G00 Z2.540000)
G00 X-35.5600 Y35.5600 
G01 Z-1.600000
G01 Z2.540000
(G00 Z2.540000)
G00 X-35.5600 Y38.1000 
G01 Z-1.600000
G01 Z2.540000
(G00 Z2.540000)
G00 X-35.5600 Y40.6400 
G01 Z-1.600000
G01 Z2.540000
(G00 Z2.540000)
G00 X-35.5600 Y43.1800 
G01 Z-1.600000
G01 Z2.540000
(G00 Z2.540000)
G00 X-35.5600 Y45.7200 
G01 Z-1.600000
G01 Z2.540000
(G00 Z2.540000)
G00 X-35.5600 Y48.2600 
G01 Z-1.600000
G01 Z2.540000
(G00 Z2.540000)
G00 X-35.5600 Y12.7000 
G01 Z-1.600000
G01 Z2.540000
(G00 Z2.540000)
G00 X-35.5600 Y15.2400 
G01 Z-1.600000
G01 Z2.540000
(G00 Z2.540000)
G00 X-35.5600 Y17.7800 
G01 Z-1.600000
G01 Z2.540000
(G00 Z2.540000)
G00 X-35.5600 Y20.3200 
G01 Z-1.600000
G01 Z2.540000
(G00 Z2.540000)
G00 X-35.5600 Y22.8600 
G01 Z-1.600000
G01 Z2.540000
(G00 Z2.540000)
G00 X-35.5600 Y25.4000 
G01 Z-1.600000
G01 Z2.540000
(G00 Z2.540000)
G00 X-35.5600 Y27.9400 
G01 Z-1.600000
G01 Z2.540000
(G00 Z2.540000)
G00 X-35.5600 Y30.4800 
G01 Z-1.600000
G01 Z2.540000
(G00 Z2.540000)
G00 X-20.3200 Y33.0200 
G01 Z-1.600000
G01 Z2.540000
(G00 Z2.540000)
G00 X-20.3200 Y35.5600 
G01 Z-1.600000
G01 Z2.540000
(G00 Z2.540000)
G00 X-20.3200 Y38.1000 
G01 Z-1.600000
G01 Z2.540000
(G00 Z2.540000)
G00 X-20.3200 Y40.6400 
G01 Z-1.600000
G01 Z2.540000
(G00 Z2.540000)
G00 X-20.3200 Y43.1800 
G01 Z-1.600000
G01 Z2.540000
(G00 Z2.540000)
G00 X-20.3200 Y45.7200 
G01 Z-1.600000
G01 Z2.540000
(G00 Z2.540000)
G00 X-20.3200 Y48.2600 
G01 Z-1.600000
G01 Z2.540000
(G00 Z2.540000)
G00 X-20.3200 Y12.7000 
G01 Z-1.600000
G01 Z2.540000
(G00 Z2.540000)
G00 X-20.3200 Y15.2400 
G01 Z-1.600000
G01 Z2.540000
(G00 Z2.540000)
G00 X-20.3200 Y17.7800 
G01 Z-1.600000
G01 Z2.540000
(G00 Z2.540000)
G00 X-20.3200 Y20.3200 
G01 Z-1.600000
G01 Z2.540000
(G00 Z2.540000)
G00 X-20.3200 Y22.8600 
G01 Z-1.600000
G01 Z2.540000
(G00 Z2.540000)
G00 X-20.3200 Y25.4000 
G01 Z-1.600000
G01 Z2.540000
(G00 Z2.540000)
G00 X-20.3200 Y27.9400 
G01 Z-1.600000
G01 Z2.540000
(G00 Z2.540000)
G00 X-20.3200 Y30.4800 
G01 Z-1.600000
G01 Z2.540000
M05
G00 Z25.4000 
M06 T03  ; 1.0160 
G00 Z2.5400 
M03
G04 P3.000000
G00 Z2.540000
G00 X-43.1800 Y33.0200 
G01 Z-1.6000 F18.00 
G01 Z2.540000
(R2.5400  P1.000000)
(G00 Z2.540000)
G00 X-43.1800 Y35.5600 
G01 Z-1.600000
G01 Z2.540000
(G00 Z2.540000)
G00 X-43.1800 Y43.1800 
G01 Z-1.600000
G01 Z2.540000
(G00 Z2.540000)
G00 X-43.1800 Y45.7200 
G01 Z-1.600000
G01 Z2.540000
(G00 Z2.540000)
G00 X-43.1800 Y48.2600 
G01 Z-1.600000
G01 Z2.540000
(G00 Z2.540000)
G00 X-43.1800 Y30.4800 
G01 Z-1.600000
G01 Z2.540000
(G00 Z2.540000)
G00 X-13.9700 Y34.2900 
G01 Z-1.600000
G01 Z2.540000
(G00 Z2.540000)
G00 X-13.9700 Y36.8300 
G01 Z-1.600000
G01 Z2.540000
(G00 Z2.540000)
G00 X-13.9700 Y41.9100 
G01 Z-1.600000
G01 Z2.540000
(G00 Z2.540000)
G00 X-13.9700 Y44.4500 
G01 Z-1.600000
G01 Z2.540000
(G00 Z2.540000)
G00 X-26.6700 Y5.0800 
G01 Z-1.600000
G01 Z2.540000
(G00 Z2.540000)
G00 X-29.2100 Y5.0800 
G01 Z-1.600000
G01 Z2.540000
T01 
G00 Z12.7000 
M05
M02
