(.../pcb-gcode-3_6_0_4/pcb-gcode.ulp)
(Copyright 2005 - 2012 by John Johnson)
(See readme.txt for licensing terms.)
(This file generated from the board:)
(.../AutoWatering/watering_board.brd)
(Current profile is .../pcb-gcode-3_6_0_4/profiles/generic.pp  )
(This file generated 4/8/22 4:25 PM)
(Settings from pcb-machine.h)
(  Tool Size)
(0.5500 )
(Z Axis Settings)
(  High     Up        Down     Drill)
(12.7000 	2.5400 	-0.1000 	-1.6000 )
(spindle on time = 3.0000)
(milling depth = -0.0800)
(text depth = -0.0400)
(tool change at 0.0000 0.0000 25.4000 )
(feed rate xy = F24.00 )
(feed rate z  = F18.00 )
(Settings from pcb-defaults.h)
(isolate min = 0.0254)
(isolate max = 0.5080)
(isolate step = 0.3000)
(Generated top outlines, top drill, bottom outlines, bottom drill, )
(Unit of measure: mm)
(Metric Mode)
G21
(Absolute Coordinates)
G90
G00 X0.0000 Y0.0000 
M03
G04 P3.000000
G00 Z2.5400 
G00 X-19.6046 Y34.0786 
G01 Z-0.1000 F18.00 
G01 X-19.5387 Y33.9196 F24.00 
G01 X-19.5782 Y34.0412 
G01 X-19.6044 Y34.2064 
G01 X-19.6044 Y34.3736 
G01 X-19.5782 Y34.5388 
G01 X-19.5387 Y34.6604 
G01 X-19.6046 Y34.5014 
G01 X-19.6046 Y34.0786 
G00 Z2.5400 
G00 X-19.1439 Y33.3892 
G01 Z-0.1000 F18.00 
G01 X-18.9848 Y33.3233 F24.00 
G01 X-19.0988 Y33.3814 
G01 X-19.2341 Y33.4796 
G01 X-19.3524 Y33.5979 
G01 X-19.4506 Y33.7332 
G01 X-19.5087 Y33.8472 
G01 X-19.4428 Y33.6881 
G01 X-19.1439 Y33.3892 
G00 Z2.5400 
G00 X-15.9554 Y44.6614 
G01 Z-0.1000 F18.00 
G01 X-16.0213 Y44.8205 F24.00 
G01 X-15.9818 Y44.6988 
G01 X-15.9556 Y44.5336 
G01 X-15.9556 Y44.3664 
G01 X-15.9818 Y44.2012 
G01 X-16.0213 Y44.0795 
G01 X-15.9554 Y44.2386 
G01 X-15.9554 Y44.6614 
G00 Z2.5400 
G00 X-16.4161 Y45.3508 
G01 Z-0.1000 F18.00 
G01 X-16.5752 Y45.4167 F24.00 
G01 X-16.4612 Y45.3586 
G01 X-16.3259 Y45.2604 
G01 X-16.2076 Y45.1421 
G01 X-16.1094 Y45.0068 
G01 X-16.0513 Y44.8928 
G01 X-16.1172 Y45.0519 
G01 X-16.4161 Y45.3508 
G00 Z2.5400 
G00 X-25.9386 Y48.0502 
G01 Z-0.1000 F18.00 
G01 X-25.8732 Y47.8923 F24.00 
G01 X-25.9124 Y48.0131 
G01 X-25.9384 Y48.1770 
G01 X-25.9384 Y48.3430 
G01 X-25.9124 Y48.5069 
G01 X-25.8732 Y48.6277 
G01 X-25.9386 Y48.4698 
G01 X-25.9386 Y48.0502 
G00 Z2.5400 
G00 X-25.7780 Y48.8574 
G01 Z-0.1000 F18.00 
G01 X-25.8434 Y48.6995 F24.00 
G01 X-25.7858 Y48.8126 
G01 X-25.6883 Y48.9469 
G01 X-25.5709 Y49.0643 
G01 X-25.4366 Y49.1618 
G01 X-25.3235 Y49.2194 
G01 X-25.4814 Y49.1540 
G01 X-25.7780 Y48.8574 
G00 Z2.5400 
G00 X-25.0938 Y49.3146 
G01 Z-0.1000 F18.00 
G01 X-25.2517 Y49.2492 F24.00 
G01 X-25.1309 Y49.2884 
G01 X-24.9670 Y49.3144 
G01 X-23.2930 Y49.3144 
G01 X-23.1291 Y49.2884 
G01 X-23.0083 Y49.2492 
G01 X-23.1662 Y49.3146 
G01 X-25.0938 Y49.3146 
G00 Z2.5400 
G00 X-22.7786 Y49.1540 
G01 Z-0.1000 F18.00 
G01 X-22.9365 Y49.2195 F24.00 
G01 X-22.8234 Y49.1618 
G01 X-22.6891 Y49.0643 
G01 X-22.5717 Y48.9469 
G01 X-22.4742 Y48.8126 
G01 X-22.4165 Y48.6995 
G01 X-22.4820 Y48.8574 
G01 X-22.7786 Y49.1540 
G00 Z2.5400 
G00 X-22.3214 Y48.4698 
G01 Z-0.1000 F18.00 
G01 X-22.3868 Y48.6277 F24.00 
G01 X-22.3476 Y48.5069 
G01 X-22.3216 Y48.3430 
G01 X-22.3216 Y48.1770 
G01 X-22.3476 Y48.0131 
G01 X-22.3868 Y47.8923 
G01 X-22.3214 Y48.0502 
G01 X-22.3214 Y48.4698 
G00 Z2.5400 
G00 X-22.4742 Y42.6274 
G01 Z-0.1000 F18.00 
G01 X-22.5717 Y42.4931 F24.00 
G01 X-22.6891 Y42.3757 
G01 X-22.8234 Y42.2782 
G01 X-22.9713 Y42.2029 
G01 X-23.1291 Y42.1516 
G01 X-23.2930 Y42.1256 
G01 X-24.9670 Y42.1256 
G01 X-25.1309 Y42.1516 
G01 X-25.2887 Y42.2029 
G01 X-25.4366 Y42.2782 
G01 X-25.5709 Y42.3757 
G01 X-25.6883 Y42.4931 
G01 X-25.7858 Y42.6274 
G01 X-25.8435 Y42.7405 
G01 X-25.7780 Y42.5826 
G01 X-25.4587 Y42.2633 
G01 X-25.3853 Y42.1360 
G01 X-25.3830 Y42.1321 
G01 X-25.3438 Y41.9858 
G01 X-25.3438 Y41.8342 
G01 X-25.3830 Y41.6879 
G01 X-25.4571 Y41.5596 
G01 X-25.4587 Y41.5567 
G01 X-25.5659 Y41.4496 
G01 X-25.7780 Y41.2374 
G01 X-25.8434 Y41.0795 
G01 X-25.7858 Y41.1926 
G01 X-25.6883 Y41.3269 
G01 X-25.5709 Y41.4443 
G01 X-25.4366 Y41.5418 
G01 X-25.2887 Y41.6171 
G01 X-25.1309 Y41.6684 
G01 X-24.9670 Y41.6944 
G01 X-23.2930 Y41.6944 
G01 X-23.1291 Y41.6684 
G01 X-22.9713 Y41.6171 
G01 X-22.8234 Y41.5418 
G01 X-22.6891 Y41.4443 
G01 X-22.5717 Y41.3269 
G01 X-22.4742 Y41.1926 
G01 X-22.4165 Y41.0794 
G01 X-22.4820 Y41.2374 
G01 X-22.6941 Y41.4496 
G01 X-22.7942 Y41.5496 
G01 X-22.8013 Y41.5567 
G01 X-22.8770 Y41.6879 
G01 X-22.9162 Y41.8342 
G01 X-22.9162 Y41.9858 
G01 X-22.8787 Y42.1259 
G01 X-22.8770 Y42.1321 
G01 X-22.8013 Y42.2633 
G01 X-22.6941 Y42.3704 
G01 X-22.4820 Y42.5826 
G01 X-22.4165 Y42.7406 
G01 X-22.4742 Y42.6274 
G00 Z2.5400 
G00 X-22.3476 Y40.8869 
G01 Z-0.1000 F18.00 
G01 X-22.3216 Y40.7230 F24.00 
G01 X-22.3216 Y40.5570 
G01 X-22.3476 Y40.3931 
G01 X-22.3868 Y40.2723 
G01 X-22.3214 Y40.4302 
G01 X-22.3214 Y40.8498 
G01 X-22.3868 Y41.0077 
G01 X-22.3476 Y40.8869 
G00 Z2.5400 
G00 X-22.4742 Y37.5474 
G01 Z-0.1000 F18.00 
G01 X-22.5717 Y37.4131 F24.00 
G01 X-22.6891 Y37.2957 
G01 X-22.8234 Y37.1982 
G01 X-22.9713 Y37.1228 
G01 X-23.1291 Y37.0716 
G01 X-23.2930 Y37.0456 
G01 X-24.9670 Y37.0456 
G01 X-25.1309 Y37.0716 
G01 X-25.2887 Y37.1228 
G01 X-25.4366 Y37.1982 
G01 X-25.5709 Y37.2957 
G01 X-25.6883 Y37.4131 
G01 X-25.7858 Y37.5474 
G01 X-25.8435 Y37.6605 
G01 X-25.7780 Y37.5026 
G01 X-25.4587 Y37.1833 
G01 X-25.3853 Y37.0560 
G01 X-25.3830 Y37.0521 
G01 X-25.3438 Y36.9058 
G01 X-25.3438 Y36.7542 
G01 X-25.3830 Y36.6079 
G01 X-25.4571 Y36.4796 
G01 X-25.4587 Y36.4767 
G01 X-25.5659 Y36.3696 
G01 X-25.7780 Y36.1574 
G01 X-25.8434 Y35.9995 
G01 X-25.7858 Y36.1126 
G01 X-25.6883 Y36.2469 
G01 X-25.5709 Y36.3642 
G01 X-25.4366 Y36.4618 
G01 X-25.2887 Y36.5371 
G01 X-25.1309 Y36.5884 
G01 X-24.9670 Y36.6144 
G01 X-23.2930 Y36.6144 
G01 X-23.1291 Y36.5884 
G01 X-22.9713 Y36.5371 
G01 X-22.8234 Y36.4618 
G01 X-22.6891 Y36.3642 
G01 X-22.5717 Y36.2469 
G01 X-22.4742 Y36.1126 
G01 X-22.4165 Y35.9995 
G01 X-22.4820 Y36.1574 
G01 X-22.6941 Y36.3696 
G01 X-22.7942 Y36.4696 
G01 X-22.8013 Y36.4767 
G01 X-22.8770 Y36.6079 
G01 X-22.9162 Y36.7542 
G01 X-22.9162 Y36.9058 
G01 X-22.8787 Y37.0459 
G01 X-22.8770 Y37.0521 
G01 X-22.8013 Y37.1833 
G01 X-22.6941 Y37.2904 
G01 X-22.4820 Y37.5026 
G01 X-22.4165 Y37.6606 
G01 X-22.4742 Y37.5474 
G00 Z2.5400 
G00 X-22.3476 Y35.8069 
G01 Z-0.1000 F18.00 
G01 X-22.3216 Y35.6430 F24.00 
G01 X-22.3216 Y35.4770 
G01 X-22.3476 Y35.3131 
G01 X-22.3868 Y35.1923 
G01 X-22.3214 Y35.3502 
G01 X-22.3214 Y35.7698 
G01 X-22.3868 Y35.9277 
G01 X-22.3476 Y35.8069 
G00 Z2.5400 
G00 X-22.4742 Y32.4674 
G01 Z-0.1000 F18.00 
G01 X-22.5717 Y32.3331 F24.00 
G01 X-22.6891 Y32.2157 
G01 X-22.8234 Y32.1182 
G01 X-22.9713 Y32.0429 
G01 X-23.1291 Y31.9916 
G01 X-23.2930 Y31.9656 
G01 X-24.9670 Y31.9656 
G01 X-25.1309 Y31.9916 
G01 X-25.2887 Y32.0429 
G01 X-25.4366 Y32.1182 
G01 X-25.5709 Y32.2157 
G01 X-25.6883 Y32.3331 
G01 X-25.7858 Y32.4674 
G01 X-25.8434 Y32.5805 
G01 X-25.7780 Y32.4226 
G01 X-25.4587 Y32.1033 
G01 X-25.3853 Y31.9760 
G01 X-25.3830 Y31.9721 
G01 X-25.3438 Y31.8258 
G01 X-25.3438 Y31.6742 
G01 X-25.3830 Y31.5279 
G01 X-25.4571 Y31.3996 
G01 X-25.4587 Y31.3967 
G01 X-25.5659 Y31.2896 
G01 X-25.7780 Y31.0774 
G01 X-25.8434 Y30.9195 
G01 X-25.7858 Y31.0326 
G01 X-25.6883 Y31.1669 
G01 X-25.5709 Y31.2843 
G01 X-25.4366 Y31.3818 
G01 X-25.2887 Y31.4571 
G01 X-25.1309 Y31.5084 
G01 X-24.9670 Y31.5344 
G01 X-23.2930 Y31.5344 
G01 X-23.1291 Y31.5084 
G01 X-22.9713 Y31.4571 
G01 X-22.8234 Y31.3818 
G01 X-22.6891 Y31.2843 
G01 X-22.5717 Y31.1669 
G01 X-22.4742 Y31.0326 
G01 X-22.4165 Y30.9195 
G01 X-22.4820 Y31.0774 
G01 X-22.6941 Y31.2896 
G01 X-22.7942 Y31.3896 
G01 X-22.8013 Y31.3967 
G01 X-22.8770 Y31.5279 
G01 X-22.9162 Y31.6742 
G01 X-22.9162 Y31.8258 
G01 X-22.8787 Y31.9659 
G01 X-22.8770 Y31.9721 
G01 X-22.8013 Y32.1033 
G01 X-22.6941 Y32.2104 
G01 X-22.4820 Y32.4226 
G01 X-22.4165 Y32.5805 
G01 X-22.4742 Y32.4674 
G00 Z2.5400 
G00 X-22.3476 Y30.7269 
G01 Z-0.1000 F18.00 
G01 X-22.3216 Y30.5630 F24.00 
G01 X-22.3216 Y30.3970 
G01 X-22.3476 Y30.2331 
G01 X-22.3868 Y30.1123 
G01 X-22.3214 Y30.2702 
G01 X-22.3214 Y30.6898 
G01 X-22.3868 Y30.8477 
G01 X-22.3476 Y30.7269 
G00 Z2.5400 
G00 X-22.4742 Y27.3874 
G01 Z-0.1000 F18.00 
G01 X-22.5717 Y27.2531 F24.00 
G01 X-22.6891 Y27.1357 
G01 X-22.8234 Y27.0382 
G01 X-22.9713 Y26.9628 
G01 X-23.1291 Y26.9116 
G01 X-23.2930 Y26.8856 
G01 X-24.9670 Y26.8856 
G01 X-25.1309 Y26.9116 
G01 X-25.2887 Y26.9628 
G01 X-25.4366 Y27.0382 
G01 X-25.5709 Y27.1357 
G01 X-25.6883 Y27.2531 
G01 X-25.7858 Y27.3874 
G01 X-25.8434 Y27.5005 
G01 X-25.7780 Y27.3426 
G01 X-25.4587 Y27.0233 
G01 X-25.3853 Y26.8960 
G01 X-25.3830 Y26.8921 
G01 X-25.3438 Y26.7458 
G01 X-25.3438 Y26.5942 
G01 X-25.3830 Y26.4479 
G01 X-25.4571 Y26.3196 
G01 X-25.4587 Y26.3167 
G01 X-25.5659 Y26.2096 
G01 X-25.7780 Y25.9974 
G01 X-25.8434 Y25.8395 
G01 X-25.7858 Y25.9526 
G01 X-25.6883 Y26.0869 
G01 X-25.5709 Y26.2043 
G01 X-25.4366 Y26.3018 
G01 X-25.2887 Y26.3771 
G01 X-25.1309 Y26.4284 
G01 X-24.9670 Y26.4544 
G01 X-23.2930 Y26.4544 
G01 X-23.1291 Y26.4284 
G01 X-22.9713 Y26.3771 
G01 X-22.8234 Y26.3018 
G01 X-22.6891 Y26.2043 
G01 X-22.5717 Y26.0869 
G01 X-22.4742 Y25.9526 
G01 X-22.4165 Y25.8395 
G01 X-22.4820 Y25.9974 
G01 X-22.6941 Y26.2096 
G01 X-22.7942 Y26.3096 
G01 X-22.8013 Y26.3167 
G01 X-22.8770 Y26.4479 
G01 X-22.9162 Y26.5942 
G01 X-22.9162 Y26.7458 
G01 X-22.8787 Y26.8859 
G01 X-22.8770 Y26.8921 
G01 X-22.8013 Y27.0233 
G01 X-22.6941 Y27.1304 
G01 X-22.4820 Y27.3426 
G01 X-22.4165 Y27.5006 
G01 X-22.4742 Y27.3874 
G00 Z2.5400 
G00 X-22.3476 Y25.6469 
G01 Z-0.1000 F18.00 
G01 X-22.3216 Y25.4830 F24.00 
G01 X-22.3216 Y25.3170 
G01 X-22.3476 Y25.1531 
G01 X-22.3868 Y25.0323 
G01 X-22.3214 Y25.1902 
G01 X-22.3214 Y25.6098 
G01 X-22.3868 Y25.7677 
G01 X-22.3476 Y25.6469 
G00 Z2.5400 
G00 X-23.1291 Y21.8316 
G01 Z-0.1000 F18.00 
G01 X-23.2930 Y21.8056 F24.00 
G01 X-24.9670 Y21.8056 
G01 X-25.1309 Y21.8316 
G01 X-25.2886 Y21.8828 
G01 X-25.2379 Y21.8418 
G01 X-25.1838 Y21.8003 
G01 X-25.1792 Y21.7942 
G01 X-25.1732 Y21.7894 
G01 X-25.1331 Y21.7342 
G01 X-25.0916 Y21.6801 
G01 X-25.0887 Y21.6730 
G01 X-25.0842 Y21.6668 
G01 X-25.0597 Y21.6031 
G01 X-25.0336 Y21.5401 
G01 X-25.0326 Y21.5325 
G01 X-25.0299 Y21.5254 
G01 X-25.0227 Y21.4575 
G01 X-25.0138 Y21.3899 
G01 X-25.0148 Y21.3823 
G01 X-25.0140 Y21.3747 
G01 X-25.0153 Y21.3667 
G01 X-24.9670 Y21.3744 
G01 X-23.2930 Y21.3744 
G01 X-23.2447 Y21.3667 
G01 X-23.2460 Y21.3747 
G01 X-23.2452 Y21.3823 
G01 X-23.2462 Y21.3899 
G01 X-23.2372 Y21.4575 
G01 X-23.2301 Y21.5254 
G01 X-23.2274 Y21.5325 
G01 X-23.2264 Y21.5401 
G01 X-23.2003 Y21.6031 
G01 X-23.1758 Y21.6668 
G01 X-23.1713 Y21.6730 
G01 X-23.1684 Y21.6801 
G01 X-23.1269 Y21.7342 
G01 X-23.0868 Y21.7894 
G01 X-23.0808 Y21.7942 
G01 X-23.0762 Y21.8003 
G01 X-23.0221 Y21.8418 
G01 X-22.9714 Y21.8828 
G01 X-23.1291 Y21.8316 
G00 Z2.5400 
G00 X-22.4742 Y22.3074 
G01 Z-0.1000 F18.00 
G01 X-22.5717 Y22.1731 F24.00 
G01 X-22.6891 Y22.0557 
G01 X-22.8234 Y21.9582 
G01 X-22.9365 Y21.9005 
G01 X-22.8929 Y21.9186 
G01 X-22.8306 Y21.9463 
G01 X-22.8231 Y21.9475 
G01 X-22.7786 Y21.9660 
G01 X-22.4820 Y22.2626 
G01 X-22.4165 Y22.4206 
G01 X-22.4742 Y22.3074 
G00 Z2.5400 
G00 X-22.3476 Y23.1069 
G01 Z-0.1000 F18.00 
G01 X-22.3216 Y22.9430 F24.00 
G01 X-22.3216 Y22.7770 
G01 X-22.3476 Y22.6131 
G01 X-22.3868 Y22.4923 
G01 X-22.3214 Y22.6502 
G01 X-22.3214 Y23.0698 
G01 X-22.3868 Y23.2277 
G01 X-22.3476 Y23.1069 
G00 Z2.5400 
G00 X-22.4742 Y24.8474 
G01 Z-0.1000 F18.00 
G01 X-22.5717 Y24.7131 F24.00 
G01 X-22.6891 Y24.5957 
G01 X-22.8234 Y24.4982 
G01 X-22.9713 Y24.4229 
G01 X-23.1291 Y24.3716 
G01 X-23.2930 Y24.3456 
G01 X-24.9670 Y24.3456 
G01 X-25.1309 Y24.3716 
G01 X-25.2887 Y24.4229 
G01 X-25.4366 Y24.4982 
G01 X-25.5709 Y24.5957 
G01 X-25.6883 Y24.7131 
G01 X-25.7858 Y24.8474 
G01 X-25.8435 Y24.9605 
G01 X-25.7780 Y24.8026 
G01 X-25.4587 Y24.4833 
G01 X-25.3853 Y24.3560 
G01 X-25.3830 Y24.3521 
G01 X-25.3438 Y24.2058 
G01 X-25.3438 Y24.0542 
G01 X-25.3830 Y23.9079 
G01 X-25.4571 Y23.7796 
G01 X-25.4587 Y23.7767 
G01 X-25.5659 Y23.6696 
G01 X-25.7780 Y23.4574 
G01 X-25.8434 Y23.2995 
G01 X-25.7858 Y23.4126 
G01 X-25.6883 Y23.5469 
G01 X-25.5709 Y23.6643 
G01 X-25.4366 Y23.7618 
G01 X-25.2887 Y23.8371 
G01 X-25.1309 Y23.8884 
G01 X-24.9670 Y23.9144 
G01 X-23.2930 Y23.9144 
G01 X-23.1291 Y23.8884 
G01 X-22.9713 Y23.8371 
G01 X-22.8234 Y23.7618 
G01 X-22.6891 Y23.6643 
G01 X-22.5717 Y23.5469 
G01 X-22.4742 Y23.4126 
G01 X-22.4165 Y23.2995 
G01 X-22.4820 Y23.4574 
G01 X-22.6941 Y23.6696 
G01 X-22.7942 Y23.7696 
G01 X-22.8013 Y23.7767 
G01 X-22.8770 Y23.9079 
G01 X-22.9162 Y24.0542 
G01 X-22.9162 Y24.2058 
G01 X-22.8787 Y24.3459 
G01 X-22.8770 Y24.3521 
G01 X-22.8013 Y24.4833 
G01 X-22.6941 Y24.5904 
G01 X-22.4820 Y24.8026 
G01 X-22.4165 Y24.9606 
G01 X-22.4742 Y24.8474 
G00 Z2.5400 
G00 X-22.3476 Y28.1869 
G01 Z-0.1000 F18.00 
G01 X-22.3216 Y28.0230 F24.00 
G01 X-22.3216 Y27.8570 
G01 X-22.3476 Y27.6931 
G01 X-22.3868 Y27.5723 
G01 X-22.3214 Y27.7302 
G01 X-22.3214 Y28.1498 
G01 X-22.3868 Y28.3077 
G01 X-22.3476 Y28.1869 
G00 Z2.5400 
G00 X-22.4742 Y29.9274 
G01 Z-0.1000 F18.00 
G01 X-22.5717 Y29.7931 F24.00 
G01 X-22.6891 Y29.6757 
G01 X-22.8234 Y29.5782 
G01 X-22.9713 Y29.5029 
G01 X-23.1291 Y29.4516 
G01 X-23.2930 Y29.4256 
G01 X-24.9670 Y29.4256 
G01 X-25.1309 Y29.4516 
G01 X-25.2887 Y29.5029 
G01 X-25.4366 Y29.5782 
G01 X-25.5709 Y29.6757 
G01 X-25.6883 Y29.7931 
G01 X-25.7858 Y29.9274 
G01 X-25.8434 Y30.0405 
G01 X-25.7780 Y29.8826 
G01 X-25.4587 Y29.5633 
G01 X-25.3853 Y29.4360 
G01 X-25.3830 Y29.4321 
G01 X-25.3438 Y29.2858 
G01 X-25.3438 Y29.1342 
G01 X-25.3830 Y28.9879 
G01 X-25.4571 Y28.8596 
G01 X-25.4587 Y28.8567 
G01 X-25.5659 Y28.7496 
G01 X-25.7780 Y28.5374 
G01 X-25.8434 Y28.3795 
G01 X-25.7858 Y28.4926 
G01 X-25.6883 Y28.6269 
G01 X-25.5709 Y28.7443 
G01 X-25.4366 Y28.8418 
G01 X-25.2887 Y28.9171 
G01 X-25.1309 Y28.9684 
G01 X-24.9670 Y28.9944 
G01 X-23.2930 Y28.9944 
G01 X-23.1291 Y28.9684 
G01 X-22.9713 Y28.9171 
G01 X-22.8234 Y28.8418 
G01 X-22.6891 Y28.7443 
G01 X-22.5717 Y28.6269 
G01 X-22.4742 Y28.4926 
G01 X-22.4165 Y28.3795 
G01 X-22.4820 Y28.5374 
G01 X-22.6941 Y28.7496 
G01 X-22.7942 Y28.8496 
G01 X-22.8013 Y28.8567 
G01 X-22.8770 Y28.9879 
G01 X-22.9162 Y29.1342 
G01 X-22.9162 Y29.2858 
G01 X-22.8787 Y29.4259 
G01 X-22.8770 Y29.4321 
G01 X-22.8013 Y29.5633 
G01 X-22.6941 Y29.6704 
G01 X-22.4820 Y29.8826 
G01 X-22.4165 Y30.0405 
G01 X-22.4742 Y29.9274 
G00 Z2.5400 
G00 X-22.3476 Y33.2669 
G01 Z-0.1000 F18.00 
G01 X-22.3216 Y33.1030 F24.00 
G01 X-22.3216 Y32.9370 
G01 X-22.3476 Y32.7731 
G01 X-22.3868 Y32.6523 
G01 X-22.3214 Y32.8102 
G01 X-22.3214 Y33.2298 
G01 X-22.3868 Y33.3877 
G01 X-22.3476 Y33.2669 
G00 Z2.5400 
G00 X-22.4742 Y35.0074 
G01 Z-0.1000 F18.00 
G01 X-22.5717 Y34.8731 F24.00 
G01 X-22.6891 Y34.7557 
G01 X-22.8234 Y34.6582 
G01 X-22.9713 Y34.5829 
G01 X-23.1291 Y34.5316 
G01 X-23.2930 Y34.5056 
G01 X-24.9670 Y34.5056 
G01 X-25.1309 Y34.5316 
G01 X-25.2887 Y34.5829 
G01 X-25.4366 Y34.6582 
G01 X-25.5709 Y34.7557 
G01 X-25.6883 Y34.8731 
G01 X-25.7858 Y35.0074 
G01 X-25.8434 Y35.1205 
G01 X-25.7780 Y34.9626 
G01 X-25.4587 Y34.6433 
G01 X-25.3853 Y34.5160 
G01 X-25.3830 Y34.5121 
G01 X-25.3438 Y34.3657 
G01 X-25.3438 Y34.2142 
G01 X-25.3830 Y34.0679 
G01 X-25.4571 Y33.9396 
G01 X-25.4587 Y33.9367 
G01 X-25.5659 Y33.8296 
G01 X-25.7780 Y33.6174 
G01 X-25.8434 Y33.4595 
G01 X-25.7858 Y33.5726 
G01 X-25.6883 Y33.7069 
G01 X-25.5709 Y33.8242 
G01 X-25.4366 Y33.9218 
G01 X-25.2887 Y33.9971 
G01 X-25.1309 Y34.0484 
G01 X-24.9670 Y34.0744 
G01 X-23.2930 Y34.0744 
G01 X-23.1291 Y34.0484 
G01 X-22.9713 Y33.9971 
G01 X-22.8234 Y33.9218 
G01 X-22.6891 Y33.8242 
G01 X-22.5717 Y33.7069 
G01 X-22.4742 Y33.5726 
G01 X-22.4165 Y33.4595 
G01 X-22.4820 Y33.6174 
G01 X-22.6941 Y33.8296 
G01 X-22.7942 Y33.9296 
G01 X-22.8013 Y33.9367 
G01 X-22.8770 Y34.0679 
G01 X-22.9162 Y34.2142 
G01 X-22.9162 Y34.3657 
G01 X-22.8787 Y34.5059 
G01 X-22.8770 Y34.5121 
G01 X-22.8013 Y34.6433 
G01 X-22.6941 Y34.7504 
G01 X-22.4820 Y34.9626 
G01 X-22.4165 Y35.1205 
G01 X-22.4742 Y35.0074 
G00 Z2.5400 
G00 X-22.3476 Y38.3469 
G01 Z-0.1000 F18.00 
G01 X-22.3216 Y38.1830 F24.00 
G01 X-22.3216 Y38.0170 
G01 X-22.3476 Y37.8531 
G01 X-22.3868 Y37.7323 
G01 X-22.3214 Y37.8902 
G01 X-22.3214 Y38.3098 
G01 X-22.3868 Y38.4677 
G01 X-22.3476 Y38.3469 
G00 Z2.5400 
G00 X-22.4742 Y40.0874 
G01 Z-0.1000 F18.00 
G01 X-22.5717 Y39.9531 F24.00 
G01 X-22.6891 Y39.8357 
G01 X-22.8234 Y39.7382 
G01 X-22.9713 Y39.6628 
G01 X-23.1291 Y39.6116 
G01 X-23.2930 Y39.5856 
G01 X-24.9670 Y39.5856 
G01 X-25.1309 Y39.6116 
G01 X-25.2887 Y39.6628 
G01 X-25.4366 Y39.7382 
G01 X-25.5709 Y39.8357 
G01 X-25.6883 Y39.9531 
G01 X-25.7858 Y40.0874 
G01 X-25.8435 Y40.2005 
G01 X-25.7780 Y40.0426 
G01 X-25.4587 Y39.7233 
G01 X-25.3853 Y39.5960 
G01 X-25.3830 Y39.5921 
G01 X-25.3438 Y39.4458 
G01 X-25.3438 Y39.2942 
G01 X-25.3830 Y39.1479 
G01 X-25.4571 Y39.0196 
G01 X-25.4587 Y39.0167 
G01 X-25.5659 Y38.9096 
G01 X-25.7780 Y38.6974 
G01 X-25.8435 Y38.5395 
G01 X-25.7858 Y38.6526 
G01 X-25.6883 Y38.7869 
G01 X-25.5709 Y38.9043 
G01 X-25.4366 Y39.0018 
G01 X-25.2887 Y39.0771 
G01 X-25.1309 Y39.1284 
G01 X-24.9670 Y39.1544 
G01 X-23.2930 Y39.1544 
G01 X-23.1291 Y39.1284 
G01 X-22.9713 Y39.0771 
G01 X-22.8234 Y39.0018 
G01 X-22.6891 Y38.9043 
G01 X-22.5717 Y38.7869 
G01 X-22.4742 Y38.6526 
G01 X-22.4165 Y38.5394 
G01 X-22.4820 Y38.6974 
G01 X-22.6941 Y38.9096 
G01 X-22.7942 Y39.0096 
G01 X-22.8013 Y39.0167 
G01 X-22.8770 Y39.1479 
G01 X-22.9162 Y39.2942 
G01 X-22.9162 Y39.4458 
G01 X-22.8787 Y39.5859 
G01 X-22.8770 Y39.5921 
G01 X-22.8013 Y39.7233 
G01 X-22.6941 Y39.8304 
G01 X-22.4820 Y40.0426 
G01 X-22.4165 Y40.2006 
G01 X-22.4742 Y40.0874 
G00 Z2.5400 
G00 X-22.3476 Y43.4269 
G01 Z-0.1000 F18.00 
G01 X-22.3216 Y43.2630 F24.00 
G01 X-22.3216 Y43.0970 
G01 X-22.3476 Y42.9331 
G01 X-22.3868 Y42.8123 
G01 X-22.3214 Y42.9702 
G01 X-22.3214 Y43.3898 
G01 X-22.3868 Y43.5477 
G01 X-22.3476 Y43.4269 
G00 Z2.5400 
G00 X-23.2930 Y44.6656 
G01 Z-0.1000 F18.00 
G01 X-24.9670 Y44.6656 F24.00 
G01 X-25.1309 Y44.6916 
G01 X-25.2887 Y44.7429 
G01 X-25.4366 Y44.8182 
G01 X-25.5709 Y44.9157 
G01 X-25.6883 Y45.0331 
G01 X-25.7858 Y45.1674 
G01 X-25.8435 Y45.2805 
G01 X-25.7780 Y45.1226 
G01 X-25.4587 Y44.8033 
G01 X-25.3853 Y44.6760 
G01 X-25.3830 Y44.6721 
G01 X-25.3438 Y44.5258 
G01 X-25.3438 Y44.3742 
G01 X-25.3830 Y44.2279 
G01 X-25.4571 Y44.0996 
G01 X-25.4587 Y44.0967 
G01 X-25.5659 Y43.9896 
G01 X-25.7780 Y43.7774 
G01 X-25.8434 Y43.6195 
G01 X-25.7858 Y43.7326 
G01 X-25.6883 Y43.8669 
G01 X-25.5709 Y43.9843 
G01 X-25.4366 Y44.0818 
G01 X-25.2887 Y44.1571 
G01 X-25.1309 Y44.2084 
G01 X-24.9670 Y44.2344 
G01 X-23.2930 Y44.2344 
G01 X-23.1291 Y44.2084 
G01 X-22.9713 Y44.1571 
G01 X-22.8234 Y44.0818 
G01 X-22.6891 Y43.9843 
G01 X-22.5717 Y43.8669 
G01 X-22.4742 Y43.7326 
G01 X-22.4165 Y43.6194 
G01 X-22.4820 Y43.7774 
G01 X-22.6941 Y43.9896 
G01 X-22.7942 Y44.0896 
G01 X-22.8013 Y44.0967 
G01 X-22.8770 Y44.2279 
G01 X-22.9162 Y44.3742 
G01 X-22.9162 Y44.5258 
G01 X-22.8787 Y44.6659 
G01 X-22.8770 Y44.6721 
G01 X-22.8013 Y44.8033 
G01 X-22.6941 Y44.9104 
G01 X-22.4820 Y45.1226 
G01 X-22.4165 Y45.2806 
G01 X-22.4742 Y45.1674 
G01 X-22.5717 Y45.0331 
G01 X-22.6891 Y44.9157 
G01 X-22.8234 Y44.8182 
G01 X-22.9713 Y44.7429 
G01 X-23.1291 Y44.6916 
G01 X-23.2930 Y44.6656 
G00 Z2.5400 
G00 X-22.3214 Y45.9298 
G01 Z-0.1000 F18.00 
G01 X-22.3868 Y46.0877 F24.00 
G01 X-22.3476 Y45.9669 
G01 X-22.3216 Y45.8030 
G01 X-22.3216 Y45.6370 
G01 X-22.3476 Y45.4731 
G01 X-22.3868 Y45.3523 
G01 X-22.3214 Y45.5102 
G01 X-22.3214 Y45.9298 
G00 Z2.5400 
G00 X-22.6941 Y46.5296 
G01 Z-0.1000 F18.00 
G01 X-22.6941 Y46.5296 F24.00 
G01 X-22.7942 Y46.6296 
G01 X-22.8013 Y46.6367 
G01 X-22.8770 Y46.7679 
G01 X-22.9162 Y46.9142 
G01 X-22.9162 Y47.0658 
G01 X-22.8787 Y47.2059 
G01 X-22.8770 Y47.2121 
G01 X-22.8013 Y47.3433 
G01 X-22.6941 Y47.4504 
G01 X-22.4820 Y47.6626 
G01 X-22.4165 Y47.8206 
G01 X-22.4742 Y47.7074 
G01 X-22.5717 Y47.5731 
G01 X-22.6891 Y47.4557 
G01 X-22.8234 Y47.3582 
G01 X-22.9713 Y47.2829 
G01 X-23.1291 Y47.2316 
G01 X-23.2930 Y47.2056 
G01 X-24.9670 Y47.2056 
G01 X-25.1309 Y47.2316 
G01 X-25.2887 Y47.2829 
G01 X-25.4366 Y47.3582 
G01 X-25.5709 Y47.4557 
G01 X-25.6883 Y47.5731 
G01 X-25.7858 Y47.7074 
G01 X-25.8435 Y47.8205 
G01 X-25.7780 Y47.6626 
G01 X-25.4587 Y47.3433 
G01 X-25.3853 Y47.2160 
G01 X-25.3830 Y47.2121 
G01 X-25.3438 Y47.0658 
G01 X-25.3438 Y46.9142 
G01 X-25.3830 Y46.7679 
G01 X-25.4571 Y46.6396 
G01 X-25.4587 Y46.6367 
G01 X-25.5659 Y46.5296 
G01 X-25.7780 Y46.3174 
G01 X-25.8434 Y46.1595 
G01 X-25.7858 Y46.2726 
G01 X-25.6883 Y46.4069 
G01 X-25.5709 Y46.5243 
G01 X-25.4366 Y46.6218 
G01 X-25.2887 Y46.6971 
G01 X-25.1309 Y46.7484 
G01 X-24.9670 Y46.7744 
G01 X-23.2930 Y46.7744 
G01 X-23.1291 Y46.7484 
G01 X-22.9713 Y46.6971 
G01 X-22.8234 Y46.6218 
G01 X-22.6891 Y46.5243 
G01 X-22.5717 Y46.4069 
G01 X-22.4742 Y46.2726 
G01 X-22.4165 Y46.1594 
G01 X-22.4820 Y46.3174 
G01 X-22.6941 Y46.5296 
G00 Z2.5400 
G00 X-25.9386 Y45.5102 
G01 Z-0.1000 F18.00 
G01 X-25.8732 Y45.3523 F24.00 
G01 X-25.9124 Y45.4731 
G01 X-25.9384 Y45.6370 
G01 X-25.9384 Y45.8030 
G01 X-25.9124 Y45.9669 
G01 X-25.8732 Y46.0877 
G01 X-25.9386 Y45.9298 
G01 X-25.9386 Y45.5102 
G00 Z2.5400 
G00 X-25.9386 Y42.9702 
G01 Z-0.1000 F18.00 
G01 X-25.8732 Y42.8123 F24.00 
G01 X-25.9124 Y42.9331 
G01 X-25.9384 Y43.0970 
G01 X-25.9384 Y43.2630 
G01 X-25.9124 Y43.4269 
G01 X-25.8732 Y43.5477 
G01 X-25.9386 Y43.3898 
G01 X-25.9386 Y42.9702 
G00 Z2.5400 
G00 X-25.9386 Y40.4302 
G01 Z-0.1000 F18.00 
G01 X-25.8732 Y40.2723 F24.00 
G01 X-25.9124 Y40.3931 
G01 X-25.9384 Y40.5570 
G01 X-25.9384 Y40.7230 
G01 X-25.9124 Y40.8869 
G01 X-25.8732 Y41.0077 
G01 X-25.9386 Y40.8498 
G01 X-25.9386 Y40.4302 
G00 Z2.5400 
G00 X-25.9386 Y37.8902 
G01 Z-0.1000 F18.00 
G01 X-25.8732 Y37.7323 F24.00 
G01 X-25.9124 Y37.8531 
G01 X-25.9384 Y38.0170 
G01 X-25.9384 Y38.1830 
G01 X-25.9124 Y38.3469 
G01 X-25.8732 Y38.4677 
G01 X-25.9386 Y38.3098 
G01 X-25.9386 Y37.8902 
G00 Z2.5400 
G00 X-25.9386 Y35.3502 
G01 Z-0.1000 F18.00 
G01 X-25.8732 Y35.1923 F24.00 
G01 X-25.9124 Y35.3131 
G01 X-25.9384 Y35.4770 
G01 X-25.9384 Y35.6430 
G01 X-25.9124 Y35.8069 
G01 X-25.8732 Y35.9277 
G01 X-25.9386 Y35.7698 
G01 X-25.9386 Y35.3502 
G00 Z2.5400 
G00 X-25.9386 Y32.8102 
G01 Z-0.1000 F18.00 
G01 X-25.8732 Y32.6523 F24.00 
G01 X-25.9124 Y32.7731 
G01 X-25.9384 Y32.9370 
G01 X-25.9384 Y33.1030 
G01 X-25.9124 Y33.2669 
G01 X-25.8732 Y33.3876 
G01 X-25.9386 Y33.2298 
G01 X-25.9386 Y32.8102 
G00 Z2.5400 
G00 X-25.9386 Y30.2702 
G01 Z-0.1000 F18.00 
G01 X-25.8732 Y30.1123 F24.00 
G01 X-25.9124 Y30.2331 
G01 X-25.9384 Y30.3970 
G01 X-25.9384 Y30.5630 
G01 X-25.9124 Y30.7269 
G01 X-25.8732 Y30.8477 
G01 X-25.9386 Y30.6898 
G01 X-25.9386 Y30.2702 
G00 Z2.5400 
G00 X-25.9386 Y27.7302 
G01 Z-0.1000 F18.00 
G01 X-25.8732 Y27.5723 F24.00 
G01 X-25.9124 Y27.6931 
G01 X-25.9384 Y27.8570 
G01 X-25.9384 Y28.0230 
G01 X-25.9124 Y28.1869 
G01 X-25.8732 Y28.3077 
G01 X-25.9386 Y28.1498 
G01 X-25.9386 Y27.7302 
G00 Z2.5400 
G00 X-25.9386 Y25.1902 
G01 Z-0.1000 F18.00 
G01 X-25.8732 Y25.0323 F24.00 
G01 X-25.9124 Y25.1531 
G01 X-25.9384 Y25.3170 
G01 X-25.9384 Y25.4830 
G01 X-25.9124 Y25.6469 
G01 X-25.8732 Y25.7677 
G01 X-25.9386 Y25.6098 
G01 X-25.9386 Y25.1902 
G00 Z2.5400 
G00 X-25.4814 Y21.9660 
G01 Z-0.1000 F18.00 
G01 X-25.4369 Y21.9475 F24.00 
G01 X-25.4294 Y21.9463 
G01 X-25.3671 Y21.9186 
G01 X-25.3235 Y21.9005 
G01 X-25.4366 Y21.9582 
G01 X-25.5709 Y22.0557 
G01 X-25.6883 Y22.1731 
G01 X-25.7858 Y22.3074 
G01 X-25.8435 Y22.4205 
G01 X-25.7780 Y22.2626 
G01 X-25.4814 Y21.9660 
G00 Z2.5400 
G00 X-25.9386 Y22.6502 
G01 Z-0.1000 F18.00 
G01 X-25.8732 Y22.4923 F24.00 
G01 X-25.9124 Y22.6131 
G01 X-25.9384 Y22.7770 
G01 X-25.9384 Y22.9430 
G01 X-25.9124 Y23.1069 
G01 X-25.8732 Y23.2277 
G01 X-25.9386 Y23.0698 
G01 X-25.9386 Y22.6502 
G00 Z2.5400 
G00 X-23.2930 Y11.6456 
G01 Z-0.1000 F18.00 
G01 X-24.9670 Y11.6456 F24.00 
G01 X-25.1309 Y11.6716 
G01 X-25.2517 Y11.7108 
G01 X-25.0938 Y11.6454 
G01 X-23.1662 Y11.6454 
G01 X-23.0083 Y11.7108 
G01 X-23.1291 Y11.6716 
G01 X-23.2930 Y11.6456 
G00 Z2.5400 
G00 X-25.4366 Y11.7982 
G01 Z-0.1000 F18.00 
G01 X-25.5709 Y11.8957 F24.00 
G01 X-25.6883 Y12.0131 
G01 X-25.7858 Y12.1474 
G01 X-25.8435 Y12.2605 
G01 X-25.7780 Y12.1026 
G01 X-25.4814 Y11.8060 
G01 X-25.3235 Y11.7405 
G01 X-25.4366 Y11.7982 
G00 Z2.5400 
G00 X-25.9124 Y12.4531 
G01 Z-0.1000 F18.00 
G01 X-25.9384 Y12.6170 F24.00 
G01 X-25.9384 Y12.7830 
G01 X-25.9124 Y12.9469 
G01 X-25.8732 Y13.0677 
G01 X-25.9386 Y12.9098 
G01 X-25.9386 Y12.4902 
G01 X-25.8732 Y12.3323 
G01 X-25.9124 Y12.4531 
G00 Z2.5400 
G00 X-25.7858 Y15.7926 
G01 Z-0.1000 F18.00 
G01 X-25.6883 Y15.9269 F24.00 
G01 X-25.5709 Y16.0443 
G01 X-25.4366 Y16.1418 
G01 X-25.2887 Y16.2171 
G01 X-25.1309 Y16.2684 
G01 X-24.9670 Y16.2944 
G01 X-23.2930 Y16.2944 
G01 X-23.1291 Y16.2684 
G01 X-22.9713 Y16.2171 
G01 X-22.8234 Y16.1418 
G01 X-22.6891 Y16.0443 
G01 X-22.5717 Y15.9269 
G01 X-22.4742 Y15.7926 
G01 X-22.4165 Y15.6795 
G01 X-22.4820 Y15.8374 
G01 X-22.6941 Y16.0496 
G01 X-22.7942 Y16.1496 
G01 X-22.8013 Y16.1567 
G01 X-22.8770 Y16.2879 
G01 X-22.9162 Y16.4342 
G01 X-22.9162 Y16.5858 
G01 X-22.8787 Y16.7259 
G01 X-22.8770 Y16.7321 
G01 X-22.8013 Y16.8633 
G01 X-22.6941 Y16.9704 
G01 X-22.4820 Y17.1826 
G01 X-22.4165 Y17.3405 
G01 X-22.4742 Y17.2274 
G01 X-22.5717 Y17.0931 
G01 X-22.6891 Y16.9757 
G01 X-22.8234 Y16.8782 
G01 X-22.9713 Y16.8028 
G01 X-23.1291 Y16.7516 
G01 X-23.2930 Y16.7256 
G01 X-24.9670 Y16.7256 
G01 X-25.1309 Y16.7516 
G01 X-25.2887 Y16.8028 
G01 X-25.4366 Y16.8782 
G01 X-25.5709 Y16.9757 
G01 X-25.6883 Y17.0931 
G01 X-25.7858 Y17.2274 
G01 X-25.8435 Y17.3405 
G01 X-25.7780 Y17.1826 
G01 X-25.4587 Y16.8633 
G01 X-25.3853 Y16.7360 
G01 X-25.3830 Y16.7321 
G01 X-25.3438 Y16.5858 
G01 X-25.3438 Y16.4342 
G01 X-25.3830 Y16.2879 
G01 X-25.4571 Y16.1596 
G01 X-25.4587 Y16.1567 
G01 X-25.5659 Y16.0496 
G01 X-25.7780 Y15.8374 
G01 X-25.8434 Y15.6795 
G01 X-25.7858 Y15.7926 
G00 Z2.5400 
G00 X-25.9124 Y17.5331 
G01 Z-0.1000 F18.00 
G01 X-25.9384 Y17.6970 F24.00 
G01 X-25.9384 Y17.8630 
G01 X-25.9124 Y18.0269 
G01 X-25.8732 Y18.1477 
G01 X-25.9386 Y17.9898 
G01 X-25.9386 Y17.5702 
G01 X-25.8732 Y17.4123 
G01 X-25.9124 Y17.5331 
G00 Z2.5400 
G00 X-25.7858 Y18.3326 
G01 Z-0.1000 F18.00 
G01 X-25.6883 Y18.4669 F24.00 
G01 X-25.5709 Y18.5843 
G01 X-25.4366 Y18.6818 
G01 X-25.3235 Y18.7394 
G01 X-25.3671 Y18.7214 
G01 X-25.4294 Y18.6937 
G01 X-25.4369 Y18.6925 
G01 X-25.4814 Y18.6740 
G01 X-25.7780 Y18.3774 
G01 X-25.8434 Y18.2195 
G01 X-25.7858 Y18.3326 
G00 Z2.5400 
G00 X-25.1309 Y18.8084 
G01 Z-0.1000 F18.00 
G01 X-24.9670 Y18.8344 F24.00 
G01 X-23.2930 Y18.8344 
G01 X-23.1291 Y18.8084 
G01 X-22.9714 Y18.7572 
G01 X-23.0221 Y18.7982 
G01 X-23.0762 Y18.8397 
G01 X-23.0808 Y18.8458 
G01 X-23.0868 Y18.8506 
G01 X-23.1269 Y18.9058 
G01 X-23.1684 Y18.9599 
G01 X-23.1713 Y18.9670 
G01 X-23.1758 Y18.9732 
G01 X-23.2003 Y19.0369 
G01 X-23.2264 Y19.0999 
G01 X-23.2274 Y19.1075 
G01 X-23.2301 Y19.1146 
G01 X-23.2372 Y19.1825 
G01 X-23.2462 Y19.2501 
G01 X-23.2452 Y19.2577 
G01 X-23.2460 Y19.2653 
G01 X-23.2447 Y19.2733 
G01 X-23.2930 Y19.2656 
G01 X-24.9670 Y19.2656 
G01 X-25.0153 Y19.2733 
G01 X-25.0140 Y19.2653 
G01 X-25.0148 Y19.2577 
G01 X-25.0138 Y19.2501 
G01 X-25.0227 Y19.1825 
G01 X-25.0299 Y19.1146 
G01 X-25.0326 Y19.1075 
G01 X-25.0336 Y19.0999 
G01 X-25.0597 Y19.0369 
G01 X-25.0842 Y18.9732 
G01 X-25.0887 Y18.9670 
G01 X-25.0916 Y18.9599 
G01 X-25.1331 Y18.9058 
G01 X-25.1732 Y18.8506 
G01 X-25.1792 Y18.8458 
G01 X-25.1838 Y18.8397 
G01 X-25.2379 Y18.7982 
G01 X-25.2886 Y18.7572 
G01 X-25.1309 Y18.8084 
G00 Z2.5400 
G00 X-25.9124 Y14.9931 
G01 Z-0.1000 F18.00 
G01 X-25.9384 Y15.1570 F24.00 
G01 X-25.9384 Y15.3230 
G01 X-25.9124 Y15.4869 
G01 X-25.8732 Y15.6077 
G01 X-25.9386 Y15.4498 
G01 X-25.9386 Y15.0302 
G01 X-25.8732 Y14.8723 
G01 X-25.9124 Y14.9931 
G00 Z2.5400 
G00 X-25.7858 Y13.2526 
G01 Z-0.1000 F18.00 
G01 X-25.6883 Y13.3869 F24.00 
G01 X-25.5709 Y13.5043 
G01 X-25.4366 Y13.6018 
G01 X-25.2887 Y13.6771 
G01 X-25.1309 Y13.7284 
G01 X-24.9670 Y13.7544 
G01 X-23.2930 Y13.7544 
G01 X-23.1291 Y13.7284 
G01 X-22.9713 Y13.6771 
G01 X-22.8234 Y13.6018 
G01 X-22.6891 Y13.5043 
G01 X-22.5717 Y13.3869 
G01 X-22.4742 Y13.2526 
G01 X-22.4165 Y13.1395 
G01 X-22.4820 Y13.2974 
G01 X-22.6941 Y13.5096 
G01 X-22.7942 Y13.6096 
G01 X-22.8013 Y13.6167 
G01 X-22.8770 Y13.7479 
G01 X-22.9162 Y13.8942 
G01 X-22.9162 Y14.0457 
G01 X-22.8787 Y14.1859 
G01 X-22.8770 Y14.1921 
G01 X-22.8013 Y14.3233 
G01 X-22.6941 Y14.4304 
G01 X-22.4820 Y14.6426 
G01 X-22.4165 Y14.8006 
G01 X-22.4742 Y14.6874 
G01 X-22.5717 Y14.5531 
G01 X-22.6891 Y14.4357 
G01 X-22.8234 Y14.3382 
G01 X-22.9713 Y14.2629 
G01 X-23.1291 Y14.2116 
G01 X-23.2930 Y14.1856 
G01 X-24.9670 Y14.1856 
G01 X-25.1309 Y14.2116 
G01 X-25.2887 Y14.2629 
G01 X-25.4366 Y14.3382 
G01 X-25.5709 Y14.4357 
G01 X-25.6883 Y14.5531 
G01 X-25.7858 Y14.6874 
G01 X-25.8435 Y14.8005 
G01 X-25.7780 Y14.6426 
G01 X-25.4587 Y14.3233 
G01 X-25.3853 Y14.1960 
G01 X-25.3830 Y14.1921 
G01 X-25.3438 Y14.0457 
G01 X-25.3438 Y13.8942 
G01 X-25.3830 Y13.7479 
G01 X-25.4571 Y13.6196 
G01 X-25.4587 Y13.6167 
G01 X-25.5659 Y13.5096 
G01 X-25.7780 Y13.2974 
G01 X-25.8434 Y13.1395 
G01 X-25.7858 Y13.2526 
G00 Z2.5400 
G00 X-22.4820 Y12.1026 
G01 Z-0.1000 F18.00 
G01 X-22.4165 Y12.2606 F24.00 
G01 X-22.4742 Y12.1474 
G01 X-22.5717 Y12.0131 
G01 X-22.6891 Y11.8957 
G01 X-22.8234 Y11.7982 
G01 X-22.9366 Y11.7405 
G01 X-22.7786 Y11.8060 
G01 X-22.4820 Y12.1026 
G00 Z2.5400 
G00 X-22.3214 Y12.9098 
G01 Z-0.1000 F18.00 
G01 X-22.3868 Y13.0677 F24.00 
G01 X-22.3476 Y12.9469 
G01 X-22.3216 Y12.7830 
G01 X-22.3216 Y12.6170 
G01 X-22.3476 Y12.4531 
G01 X-22.3868 Y12.3323 
G01 X-22.3214 Y12.4902 
G01 X-22.3214 Y12.9098 
G00 Z2.5400 
G00 X-38.0186 Y13.5940 
G01 Z-0.1000 F18.00 
G01 X-38.0631 Y13.6125 F24.00 
G01 X-38.0706 Y13.6137 
G01 X-38.1329 Y13.6414 
G01 X-38.1765 Y13.6594 
G01 X-38.0634 Y13.6018 
G01 X-37.9291 Y13.5043 
G01 X-37.8117 Y13.3869 
G01 X-37.7142 Y13.2526 
G01 X-37.6565 Y13.1395 
G01 X-37.7220 Y13.2974 
G01 X-38.0186 Y13.5940 
G00 Z2.5400 
G00 X-37.5614 Y12.9098 
G01 Z-0.1000 F18.00 
G01 X-37.6268 Y13.0677 F24.00 
G01 X-37.5876 Y12.9469 
G01 X-37.5616 Y12.7830 
G01 X-37.5616 Y12.6170 
G01 X-37.5876 Y12.4531 
G01 X-37.6268 Y12.3323 
G01 X-37.5614 Y12.4902 
G01 X-37.5614 Y12.9098 
G00 Z2.5400 
G00 X-37.7220 Y12.1026 
G01 Z-0.1000 F18.00 
G01 X-37.6565 Y12.2605 F24.00 
G01 X-37.7142 Y12.1474 
G01 X-37.8117 Y12.0131 
G01 X-37.9291 Y11.8957 
G01 X-38.0634 Y11.7982 
G01 X-38.1766 Y11.7405 
G01 X-38.0186 Y11.8060 
G01 X-37.7220 Y12.1026 
G00 Z2.5400 
G00 X-40.3709 Y13.7284 
G01 Z-0.1000 F18.00 
G01 X-40.2070 Y13.7544 F24.00 
G01 X-38.5330 Y13.7544 
G01 X-38.3691 Y13.7284 
G01 X-38.2114 Y13.6772 
G01 X-38.2620 Y13.7182 
G01 X-38.3162 Y13.7597 
G01 X-38.3208 Y13.7658 
G01 X-38.3268 Y13.7706 
G01 X-38.3669 Y13.8258 
G01 X-38.4084 Y13.8799 
G01 X-38.4113 Y13.8870 
G01 X-38.4158 Y13.8932 
G01 X-38.4403 Y13.9569 
G01 X-38.4664 Y14.0199 
G01 X-38.4674 Y14.0275 
G01 X-38.4701 Y14.0346 
G01 X-38.4773 Y14.1025 
G01 X-38.4862 Y14.1701 
G01 X-38.4852 Y14.1777 
G01 X-38.4860 Y14.1853 
G01 X-38.4847 Y14.1933 
G01 X-38.5330 Y14.1856 
G01 X-40.2070 Y14.1856 
G01 X-40.2553 Y14.1933 
G01 X-40.2540 Y14.1853 
G01 X-40.2548 Y14.1777 
G01 X-40.2538 Y14.1701 
G01 X-40.2627 Y14.1025 
G01 X-40.2699 Y14.0346 
G01 X-40.2726 Y14.0275 
G01 X-40.2736 Y14.0199 
G01 X-40.2997 Y13.9569 
G01 X-40.3242 Y13.8932 
G01 X-40.3287 Y13.8870 
G01 X-40.3316 Y13.8799 
G01 X-40.3731 Y13.8258 
G01 X-40.4132 Y13.7706 
G01 X-40.4192 Y13.7658 
G01 X-40.4238 Y13.7597 
G01 X-40.4780 Y13.7182 
G01 X-40.5286 Y13.6772 
G01 X-40.3709 Y13.7284 
G00 Z2.5400 
G00 X-41.0258 Y13.2526 
G01 Z-0.1000 F18.00 
G01 X-40.9282 Y13.3869 F24.00 
G01 X-40.8109 Y13.5043 
G01 X-40.6766 Y13.6018 
G01 X-40.5635 Y13.6594 
G01 X-40.6071 Y13.6414 
G01 X-40.6694 Y13.6137 
G01 X-40.6769 Y13.6125 
G01 X-40.7214 Y13.5940 
G01 X-41.0180 Y13.2974 
G01 X-41.0834 Y13.1395 
G01 X-41.0258 Y13.2526 
G00 Z2.5400 
G00 X-40.6766 Y16.8782 
G01 Z-0.1000 F18.00 
G01 X-40.8109 Y16.9757 F24.00 
G01 X-40.9282 Y17.0931 
G01 X-41.0258 Y17.2274 
G01 X-41.0834 Y17.3405 
G01 X-41.0180 Y17.1826 
G01 X-40.7214 Y16.8860 
G01 X-40.6769 Y16.8675 
G01 X-40.6694 Y16.8663 
G01 X-40.6071 Y16.8386 
G01 X-40.5635 Y16.8205 
G01 X-40.6766 Y16.8782 
G00 Z2.5400 
G00 X-41.1524 Y17.5331 
G01 Z-0.1000 F18.00 
G01 X-41.1784 Y17.6970 F24.00 
G01 X-41.1784 Y17.8630 
G01 X-41.1524 Y18.0269 
G01 X-41.1132 Y18.1477 
G01 X-41.1786 Y17.9898 
G01 X-41.1786 Y17.5702 
G01 X-41.1132 Y17.4123 
G01 X-41.1524 Y17.5331 
G00 Z2.5400 
G00 X-41.0258 Y20.8726 
G01 Z-0.1000 F18.00 
G01 X-40.9282 Y21.0069 F24.00 
G01 X-40.8109 Y21.1242 
G01 X-40.6766 Y21.2218 
G01 X-40.5287 Y21.2971 
G01 X-40.3709 Y21.3484 
G01 X-40.2070 Y21.3744 
G01 X-38.5330 Y21.3744 
G01 X-38.3691 Y21.3484 
G01 X-38.2112 Y21.2971 
G01 X-38.0634 Y21.2218 
G01 X-37.9291 Y21.1242 
G01 X-37.8117 Y21.0069 
G01 X-37.7142 Y20.8726 
G01 X-37.6565 Y20.7595 
G01 X-37.7219 Y20.9174 
G01 X-38.0413 Y21.2367 
G01 X-38.1147 Y21.3640 
G01 X-38.1170 Y21.3679 
G01 X-38.1562 Y21.5142 
G01 X-38.1562 Y21.6658 
G01 X-38.1170 Y21.8121 
G01 X-38.0429 Y21.9404 
G01 X-38.0413 Y21.9433 
G01 X-37.9341 Y22.0504 
G01 X-37.7219 Y22.2626 
G01 X-37.6565 Y22.4206 
G01 X-37.7142 Y22.3074 
G01 X-37.8117 Y22.1731 
G01 X-37.9291 Y22.0557 
G01 X-38.0634 Y21.9582 
G01 X-38.2112 Y21.8829 
G01 X-38.3691 Y21.8316 
G01 X-38.5330 Y21.8056 
G01 X-40.2070 Y21.8056 
G01 X-40.3709 Y21.8316 
G01 X-40.5287 Y21.8829 
G01 X-40.6766 Y21.9582 
G01 X-40.8109 Y22.0557 
G01 X-40.9282 Y22.1731 
G01 X-41.0258 Y22.3074 
G01 X-41.0835 Y22.4205 
G01 X-41.0180 Y22.2626 
G01 X-40.8059 Y22.0504 
G01 X-40.7058 Y21.9504 
G01 X-40.6987 Y21.9433 
G01 X-40.6230 Y21.8121 
G01 X-40.5838 Y21.6658 
G01 X-40.5838 Y21.5142 
G01 X-40.6213 Y21.3741 
G01 X-40.6230 Y21.3679 
G01 X-40.6987 Y21.2367 
G01 X-40.8059 Y21.1296 
G01 X-41.0180 Y20.9174 
G01 X-41.0834 Y20.7595 
G01 X-41.0258 Y20.8726 
G00 Z2.5400 
G00 X-41.1524 Y22.6131 
G01 Z-0.1000 F18.00 
G01 X-41.1784 Y22.7770 F24.00 
G01 X-41.1784 Y22.9430 
G01 X-41.1524 Y23.1069 
G01 X-41.1132 Y23.2277 
G01 X-41.1786 Y23.0698 
G01 X-41.1786 Y22.6502 
G01 X-41.1132 Y22.4923 
G01 X-41.1524 Y22.6131 
G00 Z2.5400 
G00 X-41.0258 Y25.9526 
G01 Z-0.1000 F18.00 
G01 X-40.9282 Y26.0869 F24.00 
G01 X-40.8109 Y26.2043 
G01 X-40.6766 Y26.3018 
G01 X-40.5287 Y26.3771 
G01 X-40.3709 Y26.4284 
G01 X-40.2070 Y26.4544 
G01 X-38.5330 Y26.4544 
G01 X-38.3691 Y26.4284 
G01 X-38.2112 Y26.3771 
G01 X-38.0634 Y26.3018 
G01 X-37.9291 Y26.2043 
G01 X-37.8117 Y26.0869 
G01 X-37.7142 Y25.9526 
G01 X-37.6565 Y25.8395 
G01 X-37.7219 Y25.9974 
G01 X-37.9341 Y26.2096 
G01 X-38.0342 Y26.3096 
G01 X-38.0413 Y26.3167 
G01 X-38.1170 Y26.4479 
G01 X-38.1562 Y26.5942 
G01 X-38.1562 Y26.7458 
G01 X-38.1187 Y26.8859 
G01 X-38.1170 Y26.8921 
G01 X-38.0413 Y27.0233 
G01 X-37.9341 Y27.1304 
G01 X-37.7220 Y27.3426 
G01 X-37.6565 Y27.5006 
G01 X-37.7142 Y27.3874 
G01 X-37.8117 Y27.2531 
G01 X-37.9291 Y27.1357 
G01 X-38.0634 Y27.0382 
G01 X-38.2112 Y26.9628 
G01 X-38.3691 Y26.9116 
G01 X-38.5330 Y26.8856 
G01 X-40.2070 Y26.8856 
G01 X-40.3709 Y26.9116 
G01 X-40.5287 Y26.9628 
G01 X-40.6766 Y27.0382 
G01 X-40.8109 Y27.1357 
G01 X-40.9282 Y27.2531 
G01 X-41.0258 Y27.3874 
G01 X-41.0835 Y27.5005 
G01 X-41.0180 Y27.3426 
G01 X-40.6987 Y27.0233 
G01 X-40.6253 Y26.8960 
G01 X-40.6230 Y26.8921 
G01 X-40.5838 Y26.7458 
G01 X-40.5838 Y26.5942 
G01 X-40.6230 Y26.4479 
G01 X-40.6971 Y26.3196 
G01 X-40.6987 Y26.3167 
G01 X-40.8059 Y26.2096 
G01 X-41.0180 Y25.9974 
G01 X-41.0834 Y25.8395 
G01 X-41.0258 Y25.9526 
G00 Z2.5400 
G00 X-41.1524 Y27.6931 
G01 Z-0.1000 F18.00 
G01 X-41.1784 Y27.8570 F24.00 
G01 X-41.1784 Y28.0230 
G01 X-41.1524 Y28.1869 
G01 X-41.1132 Y28.3077 
G01 X-41.1786 Y28.1498 
G01 X-41.1786 Y27.7302 
G01 X-41.1132 Y27.5723 
G01 X-41.1524 Y27.6931 
G00 Z2.5400 
G00 X-41.0258 Y31.0326 
G01 Z-0.1000 F18.00 
G01 X-40.9282 Y31.1669 F24.00 
G01 X-40.8109 Y31.2843 
G01 X-40.6766 Y31.3818 
G01 X-40.5287 Y31.4571 
G01 X-40.3709 Y31.5084 
G01 X-40.2070 Y31.5344 
G01 X-38.5330 Y31.5344 
G01 X-38.3691 Y31.5084 
G01 X-38.2112 Y31.4571 
G01 X-38.0634 Y31.3818 
G01 X-37.9291 Y31.2843 
G01 X-37.8117 Y31.1669 
G01 X-37.7142 Y31.0326 
G01 X-37.6565 Y30.9195 
G01 X-37.7220 Y31.0774 
G01 X-38.0413 Y31.3967 
G01 X-38.1147 Y31.5240 
G01 X-38.1170 Y31.5279 
G01 X-38.1562 Y31.6742 
G01 X-38.1562 Y31.8258 
G01 X-38.1170 Y31.9721 
G01 X-38.0429 Y32.1004 
G01 X-38.0413 Y32.1033 
G01 X-37.9341 Y32.2104 
G01 X-37.7219 Y32.4226 
G01 X-37.6565 Y32.5806 
G01 X-37.7142 Y32.4674 
G01 X-37.8117 Y32.3331 
G01 X-37.9291 Y32.2157 
G01 X-38.0634 Y32.1182 
G01 X-38.2112 Y32.0429 
G01 X-38.3691 Y31.9916 
G01 X-38.5330 Y31.9656 
G01 X-40.2070 Y31.9656 
G01 X-40.3709 Y31.9916 
G01 X-40.5287 Y32.0429 
G01 X-40.6766 Y32.1182 
G01 X-40.8109 Y32.2157 
G01 X-40.9282 Y32.3331 
G01 X-41.0258 Y32.4674 
G01 X-41.0834 Y32.5805 
G01 X-41.0180 Y32.4226 
G01 X-40.8059 Y32.2104 
G01 X-40.7058 Y32.1104 
G01 X-40.6987 Y32.1033 
G01 X-40.6230 Y31.9721 
G01 X-40.5838 Y31.8258 
G01 X-40.5838 Y31.6742 
G01 X-40.6213 Y31.5341 
G01 X-40.6230 Y31.5279 
G01 X-40.6987 Y31.3967 
G01 X-40.8059 Y31.2896 
G01 X-41.0180 Y31.0774 
G01 X-41.0834 Y30.9195 
G01 X-41.0258 Y31.0326 
G00 Z2.5400 
G00 X-41.1524 Y32.7731 
G01 Z-0.1000 F18.00 
G01 X-41.1784 Y32.9370 F24.00 
G01 X-41.1784 Y33.1030 
G01 X-41.1524 Y33.2669 
G01 X-41.1132 Y33.3877 
G01 X-41.1786 Y33.2298 
G01 X-41.1786 Y32.8102 
G01 X-41.1132 Y32.6523 
G01 X-41.1524 Y32.7731 
G00 Z2.5400 
G00 X-41.0258 Y36.1126 
G01 Z-0.1000 F18.00 
G01 X-40.9282 Y36.2469 F24.00 
G01 X-40.8109 Y36.3642 
G01 X-40.6766 Y36.4618 
G01 X-40.5287 Y36.5371 
G01 X-40.3709 Y36.5884 
G01 X-40.2070 Y36.6144 
G01 X-38.5330 Y36.6144 
G01 X-38.3691 Y36.5884 
G01 X-38.2112 Y36.5371 
G01 X-38.0634 Y36.4618 
G01 X-37.9291 Y36.3642 
G01 X-37.8117 Y36.2469 
G01 X-37.7142 Y36.1126 
G01 X-37.6565 Y35.9995 
G01 X-37.7219 Y36.1574 
G01 X-38.0413 Y36.4767 
G01 X-38.1147 Y36.6040 
G01 X-38.1170 Y36.6079 
G01 X-38.1562 Y36.7542 
G01 X-38.1562 Y36.9058 
G01 X-38.1170 Y37.0521 
G01 X-38.0429 Y37.1804 
G01 X-38.0413 Y37.1833 
G01 X-37.9341 Y37.2904 
G01 X-37.7219 Y37.5026 
G01 X-37.6565 Y37.6606 
G01 X-37.7142 Y37.5474 
G01 X-37.8117 Y37.4131 
G01 X-37.9291 Y37.2957 
G01 X-38.0634 Y37.1982 
G01 X-38.2112 Y37.1228 
G01 X-38.3691 Y37.0716 
G01 X-38.5330 Y37.0456 
G01 X-40.2070 Y37.0456 
G01 X-40.3709 Y37.0716 
G01 X-40.5287 Y37.1228 
G01 X-40.6766 Y37.1982 
G01 X-40.8109 Y37.2957 
G01 X-40.9282 Y37.4131 
G01 X-41.0258 Y37.5474 
G01 X-41.0834 Y37.6605 
G01 X-41.0180 Y37.5026 
G01 X-40.8059 Y37.2904 
G01 X-40.7058 Y37.1904 
G01 X-40.6987 Y37.1833 
G01 X-40.6230 Y37.0521 
G01 X-40.5838 Y36.9058 
G01 X-40.5838 Y36.7542 
G01 X-40.6213 Y36.6141 
G01 X-40.6230 Y36.6079 
G01 X-40.6987 Y36.4767 
G01 X-40.8059 Y36.3696 
G01 X-41.0180 Y36.1574 
G01 X-41.0834 Y35.9995 
G01 X-41.0258 Y36.1126 
G00 Z2.5400 
G00 X-41.1524 Y37.8531 
G01 Z-0.1000 F18.00 
G01 X-41.1784 Y38.0170 F24.00 
G01 X-41.1784 Y38.1830 
G01 X-41.1524 Y38.3469 
G01 X-41.1132 Y38.4677 
G01 X-41.1786 Y38.3098 
G01 X-41.1786 Y37.8902 
G01 X-41.1132 Y37.7323 
G01 X-41.1524 Y37.8531 
G00 Z2.5400 
G00 X-41.0258 Y41.1926 
G01 Z-0.1000 F18.00 
G01 X-40.9282 Y41.3269 F24.00 
G01 X-40.8109 Y41.4443 
G01 X-40.6766 Y41.5418 
G01 X-40.5287 Y41.6171 
G01 X-40.3709 Y41.6684 
G01 X-40.2070 Y41.6944 
G01 X-38.5330 Y41.6944 
G01 X-38.3691 Y41.6684 
G01 X-38.2112 Y41.6171 
G01 X-38.0634 Y41.5418 
G01 X-37.9291 Y41.4443 
G01 X-37.8117 Y41.3269 
G01 X-37.7142 Y41.1926 
G01 X-37.6565 Y41.0795 
G01 X-37.7220 Y41.2374 
G01 X-38.0413 Y41.5567 
G01 X-38.1147 Y41.6840 
G01 X-38.1170 Y41.6879 
G01 X-38.1562 Y41.8342 
G01 X-38.1562 Y41.9858 
G01 X-38.1170 Y42.1321 
G01 X-38.0429 Y42.2604 
G01 X-38.0413 Y42.2633 
G01 X-37.9341 Y42.3704 
G01 X-37.7219 Y42.5826 
G01 X-37.6565 Y42.7406 
G01 X-37.7142 Y42.6274 
G01 X-37.8117 Y42.4931 
G01 X-37.9291 Y42.3757 
G01 X-38.0634 Y42.2782 
G01 X-38.2112 Y42.2029 
G01 X-38.3691 Y42.1516 
G01 X-38.5330 Y42.1256 
G01 X-40.2070 Y42.1256 
G01 X-40.3709 Y42.1516 
G01 X-40.5287 Y42.2029 
G01 X-40.6766 Y42.2782 
G01 X-40.8109 Y42.3757 
G01 X-40.9282 Y42.4931 
G01 X-41.0258 Y42.6274 
G01 X-41.0835 Y42.7405 
G01 X-41.0180 Y42.5826 
G01 X-40.8059 Y42.3704 
G01 X-40.7058 Y42.2704 
G01 X-40.6987 Y42.2633 
G01 X-40.6230 Y42.1321 
G01 X-40.5838 Y41.9858 
G01 X-40.5838 Y41.8342 
G01 X-40.6213 Y41.6941 
G01 X-40.6230 Y41.6879 
G01 X-40.6987 Y41.5567 
G01 X-40.8059 Y41.4496 
G01 X-41.0180 Y41.2374 
G01 X-41.0834 Y41.0795 
G01 X-41.0258 Y41.1926 
G00 Z2.5400 
G00 X-41.1524 Y42.9331 
G01 Z-0.1000 F18.00 
G01 X-41.1784 Y43.0970 F24.00 
G01 X-41.1784 Y43.2630 
G01 X-41.1524 Y43.4269 
G01 X-41.1132 Y43.5477 
G01 X-41.1786 Y43.3898 
G01 X-41.1786 Y42.9702 
G01 X-41.1132 Y42.8123 
G01 X-41.1524 Y42.9331 
G00 Z2.5400 
G00 X-22.3214 Y15.4498 
G01 Z-0.1000 F18.00 
G01 X-22.3868 Y15.6077 F24.00 
G01 X-22.3476 Y15.4869 
G01 X-22.3216 Y15.3230 
G01 X-22.3216 Y15.1570 
G01 X-22.3476 Y14.9931 
G01 X-22.3868 Y14.8723 
G01 X-22.3214 Y15.0302 
G01 X-22.3214 Y15.4498 
G00 Z2.5400 
G00 X-22.3214 Y17.9898 
G01 Z-0.1000 F18.00 
G01 X-22.3868 Y18.1477 F24.00 
G01 X-22.3476 Y18.0269 
G01 X-22.3216 Y17.8630 
G01 X-22.3216 Y17.6970 
G01 X-22.3476 Y17.5331 
G01 X-22.3868 Y17.4123 
G01 X-22.3214 Y17.5702 
G01 X-22.3214 Y17.9898 
G00 Z2.5400 
G00 X-22.7786 Y18.6740 
G01 Z-0.1000 F18.00 
G01 X-22.8231 Y18.6925 F24.00 
G01 X-22.8306 Y18.6937 
G01 X-22.8929 Y18.7214 
G01 X-22.9365 Y18.7394 
G01 X-22.8234 Y18.6818 
G01 X-22.6891 Y18.5843 
G01 X-22.5717 Y18.4669 
G01 X-22.4742 Y18.3326 
G01 X-22.4165 Y18.2195 
G01 X-22.4820 Y18.3774 
G01 X-22.7786 Y18.6740 
G00 Z2.5400 
G00 X-41.0258 Y46.2726 
G01 Z-0.1000 F18.00 
G01 X-40.9282 Y46.4069 F24.00 
G01 X-40.8109 Y46.5243 
G01 X-40.6766 Y46.6218 
G01 X-40.5287 Y46.6971 
G01 X-40.3709 Y46.7484 
G01 X-40.2070 Y46.7744 
G01 X-38.5330 Y46.7744 
G01 X-38.3691 Y46.7484 
G01 X-38.2112 Y46.6971 
G01 X-38.0634 Y46.6218 
G01 X-37.9291 Y46.5243 
G01 X-37.8117 Y46.4069 
G01 X-37.7142 Y46.2726 
G01 X-37.6565 Y46.1595 
G01 X-37.7220 Y46.3174 
G01 X-38.0413 Y46.6367 
G01 X-38.1147 Y46.7640 
G01 X-38.1170 Y46.7679 
G01 X-38.1562 Y46.9142 
G01 X-38.1562 Y47.0658 
G01 X-38.1170 Y47.2121 
G01 X-38.0429 Y47.3404 
G01 X-38.0413 Y47.3433 
G01 X-37.9341 Y47.4504 
G01 X-37.7219 Y47.6626 
G01 X-37.6565 Y47.8206 
G01 X-37.7142 Y47.7074 
G01 X-37.8117 Y47.5731 
G01 X-37.9291 Y47.4557 
G01 X-38.0634 Y47.3582 
G01 X-38.2112 Y47.2829 
G01 X-38.3691 Y47.2316 
G01 X-38.5330 Y47.2056 
G01 X-40.2070 Y47.2056 
G01 X-40.3709 Y47.2316 
G01 X-40.5287 Y47.2829 
G01 X-40.6766 Y47.3582 
G01 X-40.8109 Y47.4557 
G01 X-40.9282 Y47.5731 
G01 X-41.0258 Y47.7074 
G01 X-41.0835 Y47.8205 
G01 X-41.0180 Y47.6626 
G01 X-40.8059 Y47.4504 
G01 X-40.7058 Y47.3504 
G01 X-40.6987 Y47.3433 
G01 X-40.6230 Y47.2121 
G01 X-40.5838 Y47.0658 
G01 X-40.5838 Y46.9142 
G01 X-40.6213 Y46.7741 
G01 X-40.6230 Y46.7679 
G01 X-40.6987 Y46.6367 
G01 X-40.8059 Y46.5296 
G01 X-41.0180 Y46.3174 
G01 X-41.0834 Y46.1595 
G01 X-41.0258 Y46.2726 
G00 Z2.5400 
G00 X-41.1524 Y45.4731 
G01 Z-0.1000 F18.00 
G01 X-41.1784 Y45.6370 F24.00 
G01 X-41.1784 Y45.8030 
G01 X-41.1524 Y45.9669 
G01 X-41.1132 Y46.0877 
G01 X-41.1786 Y45.9298 
G01 X-41.1786 Y45.5102 
G01 X-41.1132 Y45.3523 
G01 X-41.1524 Y45.4731 
G00 Z2.5400 
G00 X-41.0258 Y43.7326 
G01 Z-0.1000 F18.00 
G01 X-40.9282 Y43.8669 F24.00 
G01 X-40.8109 Y43.9843 
G01 X-40.6766 Y44.0818 
G01 X-40.5287 Y44.1571 
G01 X-40.3709 Y44.2084 
G01 X-40.2070 Y44.2344 
G01 X-38.5330 Y44.2344 
G01 X-38.3691 Y44.2084 
G01 X-38.2112 Y44.1571 
G01 X-38.0634 Y44.0818 
G01 X-37.9291 Y43.9843 
G01 X-37.8117 Y43.8669 
G01 X-37.7142 Y43.7326 
G01 X-37.6565 Y43.6195 
G01 X-37.7220 Y43.7774 
G01 X-38.0413 Y44.0967 
G01 X-38.1147 Y44.2240 
G01 X-38.1170 Y44.2279 
G01 X-38.1562 Y44.3742 
G01 X-38.1562 Y44.5258 
G01 X-38.1170 Y44.6721 
G01 X-38.0429 Y44.8004 
G01 X-38.0413 Y44.8033 
G01 X-37.9341 Y44.9104 
G01 X-37.7219 Y45.1226 
G01 X-37.6565 Y45.2806 
G01 X-37.7142 Y45.1674 
G01 X-37.8117 Y45.0331 
G01 X-37.9291 Y44.9157 
G01 X-38.0634 Y44.8182 
G01 X-38.2112 Y44.7429 
G01 X-38.3691 Y44.6916 
G01 X-38.5330 Y44.6656 
G01 X-40.2070 Y44.6656 
G01 X-40.3709 Y44.6916 
G01 X-40.5287 Y44.7429 
G01 X-40.6766 Y44.8182 
G01 X-40.8109 Y44.9157 
G01 X-40.9282 Y45.0331 
G01 X-41.0258 Y45.1674 
G01 X-41.0835 Y45.2805 
G01 X-41.0180 Y45.1226 
G01 X-40.8059 Y44.9104 
G01 X-40.7058 Y44.8104 
G01 X-40.6987 Y44.8033 
G01 X-40.6230 Y44.6721 
G01 X-40.5838 Y44.5258 
G01 X-40.5838 Y44.3742 
G01 X-40.6213 Y44.2341 
G01 X-40.6230 Y44.2279 
G01 X-40.6987 Y44.0967 
G01 X-40.8059 Y43.9896 
G01 X-41.0180 Y43.7774 
G01 X-41.0834 Y43.6195 
G01 X-41.0258 Y43.7326 
G00 Z2.5400 
G00 X-41.1524 Y40.3931 
G01 Z-0.1000 F18.00 
G01 X-41.1784 Y40.5570 F24.00 
G01 X-41.1784 Y40.7230 
G01 X-41.1524 Y40.8869 
G01 X-41.1132 Y41.0077 
G01 X-41.1786 Y40.8498 
G01 X-41.1786 Y40.4302 
G01 X-41.1132 Y40.2723 
G01 X-41.1524 Y40.3931 
G00 Z2.5400 
G00 X-41.0258 Y38.6526 
G01 Z-0.1000 F18.00 
G01 X-40.9282 Y38.7869 F24.00 
G01 X-40.8109 Y38.9043 
G01 X-40.6766 Y39.0018 
G01 X-40.5287 Y39.0771 
G01 X-40.3709 Y39.1284 
G01 X-40.2070 Y39.1544 
G01 X-38.5330 Y39.1544 
G01 X-38.3691 Y39.1284 
G01 X-38.2112 Y39.0771 
G01 X-38.0634 Y39.0018 
G01 X-37.9291 Y38.9043 
G01 X-37.8117 Y38.7869 
G01 X-37.7142 Y38.6526 
G01 X-37.6565 Y38.5395 
G01 X-37.7219 Y38.6974 
G01 X-38.0413 Y39.0167 
G01 X-38.1147 Y39.1440 
G01 X-38.1170 Y39.1479 
G01 X-38.1562 Y39.2942 
G01 X-38.1562 Y39.4458 
G01 X-38.1170 Y39.5921 
G01 X-38.0429 Y39.7204 
G01 X-38.0413 Y39.7233 
G01 X-37.9341 Y39.8304 
G01 X-37.7219 Y40.0426 
G01 X-37.6565 Y40.2006 
G01 X-37.7142 Y40.0874 
G01 X-37.8117 Y39.9531 
G01 X-37.9291 Y39.8357 
G01 X-38.0634 Y39.7382 
G01 X-38.2112 Y39.6628 
G01 X-38.3691 Y39.6116 
G01 X-38.5330 Y39.5856 
G01 X-40.2070 Y39.5856 
G01 X-40.3709 Y39.6116 
G01 X-40.5287 Y39.6628 
G01 X-40.6766 Y39.7382 
G01 X-40.8109 Y39.8357 
G01 X-40.9282 Y39.9531 
G01 X-41.0258 Y40.0874 
G01 X-41.0835 Y40.2005 
G01 X-41.0180 Y40.0426 
G01 X-40.8059 Y39.8304 
G01 X-40.6987 Y39.7233 
G01 X-40.6403 Y39.6221 
G01 X-40.6230 Y39.5921 
G01 X-40.5838 Y39.4458 
G01 X-40.5838 Y39.2942 
G01 X-40.6230 Y39.1479 
G01 X-40.6987 Y39.0167 
G01 X-41.0180 Y38.6974 
G01 X-41.0834 Y38.5395 
G01 X-41.0258 Y38.6526 
G00 Z2.5400 
G00 X-41.1524 Y35.3131 
G01 Z-0.1000 F18.00 
G01 X-41.1784 Y35.4770 F24.00 
G01 X-41.1784 Y35.6430 
G01 X-41.1524 Y35.8069 
G01 X-41.1132 Y35.9277 
G01 X-41.1786 Y35.7698 
G01 X-41.1786 Y35.3502 
G01 X-41.1132 Y35.1923 
G01 X-41.1524 Y35.3131 
G00 Z2.5400 
G00 X-41.0258 Y33.5726 
G01 Z-0.1000 F18.00 
G01 X-40.9282 Y33.7069 F24.00 
G01 X-40.8109 Y33.8242 
G01 X-40.6766 Y33.9218 
G01 X-40.5287 Y33.9971 
G01 X-40.3709 Y34.0484 
G01 X-40.2070 Y34.0744 
G01 X-38.5330 Y34.0744 
G01 X-38.3691 Y34.0484 
G01 X-38.2112 Y33.9971 
G01 X-38.0634 Y33.9218 
G01 X-37.9291 Y33.8242 
G01 X-37.8117 Y33.7069 
G01 X-37.7142 Y33.5726 
G01 X-37.6565 Y33.4595 
G01 X-37.7220 Y33.6174 
G01 X-38.0413 Y33.9367 
G01 X-38.1147 Y34.0640 
G01 X-38.1170 Y34.0679 
G01 X-38.1562 Y34.2142 
G01 X-38.1562 Y34.3658 
G01 X-38.1170 Y34.5121 
G01 X-38.0429 Y34.6404 
G01 X-38.0413 Y34.6433 
G01 X-37.9341 Y34.7504 
G01 X-37.7219 Y34.9626 
G01 X-37.6565 Y35.1206 
G01 X-37.7142 Y35.0074 
G01 X-37.8117 Y34.8731 
G01 X-37.9291 Y34.7557 
G01 X-38.0634 Y34.6582 
G01 X-38.2112 Y34.5829 
G01 X-38.3691 Y34.5316 
G01 X-38.5330 Y34.5056 
G01 X-40.2070 Y34.5056 
G01 X-40.3709 Y34.5316 
G01 X-40.5287 Y34.5829 
G01 X-40.6766 Y34.6582 
G01 X-40.8109 Y34.7557 
G01 X-40.9282 Y34.8731 
G01 X-41.0258 Y35.0074 
G01 X-41.0834 Y35.1205 
G01 X-41.0180 Y34.9626 
G01 X-40.8059 Y34.7504 
G01 X-40.7058 Y34.6504 
G01 X-40.6987 Y34.6433 
G01 X-40.6230 Y34.5121 
G01 X-40.5838 Y34.3658 
G01 X-40.5838 Y34.2142 
G01 X-40.6213 Y34.0741 
G01 X-40.6230 Y34.0679 
G01 X-40.6987 Y33.9367 
G01 X-40.8059 Y33.8296 
G01 X-41.0180 Y33.6174 
G01 X-41.0834 Y33.4595 
G01 X-41.0258 Y33.5726 
G00 Z2.5400 
G00 X-41.1524 Y30.2331 
G01 Z-0.1000 F18.00 
G01 X-41.1784 Y30.3970 F24.00 
G01 X-41.1784 Y30.5630 
G01 X-41.1524 Y30.7269 
G01 X-41.1132 Y30.8477 
G01 X-41.1786 Y30.6898 
G01 X-41.1786 Y30.2702 
G01 X-41.1132 Y30.1123 
G01 X-41.1524 Y30.2331 
G00 Z2.5400 
G00 X-41.0258 Y28.4926 
G01 Z-0.1000 F18.00 
G01 X-40.9282 Y28.6269 F24.00 
G01 X-40.8109 Y28.7443 
G01 X-40.6766 Y28.8418 
G01 X-40.5287 Y28.9171 
G01 X-40.3709 Y28.9684 
G01 X-40.2070 Y28.9944 
G01 X-38.5330 Y28.9944 
G01 X-38.3691 Y28.9684 
G01 X-38.2112 Y28.9171 
G01 X-38.0634 Y28.8418 
G01 X-37.9291 Y28.7443 
G01 X-37.8117 Y28.6269 
G01 X-37.7142 Y28.4926 
G01 X-37.6565 Y28.3795 
G01 X-37.7220 Y28.5374 
G01 X-38.0413 Y28.8567 
G01 X-38.1147 Y28.9840 
G01 X-38.1170 Y28.9879 
G01 X-38.1562 Y29.1342 
G01 X-38.1562 Y29.2858 
G01 X-38.1170 Y29.4321 
G01 X-38.0429 Y29.5604 
G01 X-38.0413 Y29.5633 
G01 X-37.9341 Y29.6704 
G01 X-37.7219 Y29.8826 
G01 X-37.6565 Y30.0406 
G01 X-37.7142 Y29.9274 
G01 X-37.8117 Y29.7931 
G01 X-37.9291 Y29.6757 
G01 X-38.0634 Y29.5782 
G01 X-38.2112 Y29.5029 
G01 X-38.3691 Y29.4516 
G01 X-38.5330 Y29.4256 
G01 X-40.2070 Y29.4256 
G01 X-40.3709 Y29.4516 
G01 X-40.5287 Y29.5029 
G01 X-40.6766 Y29.5782 
G01 X-40.8109 Y29.6757 
G01 X-40.9282 Y29.7931 
G01 X-41.0258 Y29.9274 
G01 X-41.0834 Y30.0405 
G01 X-41.0180 Y29.8826 
G01 X-40.8059 Y29.6704 
G01 X-40.7058 Y29.5704 
G01 X-40.6987 Y29.5633 
G01 X-40.6230 Y29.4321 
G01 X-40.5838 Y29.2858 
G01 X-40.5838 Y29.1342 
G01 X-40.6213 Y28.9941 
G01 X-40.6230 Y28.9879 
G01 X-40.6987 Y28.8567 
G01 X-40.8059 Y28.7496 
G01 X-41.0180 Y28.5374 
G01 X-41.0834 Y28.3795 
G01 X-41.0258 Y28.4926 
G00 Z2.5400 
G00 X-41.1524 Y25.1531 
G01 Z-0.1000 F18.00 
G01 X-41.1784 Y25.3170 F24.00 
G01 X-41.1784 Y25.4830 
G01 X-41.1524 Y25.6469 
G01 X-41.1132 Y25.7677 
G01 X-41.1786 Y25.6098 
G01 X-41.1786 Y25.1902 
G01 X-41.1132 Y25.0323 
G01 X-41.1524 Y25.1531 
G00 Z2.5400 
G00 X-41.0258 Y23.4126 
G01 Z-0.1000 F18.00 
G01 X-40.9282 Y23.5469 F24.00 
G01 X-40.8109 Y23.6643 
G01 X-40.6766 Y23.7618 
G01 X-40.5287 Y23.8371 
G01 X-40.3709 Y23.8884 
G01 X-40.2070 Y23.9144 
G01 X-38.5330 Y23.9144 
G01 X-38.3691 Y23.8884 
G01 X-38.2112 Y23.8371 
G01 X-38.0634 Y23.7618 
G01 X-37.9291 Y23.6643 
G01 X-37.8117 Y23.5469 
G01 X-37.7142 Y23.4126 
G01 X-37.6565 Y23.2995 
G01 X-37.7220 Y23.4574 
G01 X-38.0413 Y23.7767 
G01 X-38.1147 Y23.9040 
G01 X-38.1170 Y23.9079 
G01 X-38.1562 Y24.0542 
G01 X-38.1562 Y24.2058 
G01 X-38.1170 Y24.3521 
G01 X-38.0429 Y24.4804 
G01 X-38.0413 Y24.4833 
G01 X-37.9341 Y24.5904 
G01 X-37.7219 Y24.8026 
G01 X-37.6565 Y24.9606 
G01 X-37.7142 Y24.8474 
G01 X-37.8117 Y24.7131 
G01 X-37.9291 Y24.5957 
G01 X-38.0634 Y24.4982 
G01 X-38.2112 Y24.4229 
G01 X-38.3691 Y24.3716 
G01 X-38.5330 Y24.3456 
G01 X-40.2070 Y24.3456 
G01 X-40.3709 Y24.3716 
G01 X-40.5287 Y24.4229 
G01 X-40.6766 Y24.4982 
G01 X-40.8109 Y24.5957 
G01 X-40.9282 Y24.7131 
G01 X-41.0258 Y24.8474 
G01 X-41.0835 Y24.9605 
G01 X-41.0180 Y24.8026 
G01 X-40.8059 Y24.5904 
G01 X-40.7058 Y24.4904 
G01 X-40.6987 Y24.4833 
G01 X-40.6230 Y24.3521 
G01 X-40.5838 Y24.2058 
G01 X-40.5838 Y24.0542 
G01 X-40.6213 Y23.9141 
G01 X-40.6230 Y23.9079 
G01 X-40.6987 Y23.7767 
G01 X-40.8059 Y23.6696 
G01 X-41.0180 Y23.4574 
G01 X-41.0834 Y23.2995 
G01 X-41.0258 Y23.4126 
G00 Z2.5400 
G00 X-41.1524 Y20.0731 
G01 Z-0.1000 F18.00 
G01 X-41.1784 Y20.2370 F24.00 
G01 X-41.1784 Y20.4030 
G01 X-41.1524 Y20.5669 
G01 X-41.1132 Y20.6877 
G01 X-41.1786 Y20.5298 
G01 X-41.1786 Y20.1102 
G01 X-41.1132 Y19.9523 
G01 X-41.1524 Y20.0731 
G00 Z2.5400 
G00 X-41.0258 Y18.3326 
G01 Z-0.1000 F18.00 
G01 X-40.9282 Y18.4669 F24.00 
G01 X-40.8109 Y18.5843 
G01 X-40.6766 Y18.6818 
G01 X-40.5287 Y18.7571 
G01 X-40.3709 Y18.8084 
G01 X-40.2070 Y18.8344 
G01 X-38.5330 Y18.8344 
G01 X-38.3691 Y18.8084 
G01 X-38.2112 Y18.7571 
G01 X-38.0634 Y18.6818 
G01 X-37.9291 Y18.5843 
G01 X-37.8117 Y18.4669 
G01 X-37.7142 Y18.3326 
G01 X-37.6565 Y18.2195 
G01 X-37.7219 Y18.3774 
G01 X-38.0413 Y18.6967 
G01 X-38.1147 Y18.8240 
G01 X-38.1170 Y18.8279 
G01 X-38.1562 Y18.9742 
G01 X-38.1562 Y19.1258 
G01 X-38.1170 Y19.2721 
G01 X-38.0429 Y19.4004 
G01 X-38.0413 Y19.4033 
G01 X-37.9341 Y19.5104 
G01 X-37.7219 Y19.7226 
G01 X-37.6565 Y19.8806 
G01 X-37.7142 Y19.7674 
G01 X-37.8117 Y19.6331 
G01 X-37.9291 Y19.5157 
G01 X-38.0634 Y19.4182 
G01 X-38.2112 Y19.3429 
G01 X-38.3691 Y19.2916 
G01 X-38.5330 Y19.2656 
G01 X-40.2070 Y19.2656 
G01 X-40.3709 Y19.2916 
G01 X-40.5287 Y19.3429 
G01 X-40.6766 Y19.4182 
G01 X-40.8109 Y19.5157 
G01 X-40.9282 Y19.6331 
G01 X-41.0258 Y19.7674 
G01 X-41.0834 Y19.8805 
G01 X-41.0180 Y19.7226 
G01 X-40.8059 Y19.5104 
G01 X-40.7058 Y19.4104 
G01 X-40.6987 Y19.4033 
G01 X-40.6230 Y19.2721 
G01 X-40.5838 Y19.1258 
G01 X-40.5838 Y18.9742 
G01 X-40.6213 Y18.8341 
G01 X-40.6230 Y18.8279 
G01 X-40.6987 Y18.6967 
G01 X-40.8059 Y18.5896 
G01 X-41.0180 Y18.3774 
G01 X-41.0834 Y18.2195 
G01 X-41.0258 Y18.3326 
G00 Z2.5400 
G00 X-40.2070 Y16.2944 
G01 Z-0.1000 F18.00 
G01 X-38.5330 Y16.2944 F24.00 
G01 X-38.4847 Y16.2867 
G01 X-38.4860 Y16.2947 
G01 X-38.4852 Y16.3023 
G01 X-38.4862 Y16.3099 
G01 X-38.4773 Y16.3775 
G01 X-38.4701 Y16.4454 
G01 X-38.4674 Y16.4525 
G01 X-38.4664 Y16.4601 
G01 X-38.4403 Y16.5231 
G01 X-38.4158 Y16.5868 
G01 X-38.4113 Y16.5930 
G01 X-38.4084 Y16.6001 
G01 X-38.3669 Y16.6542 
G01 X-38.3268 Y16.7094 
G01 X-38.3208 Y16.7142 
G01 X-38.3162 Y16.7203 
G01 X-38.2620 Y16.7618 
G01 X-38.2114 Y16.8028 
G01 X-38.3691 Y16.7516 
G01 X-38.5330 Y16.7256 
G01 X-40.2070 Y16.7256 
G01 X-40.3709 Y16.7516 
G01 X-40.5286 Y16.8028 
G01 X-40.4780 Y16.7618 
G01 X-40.4238 Y16.7203 
G01 X-40.4192 Y16.7142 
G01 X-40.4132 Y16.7094 
G01 X-40.3731 Y16.6542 
G01 X-40.3316 Y16.6001 
G01 X-40.3287 Y16.5930 
G01 X-40.3242 Y16.5868 
G01 X-40.2997 Y16.5231 
G01 X-40.2736 Y16.4601 
G01 X-40.2726 Y16.4525 
G01 X-40.2699 Y16.4454 
G01 X-40.2627 Y16.3775 
G01 X-40.2538 Y16.3099 
G01 X-40.2548 Y16.3023 
G01 X-40.2540 Y16.2947 
G01 X-40.2553 Y16.2867 
G01 X-40.2070 Y16.2944 
G00 Z2.5400 
G00 X-41.1524 Y12.4531 
G01 Z-0.1000 F18.00 
G01 X-41.1784 Y12.6170 F24.00 
G01 X-41.1784 Y12.7830 
G01 X-41.1524 Y12.9469 
G01 X-41.1132 Y13.0677 
G01 X-41.1786 Y12.9098 
G01 X-41.1786 Y12.4902 
G01 X-41.1132 Y12.3323 
G01 X-41.1524 Y12.4531 
G00 Z2.5400 
G00 X-40.6766 Y11.7982 
G01 Z-0.1000 F18.00 
G01 X-40.8109 Y11.8957 F24.00 
G01 X-40.9282 Y12.0131 
G01 X-41.0258 Y12.1474 
G01 X-41.0835 Y12.2605 
G01 X-41.0180 Y12.1026 
G01 X-40.7214 Y11.8060 
G01 X-40.5635 Y11.7405 
G01 X-40.6766 Y11.7982 
G00 Z2.5400 
G00 X-38.5330 Y11.6456 
G01 Z-0.1000 F18.00 
G01 X-40.2070 Y11.6456 F24.00 
G01 X-40.3709 Y11.6716 
G01 X-40.4917 Y11.7108 
G01 X-40.3338 Y11.6454 
G01 X-38.4062 Y11.6454 
G01 X-38.2483 Y11.7108 
G01 X-38.3691 Y11.6716 
G01 X-38.5330 Y11.6456 
G00 Z2.5400 
G00 X-37.7219 Y17.1826 
G01 Z-0.1000 F18.00 
G01 X-37.6565 Y17.3406 F24.00 
G01 X-37.7142 Y17.2274 
G01 X-37.8117 Y17.0931 
G01 X-37.9291 Y16.9757 
G01 X-38.0634 Y16.8782 
G01 X-38.1765 Y16.8205 
G01 X-38.1329 Y16.8386 
G01 X-38.0706 Y16.8663 
G01 X-38.0631 Y16.8675 
G01 X-38.0186 Y16.8860 
G01 X-37.7219 Y17.1826 
G00 Z2.5400 
G00 X-37.5614 Y17.9898 
G01 Z-0.1000 F18.00 
G01 X-37.6268 Y18.1477 F24.00 
G01 X-37.5876 Y18.0269 
G01 X-37.5616 Y17.8630 
G01 X-37.5616 Y17.6970 
G01 X-37.5876 Y17.5331 
G01 X-37.6268 Y17.4123 
G01 X-37.5614 Y17.5702 
G01 X-37.5614 Y17.9898 
G00 Z2.5400 
G00 X-37.5614 Y20.5298 
G01 Z-0.1000 F18.00 
G01 X-37.6268 Y20.6877 F24.00 
G01 X-37.5876 Y20.5669 
G01 X-37.5616 Y20.4030 
G01 X-37.5616 Y20.2370 
G01 X-37.5876 Y20.0731 
G01 X-37.6268 Y19.9523 
G01 X-37.5614 Y20.1102 
G01 X-37.5614 Y20.5298 
G00 Z2.5400 
G00 X-37.5614 Y23.0698 
G01 Z-0.1000 F18.00 
G01 X-37.6268 Y23.2277 F24.00 
G01 X-37.5876 Y23.1069 
G01 X-37.5616 Y22.9430 
G01 X-37.5616 Y22.7770 
G01 X-37.5876 Y22.6131 
G01 X-37.6268 Y22.4923 
G01 X-37.5614 Y22.6502 
G01 X-37.5614 Y23.0698 
G00 Z2.5400 
G00 X-37.5614 Y25.6098 
G01 Z-0.1000 F18.00 
G01 X-37.6268 Y25.7677 F24.00 
G01 X-37.5876 Y25.6469 
G01 X-37.5616 Y25.4830 
G01 X-37.5616 Y25.3170 
G01 X-37.5876 Y25.1531 
G01 X-37.6268 Y25.0323 
G01 X-37.5614 Y25.1902 
G01 X-37.5614 Y25.6098 
G00 Z2.5400 
G00 X-37.5614 Y28.1498 
G01 Z-0.1000 F18.00 
G01 X-37.6268 Y28.3077 F24.00 
G01 X-37.5876 Y28.1869 
G01 X-37.5616 Y28.0230 
G01 X-37.5616 Y27.8570 
G01 X-37.5876 Y27.6931 
G01 X-37.6268 Y27.5723 
G01 X-37.5614 Y27.7302 
G01 X-37.5614 Y28.1498 
G00 Z2.5400 
G00 X-37.5614 Y30.6898 
G01 Z-0.1000 F18.00 
G01 X-37.6268 Y30.8477 F24.00 
G01 X-37.5876 Y30.7269 
G01 X-37.5616 Y30.5630 
G01 X-37.5616 Y30.3970 
G01 X-37.5876 Y30.2331 
G01 X-37.6268 Y30.1123 
G01 X-37.5614 Y30.2702 
G01 X-37.5614 Y30.6898 
G00 Z2.5400 
G00 X-37.5614 Y33.2298 
G01 Z-0.1000 F18.00 
G01 X-37.6268 Y33.3877 F24.00 
G01 X-37.5876 Y33.2669 
G01 X-37.5616 Y33.1030 
G01 X-37.5616 Y32.9370 
G01 X-37.5876 Y32.7731 
G01 X-37.6268 Y32.6523 
G01 X-37.5614 Y32.8102 
G01 X-37.5614 Y33.2298 
G00 Z2.5400 
G00 X-37.5614 Y35.7698 
G01 Z-0.1000 F18.00 
G01 X-37.6268 Y35.9277 F24.00 
G01 X-37.5876 Y35.8069 
G01 X-37.5616 Y35.6430 
G01 X-37.5616 Y35.4770 
G01 X-37.5876 Y35.3131 
G01 X-37.6268 Y35.1923 
G01 X-37.5614 Y35.3502 
G01 X-37.5614 Y35.7698 
G00 Z2.5400 
G00 X-37.5614 Y38.3098 
G01 Z-0.1000 F18.00 
G01 X-37.6268 Y38.4677 F24.00 
G01 X-37.5876 Y38.3469 
G01 X-37.5616 Y38.1830 
G01 X-37.5616 Y38.0170 
G01 X-37.5876 Y37.8531 
G01 X-37.6268 Y37.7323 
G01 X-37.5614 Y37.8902 
G01 X-37.5614 Y38.3098 
G00 Z2.5400 
G00 X-37.5614 Y40.8498 
G01 Z-0.1000 F18.00 
G01 X-37.6268 Y41.0077 F24.00 
G01 X-37.5876 Y40.8869 
G01 X-37.5616 Y40.7230 
G01 X-37.5616 Y40.5570 
G01 X-37.5876 Y40.3931 
G01 X-37.6268 Y40.2723 
G01 X-37.5614 Y40.4302 
G01 X-37.5614 Y40.8498 
G00 Z2.5400 
G00 X-37.5614 Y43.3898 
G01 Z-0.1000 F18.00 
G01 X-37.6268 Y43.5477 F24.00 
G01 X-37.5876 Y43.4269 
G01 X-37.5616 Y43.2630 
G01 X-37.5616 Y43.0970 
G01 X-37.5876 Y42.9331 
G01 X-37.6268 Y42.8123 
G01 X-37.5614 Y42.9702 
G01 X-37.5614 Y43.3898 
G00 Z2.5400 
G00 X-37.5614 Y45.9298 
G01 Z-0.1000 F18.00 
G01 X-37.6268 Y46.0877 F24.00 
G01 X-37.5876 Y45.9669 
G01 X-37.5616 Y45.8030 
G01 X-37.5616 Y45.6370 
G01 X-37.5876 Y45.4731 
G01 X-37.6268 Y45.3523 
G01 X-37.5614 Y45.5102 
G01 X-37.5614 Y45.9298 
G00 Z2.5400 
G00 X-37.5614 Y48.4698 
G01 Z-0.1000 F18.00 
G01 X-37.6268 Y48.6277 F24.00 
G01 X-37.5876 Y48.5069 
G01 X-37.5616 Y48.3430 
G01 X-37.5616 Y48.1770 
G01 X-37.5876 Y48.0131 
G01 X-37.6268 Y47.8923 
G01 X-37.5614 Y48.0502 
G01 X-37.5614 Y48.4698 
G00 Z2.5400 
G00 X-38.0186 Y49.1540 
G01 Z-0.1000 F18.00 
G01 X-38.1765 Y49.2195 F24.00 
G01 X-38.0634 Y49.1618 
G01 X-37.9291 Y49.0643 
G01 X-37.8117 Y48.9469 
G01 X-37.7142 Y48.8126 
G01 X-37.6565 Y48.6995 
G01 X-37.7220 Y48.8574 
G01 X-38.0186 Y49.1540 
G00 Z2.5400 
G00 X-40.3338 Y49.3146 
G01 Z-0.1000 F18.00 
G01 X-40.4917 Y49.2492 F24.00 
G01 X-40.3709 Y49.2884 
G01 X-40.2070 Y49.3144 
G01 X-38.5330 Y49.3144 
G01 X-38.3691 Y49.2884 
G01 X-38.2483 Y49.2492 
G01 X-38.4062 Y49.3146 
G01 X-40.3338 Y49.3146 
G00 Z2.5400 
G00 X-41.0180 Y48.8574 
G01 Z-0.1000 F18.00 
G01 X-41.0834 Y48.6995 F24.00 
G01 X-41.0258 Y48.8126 
G01 X-40.9282 Y48.9469 
G01 X-40.8109 Y49.0643 
G01 X-40.6766 Y49.1618 
G01 X-40.5635 Y49.2194 
G01 X-40.7214 Y49.1540 
G01 X-41.0180 Y48.8574 
G00 Z2.5400 
G00 X-41.1786 Y48.0502 
G01 Z-0.1000 F18.00 
G01 X-41.1132 Y47.8923 F24.00 
G01 X-41.1524 Y48.0131 
G01 X-41.1784 Y48.1770 
G01 X-41.1784 Y48.3430 
G01 X-41.1524 Y48.5069 
G01 X-41.1132 Y48.6277 
G01 X-41.1786 Y48.4698 
G01 X-41.1786 Y48.0502 
G00 Z2.5400 
G00 X-45.8202 Y32.0354 
G01 Z-0.1000 F18.00 
G01 X-45.9792 Y31.9838 F24.00 
G01 X-46.1444 Y31.9576 
G01 X-47.8356 Y31.9576 
G01 X-48.0008 Y31.9838 
G01 X-48.1598 Y32.0354 
G01 X-48.1859 Y32.0487 
G01 X-48.1822 Y32.0459 
G01 X-48.1752 Y32.0428 
G01 X-48.1223 Y31.9999 
G01 X-48.0681 Y31.9583 
G01 X-48.0634 Y31.9523 
G01 X-48.0575 Y31.9474 
G01 X-48.0174 Y31.8923 
G01 X-47.9759 Y31.8381 
G01 X-47.9729 Y31.8311 
G01 X-47.9684 Y31.8249 
G01 X-47.9440 Y31.7612 
G01 X-47.9179 Y31.6982 
G01 X-47.9169 Y31.6906 
G01 X-47.9141 Y31.6834 
G01 X-47.9070 Y31.6156 
G01 X-47.8981 Y31.5480 
G01 X-47.8991 Y31.5404 
G01 X-47.8983 Y31.5328 
G01 X-47.8356 Y31.5424 
G01 X-46.1444 Y31.5424 
G01 X-46.0817 Y31.5325 
G01 X-46.0809 Y31.5404 
G01 X-46.0819 Y31.5480 
G01 X-46.0730 Y31.6156 
G01 X-46.0659 Y31.6834 
G01 X-46.0631 Y31.6906 
G01 X-46.0621 Y31.6982 
G01 X-46.0360 Y31.7612 
G01 X-46.0116 Y31.8249 
G01 X-46.0071 Y31.8311 
G01 X-46.0041 Y31.8381 
G01 X-45.9626 Y31.8923 
G01 X-45.9225 Y31.9474 
G01 X-45.9166 Y31.9523 
G01 X-45.9119 Y31.9583 
G01 X-45.8577 Y31.9999 
G01 X-45.8048 Y32.0428 
G01 X-45.7978 Y32.0459 
G01 X-45.7941 Y32.0487 
G01 X-45.8202 Y32.0354 
G00 Z2.5400 
G00 X-45.3194 Y32.4632 
G01 Z-0.1000 F18.00 
G01 X-45.4176 Y32.3279 F24.00 
G01 X-45.5359 Y32.2096 
G01 X-45.6712 Y32.1114 
G01 X-45.7852 Y32.0533 
G01 X-45.7287 Y32.0767 
G01 X-45.6664 Y32.1044 
G01 X-45.6588 Y32.1056 
G01 X-45.6261 Y32.1192 
G01 X-45.3272 Y32.4181 
G01 X-45.2613 Y32.5772 
G01 X-45.3194 Y32.4632 
G00 Z2.5400 
G00 X-45.1918 Y33.2688 
G01 Z-0.1000 F18.00 
G01 X-45.1656 Y33.1036 F24.00 
G01 X-45.1656 Y32.9364 
G01 X-45.1918 Y32.7712 
G01 X-45.2313 Y32.6495 
G01 X-45.1654 Y32.8086 
G01 X-45.1654 Y33.2314 
G01 X-45.2313 Y33.3905 
G01 X-45.1918 Y33.2688 
G00 Z2.5400 
G00 X-46.1444 Y34.4976 
G01 Z-0.1000 F18.00 
G01 X-47.8356 Y34.4976 F24.00 
G01 X-48.0008 Y34.5238 
G01 X-48.1598 Y34.5754 
G01 X-48.3088 Y34.6514 
G01 X-48.4441 Y34.7496 
G01 X-48.5624 Y34.8679 
G01 X-48.6606 Y35.0032 
G01 X-48.7187 Y35.1172 
G01 X-48.6528 Y34.9581 
G01 X-48.3380 Y34.6433 
G01 X-48.2646 Y34.5160 
G01 X-48.2623 Y34.5121 
G01 X-48.2231 Y34.3657 
G01 X-48.2231 Y34.2142 
G01 X-48.2623 Y34.0679 
G01 X-48.3364 Y33.9396 
G01 X-48.3380 Y33.9367 
G01 X-48.4452 Y33.8296 
G01 X-48.6528 Y33.6219 
G01 X-48.7187 Y33.4628 
G01 X-48.6606 Y33.5768 
G01 X-48.5624 Y33.7121 
G01 X-48.4441 Y33.8304 
G01 X-48.3088 Y33.9286 
G01 X-48.1598 Y34.0046 
G01 X-48.0008 Y34.0562 
G01 X-47.8356 Y34.0824 
G01 X-46.1444 Y34.0824 
G01 X-45.9792 Y34.0562 
G01 X-45.8202 Y34.0046 
G01 X-45.6712 Y33.9286 
G01 X-45.5359 Y33.8304 
G01 X-45.4176 Y33.7121 
G01 X-45.3194 Y33.5768 
G01 X-45.2613 Y33.4628 
G01 X-45.3272 Y33.6219 
G01 X-45.5348 Y33.8296 
G01 X-45.6350 Y33.9297 
G01 X-45.6420 Y33.9367 
G01 X-45.7177 Y34.0679 
G01 X-45.7569 Y34.2142 
G01 X-45.7569 Y34.3657 
G01 X-45.7194 Y34.5059 
G01 X-45.7177 Y34.5121 
G01 X-45.6420 Y34.6433 
G01 X-45.5348 Y34.7504 
G01 X-45.3272 Y34.9581 
G01 X-45.2613 Y35.1172 
G01 X-45.3194 Y35.0032 
G01 X-45.4176 Y34.8679 
G01 X-45.5359 Y34.7496 
G01 X-45.6712 Y34.6514 
G01 X-45.8202 Y34.5754 
G01 X-45.9792 Y34.5238 
G01 X-46.1444 Y34.4976 
G00 Z2.5400 
G00 X-45.1654 Y35.7714 
G01 Z-0.1000 F18.00 
G01 X-45.2313 Y35.9305 F24.00 
G01 X-45.1918 Y35.8088 
G01 X-45.1656 Y35.6436 
G01 X-45.1656 Y35.4764 
G01 X-45.1918 Y35.3112 
G01 X-45.2313 Y35.1895 
G01 X-45.1654 Y35.3486 
G01 X-45.1654 Y35.7714 
G00 Z2.5400 
G00 X-45.6261 Y36.4608 
G01 Z-0.1000 F18.00 
G01 X-45.7852 Y36.5267 F24.00 
G01 X-45.6712 Y36.4686 
G01 X-45.5359 Y36.3704 
G01 X-45.4176 Y36.2521 
G01 X-45.3194 Y36.1168 
G01 X-45.2613 Y36.0028 
G01 X-45.3272 Y36.1619 
G01 X-45.6261 Y36.4608 
G00 Z2.5400 
G00 X-47.9634 Y36.6226 
G01 Z-0.1000 F18.00 
G01 X-48.1224 Y36.5567 F24.00 
G01 X-48.0008 Y36.5962 
G01 X-47.8356 Y36.6224 
G01 X-46.1444 Y36.6224 
G01 X-45.9792 Y36.5962 
G01 X-45.8576 Y36.5567 
G01 X-46.0166 Y36.6226 
G01 X-47.9634 Y36.6226 
G00 Z2.5400 
G00 X-48.6528 Y36.1619 
G01 Z-0.1000 F18.00 
G01 X-48.7187 Y36.0028 F24.00 
G01 X-48.6606 Y36.1168 
G01 X-48.5624 Y36.2521 
G01 X-48.4441 Y36.3704 
G01 X-48.3088 Y36.4686 
G01 X-48.1948 Y36.5267 
G01 X-48.3539 Y36.4608 
G01 X-48.6528 Y36.1619 
G00 Z2.5400 
G00 X-48.8146 Y35.3486 
G01 Z-0.1000 F18.00 
G01 X-48.7487 Y35.1896 F24.00 
G01 X-48.7882 Y35.3112 
G01 X-48.8144 Y35.4764 
G01 X-48.8144 Y35.6436 
G01 X-48.7882 Y35.8088 
G01 X-48.7487 Y35.9304 
G01 X-48.8146 Y35.7714 
G01 X-48.8146 Y35.3486 
G00 Z2.5400 
G00 X-48.3539 Y32.1192 
G01 Z-0.1000 F18.00 
G01 X-48.3212 Y32.1056 F24.00 
G01 X-48.3136 Y32.1044 
G01 X-48.2513 Y32.0767 
G01 X-48.1948 Y32.0533 
G01 X-48.3088 Y32.1114 
G01 X-48.4441 Y32.2096 
G01 X-48.5624 Y32.3279 
G01 X-48.6606 Y32.4632 
G01 X-48.7187 Y32.5772 
G01 X-48.6528 Y32.4181 
G01 X-48.3539 Y32.1192 
G00 Z2.5400 
G00 X-48.8146 Y32.8086 
G01 Z-0.1000 F18.00 
G01 X-48.7487 Y32.6495 F24.00 
G01 X-48.7882 Y32.7712 
G01 X-48.8144 Y32.9364 
G01 X-48.8144 Y33.1036 
G01 X-48.7882 Y33.2688 
G01 X-48.7487 Y33.3904 
G01 X-48.8146 Y33.2314 
G01 X-48.8146 Y32.8086 
G00 Z2.5400 
G00 X-45.6261 Y46.6208 
G01 Z-0.1000 F18.00 
G01 X-45.6588 Y46.6344 F24.00 
G01 X-45.6664 Y46.6356 
G01 X-45.7287 Y46.6633 
G01 X-45.7852 Y46.6867 
G01 X-45.6712 Y46.6286 
G01 X-45.5359 Y46.5304 
G01 X-45.4176 Y46.4121 
G01 X-45.3194 Y46.2768 
G01 X-45.2613 Y46.1628 
G01 X-45.3272 Y46.3219 
G01 X-45.6261 Y46.6208 
G00 Z2.5400 
G00 X-45.1654 Y45.9314 
G01 Z-0.1000 F18.00 
G01 X-45.2313 Y46.0905 F24.00 
G01 X-45.1918 Y45.9688 
G01 X-45.1656 Y45.8036 
G01 X-45.1656 Y45.6364 
G01 X-45.1918 Y45.4712 
G01 X-45.2313 Y45.3495 
G01 X-45.1654 Y45.5086 
G01 X-45.1654 Y45.9314 
G00 Z2.5400 
G00 X-48.1598 Y46.7046 
G01 Z-0.1000 F18.00 
G01 X-48.0008 Y46.7562 F24.00 
G01 X-47.8356 Y46.7824 
G01 X-46.1444 Y46.7824 
G01 X-45.9792 Y46.7562 
G01 X-45.8202 Y46.7046 
G01 X-45.7941 Y46.6913 
G01 X-45.7978 Y46.6941 
G01 X-45.8048 Y46.6972 
G01 X-45.8577 Y46.7401 
G01 X-45.9119 Y46.7817 
G01 X-45.9166 Y46.7877 
G01 X-45.9225 Y46.7926 
G01 X-45.9626 Y46.8477 
G01 X-46.0041 Y46.9019 
G01 X-46.0071 Y46.9089 
G01 X-46.0116 Y46.9151 
G01 X-46.0360 Y46.9788 
G01 X-46.0621 Y47.0418 
G01 X-46.0631 Y47.0494 
G01 X-46.0659 Y47.0566 
G01 X-46.0730 Y47.1244 
G01 X-46.0819 Y47.1920 
G01 X-46.0809 Y47.1996 
G01 X-46.0817 Y47.2072 
G01 X-46.1444 Y47.1976 
G01 X-47.8356 Y47.1976 
G01 X-47.8983 Y47.2075 
G01 X-47.8991 Y47.1996 
G01 X-47.8981 Y47.1920 
G01 X-47.9070 Y47.1244 
G01 X-47.9141 Y47.0566 
G01 X-47.9169 Y47.0494 
G01 X-47.9179 Y47.0418 
G01 X-47.9440 Y46.9788 
G01 X-47.9684 Y46.9151 
G01 X-47.9729 Y46.9089 
G01 X-47.9759 Y46.9019 
G01 X-48.0174 Y46.8477 
G01 X-48.0575 Y46.7926 
G01 X-48.0634 Y46.7877 
G01 X-48.0681 Y46.7817 
G01 X-48.1223 Y46.7401 
G01 X-48.1752 Y46.6972 
G01 X-48.1822 Y46.6941 
G01 X-48.1859 Y46.6913 
G01 X-48.1598 Y46.7046 
G00 Z2.5400 
G00 X-48.6606 Y46.2768 
G01 Z-0.1000 F18.00 
G01 X-48.5624 Y46.4121 F24.00 
G01 X-48.4441 Y46.5304 
G01 X-48.3088 Y46.6286 
G01 X-48.1948 Y46.6867 
G01 X-48.2513 Y46.6633 
G01 X-48.3136 Y46.6356 
G01 X-48.3212 Y46.6344 
G01 X-48.3539 Y46.6208 
G01 X-48.6528 Y46.3219 
G01 X-48.7187 Y46.1628 
G01 X-48.6606 Y46.2768 
G00 Z2.5400 
G00 X-48.7882 Y45.4712 
G01 Z-0.1000 F18.00 
G01 X-48.8144 Y45.6364 F24.00 
G01 X-48.8144 Y45.8036 
G01 X-48.7882 Y45.9688 
G01 X-48.7487 Y46.0904 
G01 X-48.8146 Y45.9314 
G01 X-48.8146 Y45.5086 
G01 X-48.7487 Y45.3495 
G01 X-48.7882 Y45.4712 
G00 Z2.5400 
G00 X-46.1444 Y44.6576 
G01 Z-0.1000 F18.00 
G01 X-47.8356 Y44.6576 F24.00 
G01 X-48.0008 Y44.6838 
G01 X-48.1598 Y44.7354 
G01 X-48.3088 Y44.8114 
G01 X-48.4441 Y44.9096 
G01 X-48.5624 Y45.0279 
G01 X-48.6606 Y45.1632 
G01 X-48.7187 Y45.2772 
G01 X-48.6528 Y45.1181 
G01 X-48.3380 Y44.8033 
G01 X-48.2646 Y44.6760 
G01 X-48.2623 Y44.6721 
G01 X-48.2231 Y44.5258 
G01 X-48.2231 Y44.3742 
G01 X-48.2623 Y44.2279 
G01 X-48.3364 Y44.0996 
G01 X-48.3380 Y44.0967 
G01 X-48.4452 Y43.9896 
G01 X-48.6528 Y43.7819 
G01 X-48.7187 Y43.6228 
G01 X-48.6606 Y43.7368 
G01 X-48.5624 Y43.8721 
G01 X-48.4441 Y43.9903 
G01 X-48.3088 Y44.0886 
G01 X-48.1598 Y44.1646 
G01 X-48.0008 Y44.2162 
G01 X-47.8356 Y44.2424 
G01 X-46.1444 Y44.2424 
G01 X-45.9792 Y44.2162 
G01 X-45.8202 Y44.1646 
G01 X-45.6712 Y44.0886 
G01 X-45.5359 Y43.9903 
G01 X-45.4176 Y43.8721 
G01 X-45.3194 Y43.7368 
G01 X-45.2613 Y43.6228 
G01 X-45.3272 Y43.7819 
G01 X-45.5348 Y43.9896 
G01 X-45.6350 Y44.0897 
G01 X-45.6420 Y44.0967 
G01 X-45.7177 Y44.2279 
G01 X-45.7569 Y44.3742 
G01 X-45.7569 Y44.5258 
G01 X-45.7194 Y44.6659 
G01 X-45.7177 Y44.6721 
G01 X-45.6420 Y44.8033 
G01 X-45.5348 Y44.9104 
G01 X-45.3272 Y45.1181 
G01 X-45.2613 Y45.2772 
G01 X-45.3194 Y45.1632 
G01 X-45.4176 Y45.0279 
G01 X-45.5359 Y44.9096 
G01 X-45.6712 Y44.8114 
G01 X-45.8202 Y44.7354 
G01 X-45.9792 Y44.6838 
G01 X-46.1444 Y44.6576 
G00 Z2.5400 
G00 X-48.8146 Y42.9686 
G01 Z-0.1000 F18.00 
G01 X-48.7487 Y42.8095 F24.00 
G01 X-48.7882 Y42.9312 
G01 X-48.8144 Y43.0964 
G01 X-48.8144 Y43.2636 
G01 X-48.7882 Y43.4288 
G01 X-48.7487 Y43.5504 
G01 X-48.8146 Y43.3914 
G01 X-48.8146 Y42.9686 
G00 Z2.5400 
G00 X-48.3539 Y42.2792 
G01 Z-0.1000 F18.00 
G01 X-48.1948 Y42.2133 F24.00 
G01 X-48.3088 Y42.2714 
G01 X-48.4441 Y42.3696 
G01 X-48.5624 Y42.4879 
G01 X-48.6606 Y42.6232 
G01 X-48.7187 Y42.7372 
G01 X-48.6528 Y42.5781 
G01 X-48.3539 Y42.2792 
G00 Z2.5400 
G00 X-46.0166 Y42.1174 
G01 Z-0.1000 F18.00 
G01 X-45.8575 Y42.1833 F24.00 
G01 X-45.9792 Y42.1438 
G01 X-46.1444 Y42.1176 
G01 X-47.8356 Y42.1176 
G01 X-48.0008 Y42.1438 
G01 X-48.1225 Y42.1833 
G01 X-47.9634 Y42.1174 
G01 X-46.0166 Y42.1174 
G00 Z2.5400 
G00 X-45.3272 Y42.5781 
G01 Z-0.1000 F18.00 
G01 X-45.2613 Y42.7372 F24.00 
G01 X-45.3194 Y42.6232 
G01 X-45.4176 Y42.4879 
G01 X-45.5359 Y42.3696 
G01 X-45.6712 Y42.2714 
G01 X-45.7852 Y42.2133 
G01 X-45.6261 Y42.2792 
G01 X-45.3272 Y42.5781 
G00 Z2.5400 
G00 X-45.1654 Y43.3914 
G01 Z-0.1000 F18.00 
G01 X-45.2313 Y43.5505 F24.00 
G01 X-45.1918 Y43.4288 
G01 X-45.1656 Y43.2636 
G01 X-45.1656 Y43.0964 
G01 X-45.1918 Y42.9312 
G01 X-45.2313 Y42.8095 
G01 X-45.1654 Y42.9686 
G01 X-45.1654 Y43.3914 
G00 Z2.5400 
G00 X-19.6046 Y36.6186 
G01 Z-0.1000 F18.00 
G01 X-19.5387 Y36.4596 F24.00 
G01 X-19.5782 Y36.5812 
G01 X-19.6044 Y36.7464 
G01 X-19.6044 Y36.9136 
G01 X-19.5782 Y37.0788 
G01 X-19.5387 Y37.2004 
G01 X-19.6046 Y37.0414 
G01 X-19.6046 Y36.6186 
G00 Z2.5400 
G00 X-19.4428 Y37.4319 
G01 Z-0.1000 F18.00 
G01 X-19.5087 Y37.2728 F24.00 
G01 X-19.4506 Y37.3868 
G01 X-19.3524 Y37.5221 
G01 X-19.2341 Y37.6404 
G01 X-19.0988 Y37.7386 
G01 X-18.9848 Y37.7967 
G01 X-19.1439 Y37.7308 
G01 X-19.4428 Y37.4319 
G00 Z2.5400 
G00 X-18.7534 Y37.8926 
G01 Z-0.1000 F18.00 
G01 X-18.9124 Y37.8267 F24.00 
G01 X-18.7908 Y37.8662 
G01 X-18.6256 Y37.8924 
G01 X-16.9344 Y37.8924 
G01 X-16.7692 Y37.8662 
G01 X-16.6475 Y37.8267 
G01 X-16.8066 Y37.8926 
G01 X-18.7534 Y37.8926 
G00 Z2.5400 
G00 X-16.4161 Y37.7308 
G01 Z-0.1000 F18.00 
G01 X-16.5752 Y37.7967 F24.00 
G01 X-16.4612 Y37.7386 
G01 X-16.3259 Y37.6404 
G01 X-16.2076 Y37.5221 
G01 X-16.1094 Y37.3868 
G01 X-16.0513 Y37.2728 
G01 X-16.1172 Y37.4319 
G01 X-16.4161 Y37.7308 
G00 Z2.5400 
G00 X-15.9554 Y37.0414 
G01 Z-0.1000 F18.00 
G01 X-16.0213 Y37.2005 F24.00 
G01 X-15.9818 Y37.0788 
G01 X-15.9556 Y36.9136 
G01 X-15.9556 Y36.7464 
G01 X-15.9818 Y36.5812 
G01 X-16.0213 Y36.4595 
G01 X-15.9554 Y36.6186 
G01 X-15.9554 Y37.0414 
G00 Z2.5400 
G00 X-16.9344 Y35.7676 
G01 Z-0.1000 F18.00 
G01 X-18.6256 Y35.7676 F24.00 
G01 X-18.7908 Y35.7938 
G01 X-18.9498 Y35.8454 
G01 X-19.0988 Y35.9214 
G01 X-19.2341 Y36.0196 
G01 X-19.3524 Y36.1379 
G01 X-19.4506 Y36.2732 
G01 X-19.5087 Y36.3872 
G01 X-19.4428 Y36.2281 
G01 X-19.1280 Y35.9133 
G01 X-19.0546 Y35.7860 
G01 X-19.0523 Y35.7821 
G01 X-19.0131 Y35.6358 
G01 X-19.0131 Y35.4842 
G01 X-19.0523 Y35.3379 
G01 X-19.1264 Y35.2096 
G01 X-19.1280 Y35.2067 
G01 X-19.2352 Y35.0996 
G01 X-19.4428 Y34.8919 
G01 X-19.5087 Y34.7328 
G01 X-19.4506 Y34.8468 
G01 X-19.3524 Y34.9821 
G01 X-19.2341 Y35.1003 
G01 X-19.0988 Y35.1986 
G01 X-18.9498 Y35.2746 
G01 X-18.7908 Y35.3262 
G01 X-18.6256 Y35.3524 
G01 X-16.9344 Y35.3524 
G01 X-16.7692 Y35.3262 
G01 X-16.6102 Y35.2746 
G01 X-16.4612 Y35.1986 
G01 X-16.3259 Y35.1003 
G01 X-16.2076 Y34.9821 
G01 X-16.1094 Y34.8468 
G01 X-16.0513 Y34.7328 
G01 X-16.1172 Y34.8919 
G01 X-16.3248 Y35.0996 
G01 X-16.4249 Y35.1997 
G01 X-16.4320 Y35.2067 
G01 X-16.5077 Y35.3379 
G01 X-16.5469 Y35.4842 
G01 X-16.5469 Y35.6358 
G01 X-16.5094 Y35.7759 
G01 X-16.5077 Y35.7821 
G01 X-16.4320 Y35.9133 
G01 X-16.3248 Y36.0204 
G01 X-16.1172 Y36.2281 
G01 X-16.0513 Y36.3872 
G01 X-16.1094 Y36.2732 
G01 X-16.2076 Y36.1379 
G01 X-16.3259 Y36.0196 
G01 X-16.4612 Y35.9214 
G01 X-16.6102 Y35.8454 
G01 X-16.7692 Y35.7938 
G01 X-16.9344 Y35.7676 
G00 Z2.5400 
G00 X-15.9818 Y34.5388 
G01 Z-0.1000 F18.00 
G01 X-15.9556 Y34.3736 F24.00 
G01 X-15.9556 Y34.2064 
G01 X-15.9818 Y34.0412 
G01 X-16.0213 Y33.9195 
G01 X-15.9554 Y34.0786 
G01 X-15.9554 Y34.5014 
G01 X-16.0213 Y34.6605 
G01 X-15.9818 Y34.5388 
G00 Z2.5400 
G00 X-16.1094 Y33.7332 
G01 Z-0.1000 F18.00 
G01 X-16.2076 Y33.5979 F24.00 
G01 X-16.3259 Y33.4796 
G01 X-16.4612 Y33.3814 
G01 X-16.5752 Y33.3233 
G01 X-16.4161 Y33.3892 
G01 X-16.1172 Y33.6881 
G01 X-16.0513 Y33.8472 
G01 X-16.1094 Y33.7332 
G00 Z2.5400 
G00 X-16.7692 Y33.2538 
G01 Z-0.1000 F18.00 
G01 X-16.9344 Y33.2276 F24.00 
G01 X-18.6256 Y33.2276 
G01 X-18.7908 Y33.2538 
G01 X-18.9125 Y33.2933 
G01 X-18.7534 Y33.2274 
G01 X-16.8066 Y33.2274 
G01 X-16.6475 Y33.2933 
G01 X-16.7692 Y33.2538 
G00 Z2.5400 
G00 X-15.9554 Y42.1214 
G01 Z-0.1000 F18.00 
G01 X-16.0213 Y42.2805 F24.00 
G01 X-15.9818 Y42.1588 
G01 X-15.9556 Y41.9936 
G01 X-15.9556 Y41.8264 
G01 X-15.9818 Y41.6612 
G01 X-16.0213 Y41.5395 
G01 X-15.9554 Y41.6986 
G01 X-15.9554 Y42.1214 
G00 Z2.5400 
G00 X-16.1172 Y41.3081 
G01 Z-0.1000 F18.00 
G01 X-16.0513 Y41.4672 F24.00 
G01 X-16.1094 Y41.3532 
G01 X-16.2076 Y41.2179 
G01 X-16.3259 Y41.0996 
G01 X-16.4612 Y41.0014 
G01 X-16.5752 Y40.9433 
G01 X-16.4161 Y41.0092 
G01 X-16.1172 Y41.3081 
G00 Z2.5400 
G00 X-16.8066 Y40.8474 
G01 Z-0.1000 F18.00 
G01 X-16.6475 Y40.9133 F24.00 
G01 X-16.7692 Y40.8738 
G01 X-16.9344 Y40.8476 
G01 X-18.6256 Y40.8476 
G01 X-18.7908 Y40.8738 
G01 X-18.9125 Y40.9133 
G01 X-18.7534 Y40.8474 
G01 X-16.8066 Y40.8474 
G00 Z2.5400 
G00 X-19.1439 Y41.0092 
G01 Z-0.1000 F18.00 
G01 X-18.9848 Y40.9433 F24.00 
G01 X-19.0988 Y41.0014 
G01 X-19.2341 Y41.0996 
G01 X-19.3524 Y41.2179 
G01 X-19.4506 Y41.3532 
G01 X-19.5087 Y41.4672 
G01 X-19.4428 Y41.3081 
G01 X-19.1439 Y41.0092 
G00 Z2.5400 
G00 X-19.6046 Y41.6986 
G01 Z-0.1000 F18.00 
G01 X-19.5387 Y41.5396 F24.00 
G01 X-19.5782 Y41.6612 
G01 X-19.6044 Y41.8264 
G01 X-19.6044 Y41.9936 
G01 X-19.5782 Y42.1588 
G01 X-19.5387 Y42.2804 
G01 X-19.6046 Y42.1214 
G01 X-19.6046 Y41.6986 
G00 Z2.5400 
G00 X-18.6256 Y42.9724 
G01 Z-0.1000 F18.00 
G01 X-16.9344 Y42.9724 F24.00 
G01 X-16.7692 Y42.9462 
G01 X-16.6102 Y42.8946 
G01 X-16.4612 Y42.8186 
G01 X-16.3259 Y42.7204 
G01 X-16.2076 Y42.6021 
G01 X-16.1094 Y42.4668 
G01 X-16.0513 Y42.3528 
G01 X-16.1172 Y42.5119 
G01 X-16.4320 Y42.8267 
G01 X-16.5054 Y42.9540 
G01 X-16.5077 Y42.9579 
G01 X-16.5469 Y43.1042 
G01 X-16.5469 Y43.2558 
G01 X-16.5077 Y43.4021 
G01 X-16.4336 Y43.5304 
G01 X-16.4320 Y43.5333 
G01 X-16.3248 Y43.6404 
G01 X-16.1172 Y43.8481 
G01 X-16.0513 Y44.0072 
G01 X-16.1094 Y43.8932 
G01 X-16.2076 Y43.7579 
G01 X-16.3259 Y43.6396 
G01 X-16.4612 Y43.5414 
G01 X-16.6102 Y43.4654 
G01 X-16.7692 Y43.4138 
G01 X-16.9344 Y43.3876 
G01 X-18.6256 Y43.3876 
G01 X-18.7908 Y43.4138 
G01 X-18.9498 Y43.4654 
G01 X-19.0988 Y43.5414 
G01 X-19.2341 Y43.6396 
G01 X-19.3524 Y43.7579 
G01 X-19.4506 Y43.8932 
G01 X-19.5087 Y44.0072 
G01 X-19.4428 Y43.8481 
G01 X-19.2352 Y43.6404 
G01 X-19.1350 Y43.5403 
G01 X-19.1280 Y43.5333 
G01 X-19.0523 Y43.4021 
G01 X-19.0131 Y43.2558 
G01 X-19.0131 Y43.1042 
G01 X-19.0506 Y42.9641 
G01 X-19.0523 Y42.9579 
G01 X-19.1280 Y42.8267 
G01 X-19.2352 Y42.7196 
G01 X-19.4428 Y42.5119 
G01 X-19.5087 Y42.3528 
G01 X-19.4506 Y42.4668 
G01 X-19.3524 Y42.6021 
G01 X-19.2341 Y42.7204 
G01 X-19.0988 Y42.8186 
G01 X-18.9498 Y42.8946 
G01 X-18.7908 Y42.9462 
G01 X-18.6256 Y42.9724 
G00 Z2.5400 
G00 X-19.5782 Y44.2012 
G01 Z-0.1000 F18.00 
G01 X-19.6044 Y44.3664 F24.00 
G01 X-19.6044 Y44.5336 
G01 X-19.5782 Y44.6988 
G01 X-19.5387 Y44.8204 
G01 X-19.6046 Y44.6614 
G01 X-19.6046 Y44.2386 
G01 X-19.5387 Y44.0796 
G01 X-19.5782 Y44.2012 
G00 Z2.5400 
G00 X-19.4506 Y45.0068 
G01 Z-0.1000 F18.00 
G01 X-19.3524 Y45.1421 F24.00 
G01 X-19.2341 Y45.2604 
G01 X-19.0988 Y45.3586 
G01 X-18.9848 Y45.4167 
G01 X-19.1439 Y45.3508 
G01 X-19.4428 Y45.0519 
G01 X-19.5087 Y44.8928 
G01 X-19.4506 Y45.0068 
G00 Z2.5400 
G00 X-18.7908 Y45.4862 
G01 Z-0.1000 F18.00 
G01 X-18.6256 Y45.5124 F24.00 
G01 X-16.9344 Y45.5124 
G01 X-16.7692 Y45.4862 
G01 X-16.6475 Y45.4467 
G01 X-16.8066 Y45.5126 
G01 X-18.7534 Y45.5126 
G01 X-18.9124 Y45.4467 
G01 X-18.7908 Y45.4862 
G00 Z2.5400 
G00 X-31.3808 Y6.4439 
G01 Z-0.1000 F18.00 
G01 X-31.3944 Y6.4112 F24.00 
G01 X-31.3956 Y6.4036 
G01 X-31.4233 Y6.3413 
G01 X-31.4467 Y6.2848 
G01 X-31.3886 Y6.3988 
G01 X-31.2904 Y6.5341 
G01 X-31.1721 Y6.6524 
G01 X-31.0368 Y6.7506 
G01 X-30.9228 Y6.8087 
G01 X-31.0819 Y6.7428 
G01 X-31.3808 Y6.4439 
G00 Z2.5400 
G00 X-30.6914 Y6.9046 
G01 Z-0.1000 F18.00 
G01 X-30.8504 Y6.8387 F24.00 
G01 X-30.7288 Y6.8782 
G01 X-30.5636 Y6.9044 
G01 X-30.3964 Y6.9044 
G01 X-30.2312 Y6.8782 
G01 X-30.1095 Y6.8387 
G01 X-30.2686 Y6.9046 
G01 X-30.6914 Y6.9046 
G00 Z2.5400 
G00 X-29.8781 Y6.7428 
G01 Z-0.1000 F18.00 
G01 X-30.0372 Y6.8087 F24.00 
G01 X-29.9232 Y6.7506 
G01 X-29.7879 Y6.6524 
G01 X-29.6696 Y6.5341 
G01 X-29.5714 Y6.3988 
G01 X-29.5133 Y6.2848 
G01 X-29.5792 Y6.4439 
G01 X-29.8781 Y6.7428 
G00 Z2.5400 
G00 X-31.4646 Y3.9102 
G01 Z-0.1000 F18.00 
G01 X-31.5162 Y4.0692 F24.00 
G01 X-31.5424 Y4.2344 
G01 X-31.5424 Y5.9256 
G01 X-31.5162 Y6.0908 
G01 X-31.4646 Y6.2498 
G01 X-31.4513 Y6.2759 
G01 X-31.4541 Y6.2722 
G01 X-31.4572 Y6.2652 
G01 X-31.5001 Y6.2123 
G01 X-31.5417 Y6.1581 
G01 X-31.5477 Y6.1534 
G01 X-31.5526 Y6.1475 
G01 X-31.6077 Y6.1074 
G01 X-31.6619 Y6.0659 
G01 X-31.6689 Y6.0629 
G01 X-31.6751 Y6.0584 
G01 X-31.7388 Y6.0340 
G01 X-31.8018 Y6.0079 
G01 X-31.8094 Y6.0069 
G01 X-31.8166 Y6.0041 
G01 X-31.8844 Y5.9970 
G01 X-31.9520 Y5.9881 
G01 X-31.9596 Y5.9891 
G01 X-31.9672 Y5.9883 
G01 X-31.9576 Y5.9256 
G01 X-31.9576 Y4.2344 
G01 X-31.9675 Y4.1717 
G01 X-31.9596 Y4.1709 
G01 X-31.9520 Y4.1719 
G01 X-31.8844 Y4.1630 
G01 X-31.8166 Y4.1559 
G01 X-31.8094 Y4.1531 
G01 X-31.8018 Y4.1521 
G01 X-31.7388 Y4.1260 
G01 X-31.6751 Y4.1016 
G01 X-31.6689 Y4.0971 
G01 X-31.6619 Y4.0941 
G01 X-31.6077 Y4.0526 
G01 X-31.5526 Y4.0125 
G01 X-31.5477 Y4.0066 
G01 X-31.5417 Y4.0019 
G01 X-31.5001 Y3.9477 
G01 X-31.4572 Y3.8948 
G01 X-31.4541 Y3.8878 
G01 X-31.4513 Y3.8841 
G01 X-31.4646 Y3.9102 
G00 Z2.5400 
G00 X-31.0368 Y3.4094 
G01 Z-0.1000 F18.00 
G01 X-31.1721 Y3.5076 F24.00 
G01 X-31.2904 Y3.6259 
G01 X-31.3886 Y3.7612 
G01 X-31.4467 Y3.8752 
G01 X-31.4233 Y3.8187 
G01 X-31.3956 Y3.7564 
G01 X-31.3944 Y3.7488 
G01 X-31.3808 Y3.7161 
G01 X-31.0819 Y3.4172 
G01 X-30.9228 Y3.3513 
G01 X-31.0368 Y3.4094 
G00 Z2.5400 
G00 X-30.2312 Y3.2818 
G01 Z-0.1000 F18.00 
G01 X-30.3964 Y3.2556 F24.00 
G01 X-30.5636 Y3.2556 
G01 X-30.7288 Y3.2818 
G01 X-30.8505 Y3.3213 
G01 X-30.6914 Y3.2554 
G01 X-30.2686 Y3.2554 
G01 X-30.1095 Y3.3213 
G01 X-30.2312 Y3.2818 
G00 Z2.5400 
G00 X-29.5714 Y3.7612 
G01 Z-0.1000 F18.00 
G01 X-29.6696 Y3.6259 F24.00 
G01 X-29.7879 Y3.5076 
G01 X-29.9232 Y3.4094 
G01 X-30.0372 Y3.3513 
G01 X-29.8781 Y3.4172 
G01 X-29.5792 Y3.7161 
G01 X-29.5133 Y3.8752 
G01 X-29.5714 Y3.7612 
G00 Z2.5400 
G00 X-29.4176 Y5.9256 
G01 Z-0.1000 F18.00 
G01 X-29.4176 Y4.2344 F24.00 
G01 X-29.4438 Y4.0692 
G01 X-29.4833 Y3.9475 
G01 X-29.4174 Y4.1066 
G01 X-29.4174 Y6.0534 
G01 X-29.4833 Y6.2125 
G01 X-29.4438 Y6.0908 
G01 X-29.4176 Y5.9256 
G00 Z2.5400 
G00 X-0.8002 Y55.2494 
G01 Z-0.1000 F18.00 
G01 X-0.6539 Y55.2102 F24.00 
G01 X-0.5227 Y55.1344 
G01 X-0.4156 Y55.0273 
G01 X-0.3398 Y54.8961 
G01 X-0.3006 Y54.7498 
G01 X-0.3006 Y0.8002 
G01 X-0.3398 Y0.6539 
G01 X-0.4156 Y0.5227 
G01 X-0.5227 Y0.4156 
G01 X-0.6539 Y0.3398 
G01 X-0.8002 Y0.3006 
G01 X-49.9798 Y0.3006 
G01 X-50.1261 Y0.3398 
G01 X-50.2573 Y0.4156 
G01 X-50.3644 Y0.5227 
G01 X-50.4402 Y0.6539 
G01 X-50.4794 Y0.8002 
G01 X-50.4794 Y54.7498 
G01 X-50.4402 Y54.8961 
G01 X-50.3644 Y55.0273 
G01 X-50.2573 Y55.1344 
G01 X-50.1261 Y55.2102 
G01 X-49.9798 Y55.2494 
G01 X-49.8282 Y55.2494 
G01 X-0.8002 Y55.2494 
G00 Z2.5400 
G00 Z2.540000
G00 X-40.6400 Y5.0800 
G01 Z-0.1000 F18.00 
G01 Z2.540000
(R2.5400  P1.000000)
(G00 Z2.540000)
G00 X-30.4800 Y5.0800 
G01 Z-1.600000
G01 Z2.540000
(G00 Z2.540000)
G00 X-33.0200 Y5.0800 
G01 Z-1.600000
G01 Z2.540000
(G00 Z2.540000)
G00 X-17.7800 Y44.4500 
G01 Z-1.600000
G01 Z2.540000
(G00 Z2.540000)
G00 X-17.7800 Y41.9100 
G01 Z-1.600000
G01 Z2.540000
(G00 Z2.540000)
G00 X-17.7800 Y34.2900 
G01 Z-1.600000
G01 Z2.540000
(G00 Z2.540000)
G00 X-17.7800 Y36.8300 
G01 Z-1.600000
G01 Z2.540000
(G00 Z2.540000)
G00 X-46.9900 Y43.1800 
G01 Z-1.600000
G01 Z2.540000
(G00 Z2.540000)
G00 X-46.9900 Y45.7200 
G01 Z-1.600000
G01 Z2.540000
(G00 Z2.540000)
G00 X-46.9900 Y48.2600 
G01 Z-1.600000
G01 Z2.540000
(G00 Z2.540000)
G00 X-46.9900 Y30.4800 
G01 Z-1.600000
G01 Z2.540000
(G00 Z2.540000)
G00 X-46.9900 Y33.0200 
G01 Z-1.600000
G01 Z2.540000
(G00 Z2.540000)
G00 X-46.9900 Y35.5600 
G01 Z-1.600000
G01 Z2.540000
(G00 Z2.540000)
G00 X-39.3700 Y48.2600 
G01 Z-1.600000
G01 Z2.540000
(G00 Z2.540000)
G00 X-39.3700 Y45.7200 
G01 Z-1.600000
G01 Z2.540000
(G00 Z2.540000)
G00 X-39.3700 Y43.1800 
G01 Z-1.600000
G01 Z2.540000
(G00 Z2.540000)
G00 X-39.3700 Y40.6400 
G01 Z-1.600000
G01 Z2.540000
(G00 Z2.540000)
G00 X-39.3700 Y38.1000 
G01 Z-1.600000
G01 Z2.540000
(G00 Z2.540000)
G00 X-39.3700 Y35.5600 
G01 Z-1.600000
G01 Z2.540000
(G00 Z2.540000)
G00 X-39.3700 Y33.0200 
G01 Z-1.600000
G01 Z2.540000
(G00 Z2.540000)
G00 X-39.3700 Y30.4800 
G01 Z-1.600000
G01 Z2.540000
(G00 Z2.540000)
G00 X-39.3700 Y27.9400 
G01 Z-1.600000
G01 Z2.540000
(G00 Z2.540000)
G00 X-39.3700 Y25.4000 
G01 Z-1.600000
G01 Z2.540000
(G00 Z2.540000)
G00 X-39.3700 Y22.8600 
G01 Z-1.600000
G01 Z2.540000
(G00 Z2.540000)
G00 X-39.3700 Y20.3200 
G01 Z-1.600000
G01 Z2.540000
(G00 Z2.540000)
G00 X-39.3700 Y17.7800 
G01 Z-1.600000
G01 Z2.540000
(G00 Z2.540000)
G00 X-39.3700 Y15.2400 
G01 Z-1.600000
G01 Z2.540000
(G00 Z2.540000)
G00 X-39.3700 Y12.7000 
G01 Z-1.600000
G01 Z2.540000
(G00 Z2.540000)
G00 X-24.1300 Y12.7000 
G01 Z-1.600000
G01 Z2.540000
(G00 Z2.540000)
G00 X-24.1300 Y15.2400 
G01 Z-1.600000
G01 Z2.540000
(G00 Z2.540000)
G00 X-24.1300 Y17.7800 
G01 Z-1.600000
G01 Z2.540000
(G00 Z2.540000)
G00 X-24.1300 Y20.3200 
G01 Z-1.600000
G01 Z2.540000
(G00 Z2.540000)
G00 X-24.1300 Y22.8600 
G01 Z-1.600000
G01 Z2.540000
(G00 Z2.540000)
G00 X-24.1300 Y25.4000 
G01 Z-1.600000
G01 Z2.540000
(G00 Z2.540000)
G00 X-24.1300 Y27.9400 
G01 Z-1.600000
G01 Z2.540000
(G00 Z2.540000)
G00 X-24.1300 Y30.4800 
G01 Z-1.600000
G01 Z2.540000
(G00 Z2.540000)
G00 X-24.1300 Y33.0200 
G01 Z-1.600000
G01 Z2.540000
(G00 Z2.540000)
G00 X-24.1300 Y35.5600 
G01 Z-1.600000
G01 Z2.540000
(G00 Z2.540000)
G00 X-24.1300 Y38.1000 
G01 Z-1.600000
G01 Z2.540000
(G00 Z2.540000)
G00 X-24.1300 Y40.6400 
G01 Z-1.600000
G01 Z2.540000
(G00 Z2.540000)
G00 X-24.1300 Y43.1800 
G01 Z-1.600000
G01 Z2.540000
(G00 Z2.540000)
G00 X-24.1300 Y45.7200 
G01 Z-1.600000
G01 Z2.540000
(G00 Z2.540000)
G00 X-24.1300 Y48.2600 
G01 Z-1.600000
G01 Z2.540000
G00 Z12.7000 
M05
M02
