(.../pcb-gcode-3_6_0_4/pcb-gcode.ulp)
(Copyright 2005 - 2012 by John Johnson)
(See readme.txt for licensing terms.)
(This file generated from the board:)
(.../AutoWatering/watering_board.brd)
(Current profile is .../pcb-gcode-3_6_0_4/profiles/generic.pp  )
(This file generated 4/8/22 3:53 PM)
(Settings from pcb-machine.h)
(  Tool Size)
(0.5500 )
(Z Axis Settings)
(  High     Up        Down     Drill)
(12.7000 	2.5400 	-0.1000 	-1.6000 )
(spindle on time = 3.0000)
(milling depth = -0.0800)
(text depth = -0.0400)
(tool change at 0.0000 0.0000 25.4000 )
(feed rate xy = F24.00 )
(feed rate z  = F18.00 )
(Settings from pcb-defaults.h)
(isolate min = 0.0254)
(isolate max = 0.5080)
(isolate step = 0.3000)
(Generated top outlines, top drill, bottom outlines, bottom drill, )
(Unit of measure: mm)
(Metric Mode)
G21
(Absolute Coordinates)
G90
G00 X0.0000 Y0.0000 
M03
G04 P3.000000
G00 Z2.5400 
G00 X-15.7946 Y34.0786 
G01 Z-0.1000 F18.00 
G01 X-15.7287 Y33.9196 F24.00 
G01 X-15.7682 Y34.0412 
G01 X-15.7944 Y34.2064 
G01 X-15.7944 Y34.3736 
G01 X-15.7682 Y34.5388 
G01 X-15.7287 Y34.6604 
G01 X-15.7946 Y34.5014 
G01 X-15.7946 Y34.0786 
G00 Z2.5400 
G00 X-15.3339 Y33.3892 
G01 Z-0.1000 F18.00 
G01 X-15.1748 Y33.3233 F24.00 
G01 X-15.2888 Y33.3814 
G01 X-15.4241 Y33.4796 
G01 X-15.5424 Y33.5979 
G01 X-15.6406 Y33.7332 
G01 X-15.6987 Y33.8472 
G01 X-15.6328 Y33.6881 
G01 X-15.3339 Y33.3892 
G00 Z2.5400 
G00 X-12.1454 Y44.6614 
G01 Z-0.1000 F18.00 
G01 X-12.2113 Y44.8205 F24.00 
G01 X-12.1718 Y44.6988 
G01 X-12.1456 Y44.5336 
G01 X-12.1456 Y44.3664 
G01 X-12.1718 Y44.2012 
G01 X-12.2113 Y44.0795 
G01 X-12.1454 Y44.2386 
G01 X-12.1454 Y44.6614 
G00 Z2.5400 
G00 X-12.6061 Y45.3508 
G01 Z-0.1000 F18.00 
G01 X-12.7652 Y45.4167 F24.00 
G01 X-12.6512 Y45.3586 
G01 X-12.5159 Y45.2604 
G01 X-12.3976 Y45.1421 
G01 X-12.2994 Y45.0068 
G01 X-12.2413 Y44.8928 
G01 X-12.3072 Y45.0519 
G01 X-12.6061 Y45.3508 
G00 Z2.5400 
G00 X-22.1286 Y48.0502 
G01 Z-0.1000 F18.00 
G01 X-22.0632 Y47.8923 F24.00 
G01 X-22.1024 Y48.0131 
G01 X-22.1284 Y48.1770 
G01 X-22.1284 Y48.3430 
G01 X-22.1024 Y48.5069 
G01 X-22.0632 Y48.6277 
G01 X-22.1286 Y48.4698 
G01 X-22.1286 Y48.0502 
G00 Z2.5400 
G00 X-21.9680 Y48.8574 
G01 Z-0.1000 F18.00 
G01 X-22.0334 Y48.6995 F24.00 
G01 X-21.9758 Y48.8126 
G01 X-21.8783 Y48.9469 
G01 X-21.7609 Y49.0643 
G01 X-21.6266 Y49.1618 
G01 X-21.5135 Y49.2194 
G01 X-21.6714 Y49.1540 
G01 X-21.9680 Y48.8574 
G00 Z2.5400 
G00 X-21.2838 Y49.3146 
G01 Z-0.1000 F18.00 
G01 X-21.4417 Y49.2492 F24.00 
G01 X-21.3209 Y49.2884 
G01 X-21.1570 Y49.3144 
G01 X-19.4830 Y49.3144 
G01 X-19.3191 Y49.2884 
G01 X-19.1983 Y49.2492 
G01 X-19.3562 Y49.3146 
G01 X-21.2838 Y49.3146 
G00 Z2.5400 
G00 X-18.9686 Y49.1540 
G01 Z-0.1000 F18.00 
G01 X-19.1265 Y49.2195 F24.00 
G01 X-19.0134 Y49.1618 
G01 X-18.8791 Y49.0643 
G01 X-18.7617 Y48.9469 
G01 X-18.6642 Y48.8126 
G01 X-18.6065 Y48.6995 
G01 X-18.6720 Y48.8574 
G01 X-18.9686 Y49.1540 
G00 Z2.5400 
G00 X-18.5114 Y48.4698 
G01 Z-0.1000 F18.00 
G01 X-18.5768 Y48.6277 F24.00 
G01 X-18.5376 Y48.5069 
G01 X-18.5116 Y48.3430 
G01 X-18.5116 Y48.1770 
G01 X-18.5376 Y48.0131 
G01 X-18.5768 Y47.8923 
G01 X-18.5114 Y48.0502 
G01 X-18.5114 Y48.4698 
G00 Z2.5400 
G00 X-18.6642 Y42.6274 
G01 Z-0.1000 F18.00 
G01 X-18.7617 Y42.4931 F24.00 
G01 X-18.8791 Y42.3757 
G01 X-19.0134 Y42.2782 
G01 X-19.1613 Y42.2029 
G01 X-19.3191 Y42.1516 
G01 X-19.4830 Y42.1256 
G01 X-21.1570 Y42.1256 
G01 X-21.3209 Y42.1516 
G01 X-21.4787 Y42.2029 
G01 X-21.6266 Y42.2782 
G01 X-21.7609 Y42.3757 
G01 X-21.8783 Y42.4931 
G01 X-21.9758 Y42.6274 
G01 X-22.0335 Y42.7405 
G01 X-21.9680 Y42.5826 
G01 X-21.6487 Y42.2633 
G01 X-21.5753 Y42.1360 
G01 X-21.5730 Y42.1321 
G01 X-21.5338 Y41.9858 
G01 X-21.5338 Y41.8342 
G01 X-21.5730 Y41.6879 
G01 X-21.6471 Y41.5596 
G01 X-21.6487 Y41.5567 
G01 X-21.7559 Y41.4496 
G01 X-21.9680 Y41.2374 
G01 X-22.0334 Y41.0795 
G01 X-21.9758 Y41.1926 
G01 X-21.8783 Y41.3269 
G01 X-21.7609 Y41.4443 
G01 X-21.6266 Y41.5418 
G01 X-21.4787 Y41.6171 
G01 X-21.3209 Y41.6684 
G01 X-21.1570 Y41.6944 
G01 X-19.4830 Y41.6944 
G01 X-19.3191 Y41.6684 
G01 X-19.1613 Y41.6171 
G01 X-19.0134 Y41.5418 
G01 X-18.8791 Y41.4443 
G01 X-18.7617 Y41.3269 
G01 X-18.6642 Y41.1926 
G01 X-18.6065 Y41.0794 
G01 X-18.6720 Y41.2374 
G01 X-18.8841 Y41.4496 
G01 X-18.9842 Y41.5496 
G01 X-18.9913 Y41.5567 
G01 X-19.0670 Y41.6879 
G01 X-19.1062 Y41.8342 
G01 X-19.1062 Y41.9858 
G01 X-19.0687 Y42.1259 
G01 X-19.0670 Y42.1321 
G01 X-18.9913 Y42.2633 
G01 X-18.8841 Y42.3704 
G01 X-18.6720 Y42.5826 
G01 X-18.6065 Y42.7406 
G01 X-18.6642 Y42.6274 
G00 Z2.5400 
G00 X-18.5376 Y40.8869 
G01 Z-0.1000 F18.00 
G01 X-18.5116 Y40.7230 F24.00 
G01 X-18.5116 Y40.5570 
G01 X-18.5376 Y40.3931 
G01 X-18.5768 Y40.2723 
G01 X-18.5114 Y40.4302 
G01 X-18.5114 Y40.8498 
G01 X-18.5768 Y41.0077 
G01 X-18.5376 Y40.8869 
G00 Z2.5400 
G00 X-18.6642 Y37.5474 
G01 Z-0.1000 F18.00 
G01 X-18.7617 Y37.4131 F24.00 
G01 X-18.8791 Y37.2957 
G01 X-19.0134 Y37.1982 
G01 X-19.1613 Y37.1228 
G01 X-19.3191 Y37.0716 
G01 X-19.4830 Y37.0456 
G01 X-21.1570 Y37.0456 
G01 X-21.3209 Y37.0716 
G01 X-21.4787 Y37.1228 
G01 X-21.6266 Y37.1982 
G01 X-21.7609 Y37.2957 
G01 X-21.8783 Y37.4131 
G01 X-21.9758 Y37.5474 
G01 X-22.0335 Y37.6605 
G01 X-21.9680 Y37.5026 
G01 X-21.6487 Y37.1833 
G01 X-21.5753 Y37.0560 
G01 X-21.5730 Y37.0521 
G01 X-21.5338 Y36.9058 
G01 X-21.5338 Y36.7542 
G01 X-21.5730 Y36.6079 
G01 X-21.6471 Y36.4796 
G01 X-21.6487 Y36.4767 
G01 X-21.7559 Y36.3696 
G01 X-21.9680 Y36.1574 
G01 X-22.0334 Y35.9995 
G01 X-21.9758 Y36.1126 
G01 X-21.8783 Y36.2469 
G01 X-21.7609 Y36.3642 
G01 X-21.6266 Y36.4618 
G01 X-21.4787 Y36.5371 
G01 X-21.3209 Y36.5884 
G01 X-21.1570 Y36.6144 
G01 X-19.4830 Y36.6144 
G01 X-19.3191 Y36.5884 
G01 X-19.1613 Y36.5371 
G01 X-19.0134 Y36.4618 
G01 X-18.8791 Y36.3642 
G01 X-18.7617 Y36.2469 
G01 X-18.6642 Y36.1126 
G01 X-18.6065 Y35.9995 
G01 X-18.6720 Y36.1574 
G01 X-18.8841 Y36.3696 
G01 X-18.9842 Y36.4696 
G01 X-18.9913 Y36.4767 
G01 X-19.0670 Y36.6079 
G01 X-19.1062 Y36.7542 
G01 X-19.1062 Y36.9058 
G01 X-19.0687 Y37.0459 
G01 X-19.0670 Y37.0521 
G01 X-18.9913 Y37.1833 
G01 X-18.8841 Y37.2904 
G01 X-18.6720 Y37.5026 
G01 X-18.6065 Y37.6606 
G01 X-18.6642 Y37.5474 
G00 Z2.5400 
G00 X-18.5376 Y35.8069 
G01 Z-0.1000 F18.00 
G01 X-18.5116 Y35.6430 F24.00 
G01 X-18.5116 Y35.4770 
G01 X-18.5376 Y35.3131 
G01 X-18.5768 Y35.1923 
G01 X-18.5114 Y35.3502 
G01 X-18.5114 Y35.7698 
G01 X-18.5768 Y35.9277 
G01 X-18.5376 Y35.8069 
G00 Z2.5400 
G00 X-18.6642 Y32.4674 
G01 Z-0.1000 F18.00 
G01 X-18.7617 Y32.3331 F24.00 
G01 X-18.8791 Y32.2157 
G01 X-19.0134 Y32.1182 
G01 X-19.1613 Y32.0429 
G01 X-19.3191 Y31.9916 
G01 X-19.4830 Y31.9656 
G01 X-21.1570 Y31.9656 
G01 X-21.3209 Y31.9916 
G01 X-21.4787 Y32.0429 
G01 X-21.6266 Y32.1182 
G01 X-21.7609 Y32.2157 
G01 X-21.8783 Y32.3331 
G01 X-21.9758 Y32.4674 
G01 X-22.0334 Y32.5805 
G01 X-21.9680 Y32.4226 
G01 X-21.6487 Y32.1033 
G01 X-21.5753 Y31.9760 
G01 X-21.5730 Y31.9721 
G01 X-21.5338 Y31.8258 
G01 X-21.5338 Y31.6742 
G01 X-21.5730 Y31.5279 
G01 X-21.6471 Y31.3996 
G01 X-21.6487 Y31.3967 
G01 X-21.7559 Y31.2896 
G01 X-21.9680 Y31.0774 
G01 X-22.0334 Y30.9195 
G01 X-21.9758 Y31.0326 
G01 X-21.8783 Y31.1669 
G01 X-21.7609 Y31.2843 
G01 X-21.6266 Y31.3818 
G01 X-21.4787 Y31.4571 
G01 X-21.3209 Y31.5084 
G01 X-21.1570 Y31.5344 
G01 X-19.4830 Y31.5344 
G01 X-19.3191 Y31.5084 
G01 X-19.1613 Y31.4571 
G01 X-19.0134 Y31.3818 
G01 X-18.8791 Y31.2843 
G01 X-18.7617 Y31.1669 
G01 X-18.6642 Y31.0326 
G01 X-18.6065 Y30.9195 
G01 X-18.6720 Y31.0774 
G01 X-18.8841 Y31.2896 
G01 X-18.9842 Y31.3896 
G01 X-18.9913 Y31.3967 
G01 X-19.0670 Y31.5279 
G01 X-19.1062 Y31.6742 
G01 X-19.1062 Y31.8258 
G01 X-19.0687 Y31.9659 
G01 X-19.0670 Y31.9721 
G01 X-18.9913 Y32.1033 
G01 X-18.8841 Y32.2104 
G01 X-18.6720 Y32.4226 
G01 X-18.6065 Y32.5805 
G01 X-18.6642 Y32.4674 
G00 Z2.5400 
G00 X-18.5376 Y30.7269 
G01 Z-0.1000 F18.00 
G01 X-18.5116 Y30.5630 F24.00 
G01 X-18.5116 Y30.3970 
G01 X-18.5376 Y30.2331 
G01 X-18.5768 Y30.1123 
G01 X-18.5114 Y30.2702 
G01 X-18.5114 Y30.6898 
G01 X-18.5768 Y30.8477 
G01 X-18.5376 Y30.7269 
G00 Z2.5400 
G00 X-18.6642 Y27.3874 
G01 Z-0.1000 F18.00 
G01 X-18.7617 Y27.2531 F24.00 
G01 X-18.8791 Y27.1357 
G01 X-19.0134 Y27.0382 
G01 X-19.1613 Y26.9628 
G01 X-19.3191 Y26.9116 
G01 X-19.4830 Y26.8856 
G01 X-21.1570 Y26.8856 
G01 X-21.3209 Y26.9116 
G01 X-21.4787 Y26.9628 
G01 X-21.6266 Y27.0382 
G01 X-21.7609 Y27.1357 
G01 X-21.8783 Y27.2531 
G01 X-21.9758 Y27.3874 
G01 X-22.0334 Y27.5005 
G01 X-21.9680 Y27.3426 
G01 X-21.6487 Y27.0233 
G01 X-21.5753 Y26.8960 
G01 X-21.5730 Y26.8921 
G01 X-21.5338 Y26.7458 
G01 X-21.5338 Y26.5942 
G01 X-21.5730 Y26.4479 
G01 X-21.6471 Y26.3196 
G01 X-21.6487 Y26.3167 
G01 X-21.7559 Y26.2096 
G01 X-21.9680 Y25.9974 
G01 X-22.0334 Y25.8395 
G01 X-21.9758 Y25.9526 
G01 X-21.8783 Y26.0869 
G01 X-21.7609 Y26.2043 
G01 X-21.6266 Y26.3018 
G01 X-21.4787 Y26.3771 
G01 X-21.3209 Y26.4284 
G01 X-21.1570 Y26.4544 
G01 X-19.4830 Y26.4544 
G01 X-19.3191 Y26.4284 
G01 X-19.1613 Y26.3771 
G01 X-19.0134 Y26.3018 
G01 X-18.8791 Y26.2043 
G01 X-18.7617 Y26.0869 
G01 X-18.6642 Y25.9526 
G01 X-18.6065 Y25.8395 
G01 X-18.6720 Y25.9974 
G01 X-18.8841 Y26.2096 
G01 X-18.9842 Y26.3096 
G01 X-18.9913 Y26.3167 
G01 X-19.0670 Y26.4479 
G01 X-19.1062 Y26.5942 
G01 X-19.1062 Y26.7458 
G01 X-19.0687 Y26.8859 
G01 X-19.0670 Y26.8921 
G01 X-18.9913 Y27.0233 
G01 X-18.8841 Y27.1304 
G01 X-18.6720 Y27.3426 
G01 X-18.6065 Y27.5006 
G01 X-18.6642 Y27.3874 
G00 Z2.5400 
G00 X-18.5376 Y25.6469 
G01 Z-0.1000 F18.00 
G01 X-18.5116 Y25.4830 F24.00 
G01 X-18.5116 Y25.3170 
G01 X-18.5376 Y25.1531 
G01 X-18.5768 Y25.0323 
G01 X-18.5114 Y25.1902 
G01 X-18.5114 Y25.6098 
G01 X-18.5768 Y25.7677 
G01 X-18.5376 Y25.6469 
G00 Z2.5400 
G00 X-19.3191 Y21.8316 
G01 Z-0.1000 F18.00 
G01 X-19.4830 Y21.8056 F24.00 
G01 X-21.1570 Y21.8056 
G01 X-21.3209 Y21.8316 
G01 X-21.4786 Y21.8828 
G01 X-21.4279 Y21.8418 
G01 X-21.3738 Y21.8003 
G01 X-21.3692 Y21.7942 
G01 X-21.3632 Y21.7894 
G01 X-21.3231 Y21.7342 
G01 X-21.2816 Y21.6801 
G01 X-21.2787 Y21.6730 
G01 X-21.2742 Y21.6668 
G01 X-21.2497 Y21.6031 
G01 X-21.2236 Y21.5401 
G01 X-21.2226 Y21.5325 
G01 X-21.2199 Y21.5254 
G01 X-21.2127 Y21.4575 
G01 X-21.2038 Y21.3899 
G01 X-21.2048 Y21.3823 
G01 X-21.2040 Y21.3747 
G01 X-21.2053 Y21.3667 
G01 X-21.1570 Y21.3744 
G01 X-19.4830 Y21.3744 
G01 X-19.4347 Y21.3667 
G01 X-19.4360 Y21.3747 
G01 X-19.4352 Y21.3823 
G01 X-19.4362 Y21.3899 
G01 X-19.4273 Y21.4575 
G01 X-19.4201 Y21.5254 
G01 X-19.4174 Y21.5325 
G01 X-19.4164 Y21.5401 
G01 X-19.3903 Y21.6031 
G01 X-19.3658 Y21.6668 
G01 X-19.3613 Y21.6730 
G01 X-19.3584 Y21.6801 
G01 X-19.3169 Y21.7342 
G01 X-19.2768 Y21.7894 
G01 X-19.2708 Y21.7942 
G01 X-19.2662 Y21.8003 
G01 X-19.2121 Y21.8418 
G01 X-19.1614 Y21.8828 
G01 X-19.3191 Y21.8316 
G00 Z2.5400 
G00 X-18.6642 Y22.3074 
G01 Z-0.1000 F18.00 
G01 X-18.7617 Y22.1731 F24.00 
G01 X-18.8791 Y22.0557 
G01 X-19.0134 Y21.9582 
G01 X-19.1265 Y21.9005 
G01 X-19.0829 Y21.9186 
G01 X-19.0206 Y21.9463 
G01 X-19.0131 Y21.9475 
G01 X-18.9686 Y21.9660 
G01 X-18.6720 Y22.2626 
G01 X-18.6065 Y22.4206 
G01 X-18.6642 Y22.3074 
G00 Z2.5400 
G00 X-18.5376 Y23.1069 
G01 Z-0.1000 F18.00 
G01 X-18.5116 Y22.9430 F24.00 
G01 X-18.5116 Y22.7770 
G01 X-18.5376 Y22.6131 
G01 X-18.5768 Y22.4923 
G01 X-18.5114 Y22.6502 
G01 X-18.5114 Y23.0698 
G01 X-18.5768 Y23.2277 
G01 X-18.5376 Y23.1069 
G00 Z2.5400 
G00 X-18.6642 Y24.8474 
G01 Z-0.1000 F18.00 
G01 X-18.7617 Y24.7131 F24.00 
G01 X-18.8791 Y24.5957 
G01 X-19.0134 Y24.4982 
G01 X-19.1613 Y24.4229 
G01 X-19.3191 Y24.3716 
G01 X-19.4830 Y24.3456 
G01 X-21.1570 Y24.3456 
G01 X-21.3209 Y24.3716 
G01 X-21.4787 Y24.4229 
G01 X-21.6266 Y24.4982 
G01 X-21.7609 Y24.5957 
G01 X-21.8783 Y24.7131 
G01 X-21.9758 Y24.8474 
G01 X-22.0335 Y24.9605 
G01 X-21.9680 Y24.8026 
G01 X-21.6487 Y24.4833 
G01 X-21.5753 Y24.3560 
G01 X-21.5730 Y24.3521 
G01 X-21.5338 Y24.2058 
G01 X-21.5338 Y24.0542 
G01 X-21.5730 Y23.9079 
G01 X-21.6471 Y23.7796 
G01 X-21.6487 Y23.7767 
G01 X-21.7559 Y23.6696 
G01 X-21.9680 Y23.4574 
G01 X-22.0334 Y23.2995 
G01 X-21.9758 Y23.4126 
G01 X-21.8783 Y23.5469 
G01 X-21.7609 Y23.6643 
G01 X-21.6266 Y23.7618 
G01 X-21.4787 Y23.8371 
G01 X-21.3209 Y23.8884 
G01 X-21.1570 Y23.9144 
G01 X-19.4830 Y23.9144 
G01 X-19.3191 Y23.8884 
G01 X-19.1613 Y23.8371 
G01 X-19.0134 Y23.7618 
G01 X-18.8791 Y23.6643 
G01 X-18.7617 Y23.5469 
G01 X-18.6642 Y23.4126 
G01 X-18.6065 Y23.2995 
G01 X-18.6720 Y23.4574 
G01 X-18.8841 Y23.6696 
G01 X-18.9842 Y23.7696 
G01 X-18.9913 Y23.7767 
G01 X-19.0670 Y23.9079 
G01 X-19.1062 Y24.0542 
G01 X-19.1062 Y24.2058 
G01 X-19.0687 Y24.3459 
G01 X-19.0670 Y24.3521 
G01 X-18.9913 Y24.4833 
G01 X-18.8841 Y24.5904 
G01 X-18.6720 Y24.8026 
G01 X-18.6065 Y24.9606 
G01 X-18.6642 Y24.8474 
G00 Z2.5400 
G00 X-18.5376 Y28.1869 
G01 Z-0.1000 F18.00 
G01 X-18.5116 Y28.0230 F24.00 
G01 X-18.5116 Y27.8570 
G01 X-18.5376 Y27.6931 
G01 X-18.5768 Y27.5723 
G01 X-18.5114 Y27.7302 
G01 X-18.5114 Y28.1498 
G01 X-18.5768 Y28.3077 
G01 X-18.5376 Y28.1869 
G00 Z2.5400 
G00 X-18.6642 Y29.9274 
G01 Z-0.1000 F18.00 
G01 X-18.7617 Y29.7931 F24.00 
G01 X-18.8791 Y29.6757 
G01 X-19.0134 Y29.5782 
G01 X-19.1613 Y29.5029 
G01 X-19.3191 Y29.4516 
G01 X-19.4830 Y29.4256 
G01 X-21.1570 Y29.4256 
G01 X-21.3209 Y29.4516 
G01 X-21.4787 Y29.5029 
G01 X-21.6266 Y29.5782 
G01 X-21.7609 Y29.6757 
G01 X-21.8783 Y29.7931 
G01 X-21.9758 Y29.9274 
G01 X-22.0334 Y30.0405 
G01 X-21.9680 Y29.8826 
G01 X-21.6487 Y29.5633 
G01 X-21.5753 Y29.4360 
G01 X-21.5730 Y29.4321 
G01 X-21.5338 Y29.2858 
G01 X-21.5338 Y29.1342 
G01 X-21.5730 Y28.9879 
G01 X-21.6471 Y28.8596 
G01 X-21.6487 Y28.8567 
G01 X-21.7559 Y28.7496 
G01 X-21.9680 Y28.5374 
G01 X-22.0334 Y28.3795 
G01 X-21.9758 Y28.4926 
G01 X-21.8783 Y28.6269 
G01 X-21.7609 Y28.7443 
G01 X-21.6266 Y28.8418 
G01 X-21.4787 Y28.9171 
G01 X-21.3209 Y28.9684 
G01 X-21.1570 Y28.9944 
G01 X-19.4830 Y28.9944 
G01 X-19.3191 Y28.9684 
G01 X-19.1613 Y28.9171 
G01 X-19.0134 Y28.8418 
G01 X-18.8791 Y28.7443 
G01 X-18.7617 Y28.6269 
G01 X-18.6642 Y28.4926 
G01 X-18.6065 Y28.3795 
G01 X-18.6720 Y28.5374 
G01 X-18.8841 Y28.7496 
G01 X-18.9842 Y28.8496 
G01 X-18.9913 Y28.8567 
G01 X-19.0670 Y28.9879 
G01 X-19.1062 Y29.1342 
G01 X-19.1062 Y29.2858 
G01 X-19.0687 Y29.4259 
G01 X-19.0670 Y29.4321 
G01 X-18.9913 Y29.5633 
G01 X-18.8841 Y29.6704 
G01 X-18.6720 Y29.8826 
G01 X-18.6065 Y30.0405 
G01 X-18.6642 Y29.9274 
G00 Z2.5400 
G00 X-18.5376 Y33.2669 
G01 Z-0.1000 F18.00 
G01 X-18.5116 Y33.1030 F24.00 
G01 X-18.5116 Y32.9370 
G01 X-18.5376 Y32.7731 
G01 X-18.5768 Y32.6523 
G01 X-18.5114 Y32.8102 
G01 X-18.5114 Y33.2298 
G01 X-18.5768 Y33.3877 
G01 X-18.5376 Y33.2669 
G00 Z2.5400 
G00 X-18.6642 Y35.0074 
G01 Z-0.1000 F18.00 
G01 X-18.7617 Y34.8731 F24.00 
G01 X-18.8791 Y34.7557 
G01 X-19.0134 Y34.6582 
G01 X-19.1613 Y34.5829 
G01 X-19.3191 Y34.5316 
G01 X-19.4830 Y34.5056 
G01 X-21.1570 Y34.5056 
G01 X-21.3209 Y34.5316 
G01 X-21.4787 Y34.5829 
G01 X-21.6266 Y34.6582 
G01 X-21.7609 Y34.7557 
G01 X-21.8783 Y34.8731 
G01 X-21.9758 Y35.0074 
G01 X-22.0334 Y35.1205 
G01 X-21.9680 Y34.9626 
G01 X-21.6487 Y34.6433 
G01 X-21.5753 Y34.5160 
G01 X-21.5730 Y34.5121 
G01 X-21.5338 Y34.3657 
G01 X-21.5338 Y34.2142 
G01 X-21.5730 Y34.0679 
G01 X-21.6471 Y33.9396 
G01 X-21.6487 Y33.9367 
G01 X-21.7559 Y33.8296 
G01 X-21.9680 Y33.6174 
G01 X-22.0334 Y33.4595 
G01 X-21.9758 Y33.5726 
G01 X-21.8783 Y33.7069 
G01 X-21.7609 Y33.8242 
G01 X-21.6266 Y33.9218 
G01 X-21.4787 Y33.9971 
G01 X-21.3209 Y34.0484 
G01 X-21.1570 Y34.0744 
G01 X-19.4830 Y34.0744 
G01 X-19.3191 Y34.0484 
G01 X-19.1613 Y33.9971 
G01 X-19.0134 Y33.9218 
G01 X-18.8791 Y33.8242 
G01 X-18.7617 Y33.7069 
G01 X-18.6642 Y33.5726 
G01 X-18.6065 Y33.4595 
G01 X-18.6720 Y33.6174 
G01 X-18.8841 Y33.8296 
G01 X-18.9842 Y33.9296 
G01 X-18.9913 Y33.9367 
G01 X-19.0670 Y34.0679 
G01 X-19.1062 Y34.2142 
G01 X-19.1062 Y34.3657 
G01 X-19.0687 Y34.5059 
G01 X-19.0670 Y34.5121 
G01 X-18.9913 Y34.6433 
G01 X-18.8841 Y34.7504 
G01 X-18.6720 Y34.9626 
G01 X-18.6065 Y35.1205 
G01 X-18.6642 Y35.0074 
G00 Z2.5400 
G00 X-18.5376 Y38.3469 
G01 Z-0.1000 F18.00 
G01 X-18.5116 Y38.1830 F24.00 
G01 X-18.5116 Y38.0170 
G01 X-18.5376 Y37.8531 
G01 X-18.5768 Y37.7323 
G01 X-18.5114 Y37.8902 
G01 X-18.5114 Y38.3098 
G01 X-18.5768 Y38.4677 
G01 X-18.5376 Y38.3469 
G00 Z2.5400 
G00 X-18.6642 Y40.0874 
G01 Z-0.1000 F18.00 
G01 X-18.7617 Y39.9531 F24.00 
G01 X-18.8791 Y39.8357 
G01 X-19.0134 Y39.7382 
G01 X-19.1613 Y39.6628 
G01 X-19.3191 Y39.6116 
G01 X-19.4830 Y39.5856 
G01 X-21.1570 Y39.5856 
G01 X-21.3209 Y39.6116 
G01 X-21.4787 Y39.6628 
G01 X-21.6266 Y39.7382 
G01 X-21.7609 Y39.8357 
G01 X-21.8783 Y39.9531 
G01 X-21.9758 Y40.0874 
G01 X-22.0335 Y40.2005 
G01 X-21.9680 Y40.0426 
G01 X-21.6487 Y39.7233 
G01 X-21.5753 Y39.5960 
G01 X-21.5730 Y39.5921 
G01 X-21.5338 Y39.4458 
G01 X-21.5338 Y39.2942 
G01 X-21.5730 Y39.1479 
G01 X-21.6471 Y39.0196 
G01 X-21.6487 Y39.0167 
G01 X-21.7559 Y38.9096 
G01 X-21.9680 Y38.6974 
G01 X-22.0335 Y38.5395 
G01 X-21.9758 Y38.6526 
G01 X-21.8783 Y38.7869 
G01 X-21.7609 Y38.9043 
G01 X-21.6266 Y39.0018 
G01 X-21.4787 Y39.0771 
G01 X-21.3209 Y39.1284 
G01 X-21.1570 Y39.1544 
G01 X-19.4830 Y39.1544 
G01 X-19.3191 Y39.1284 
G01 X-19.1613 Y39.0771 
G01 X-19.0134 Y39.0018 
G01 X-18.8791 Y38.9043 
G01 X-18.7617 Y38.7869 
G01 X-18.6642 Y38.6526 
G01 X-18.6065 Y38.5394 
G01 X-18.6720 Y38.6974 
G01 X-18.8841 Y38.9096 
G01 X-18.9842 Y39.0096 
G01 X-18.9913 Y39.0167 
G01 X-19.0670 Y39.1479 
G01 X-19.1062 Y39.2942 
G01 X-19.1062 Y39.4458 
G01 X-19.0687 Y39.5859 
G01 X-19.0670 Y39.5921 
G01 X-18.9913 Y39.7233 
G01 X-18.8841 Y39.8304 
G01 X-18.6720 Y40.0426 
G01 X-18.6065 Y40.2006 
G01 X-18.6642 Y40.0874 
G00 Z2.5400 
G00 X-18.5376 Y43.4269 
G01 Z-0.1000 F18.00 
G01 X-18.5116 Y43.2630 F24.00 
G01 X-18.5116 Y43.0970 
G01 X-18.5376 Y42.9331 
G01 X-18.5768 Y42.8123 
G01 X-18.5114 Y42.9702 
G01 X-18.5114 Y43.3898 
G01 X-18.5768 Y43.5477 
G01 X-18.5376 Y43.4269 
G00 Z2.5400 
G00 X-19.4830 Y44.6656 
G01 Z-0.1000 F18.00 
G01 X-21.1570 Y44.6656 F24.00 
G01 X-21.3209 Y44.6916 
G01 X-21.4787 Y44.7429 
G01 X-21.6266 Y44.8182 
G01 X-21.7609 Y44.9157 
G01 X-21.8783 Y45.0331 
G01 X-21.9758 Y45.1674 
G01 X-22.0335 Y45.2805 
G01 X-21.9680 Y45.1226 
G01 X-21.6487 Y44.8033 
G01 X-21.5753 Y44.6760 
G01 X-21.5730 Y44.6721 
G01 X-21.5338 Y44.5258 
G01 X-21.5338 Y44.3742 
G01 X-21.5730 Y44.2279 
G01 X-21.6471 Y44.0996 
G01 X-21.6487 Y44.0967 
G01 X-21.7559 Y43.9896 
G01 X-21.9680 Y43.7774 
G01 X-22.0334 Y43.6195 
G01 X-21.9758 Y43.7326 
G01 X-21.8783 Y43.8669 
G01 X-21.7609 Y43.9843 
G01 X-21.6266 Y44.0818 
G01 X-21.4787 Y44.1571 
G01 X-21.3209 Y44.2084 
G01 X-21.1570 Y44.2344 
G01 X-19.4830 Y44.2344 
G01 X-19.3191 Y44.2084 
G01 X-19.1613 Y44.1571 
G01 X-19.0134 Y44.0818 
G01 X-18.8791 Y43.9843 
G01 X-18.7617 Y43.8669 
G01 X-18.6642 Y43.7326 
G01 X-18.6065 Y43.6194 
G01 X-18.6720 Y43.7774 
G01 X-18.8841 Y43.9896 
G01 X-18.9842 Y44.0896 
G01 X-18.9913 Y44.0967 
G01 X-19.0670 Y44.2279 
G01 X-19.1062 Y44.3742 
G01 X-19.1062 Y44.5258 
G01 X-19.0687 Y44.6659 
G01 X-19.0670 Y44.6721 
G01 X-18.9913 Y44.8033 
G01 X-18.8841 Y44.9104 
G01 X-18.6720 Y45.1226 
G01 X-18.6065 Y45.2806 
G01 X-18.6642 Y45.1674 
G01 X-18.7617 Y45.0331 
G01 X-18.8791 Y44.9157 
G01 X-19.0134 Y44.8182 
G01 X-19.1613 Y44.7429 
G01 X-19.3191 Y44.6916 
G01 X-19.4830 Y44.6656 
G00 Z2.5400 
G00 X-18.5114 Y45.9298 
G01 Z-0.1000 F18.00 
G01 X-18.5768 Y46.0877 F24.00 
G01 X-18.5376 Y45.9669 
G01 X-18.5116 Y45.8030 
G01 X-18.5116 Y45.6370 
G01 X-18.5376 Y45.4731 
G01 X-18.5768 Y45.3523 
G01 X-18.5114 Y45.5102 
G01 X-18.5114 Y45.9298 
G00 Z2.5400 
G00 X-18.8841 Y46.5296 
G01 Z-0.1000 F18.00 
G01 X-18.8841 Y46.5296 F24.00 
G01 X-18.9842 Y46.6296 
G01 X-18.9913 Y46.6367 
G01 X-19.0670 Y46.7679 
G01 X-19.1062 Y46.9142 
G01 X-19.1062 Y47.0658 
G01 X-19.0687 Y47.2059 
G01 X-19.0670 Y47.2121 
G01 X-18.9913 Y47.3433 
G01 X-18.8841 Y47.4504 
G01 X-18.6720 Y47.6626 
G01 X-18.6065 Y47.8206 
G01 X-18.6642 Y47.7074 
G01 X-18.7617 Y47.5731 
G01 X-18.8791 Y47.4557 
G01 X-19.0134 Y47.3582 
G01 X-19.1613 Y47.2829 
G01 X-19.3191 Y47.2316 
G01 X-19.4830 Y47.2056 
G01 X-21.1570 Y47.2056 
G01 X-21.3209 Y47.2316 
G01 X-21.4787 Y47.2829 
G01 X-21.6266 Y47.3582 
G01 X-21.7609 Y47.4557 
G01 X-21.8783 Y47.5731 
G01 X-21.9758 Y47.7074 
G01 X-22.0335 Y47.8205 
G01 X-21.9680 Y47.6626 
G01 X-21.6487 Y47.3433 
G01 X-21.5753 Y47.2160 
G01 X-21.5730 Y47.2121 
G01 X-21.5338 Y47.0658 
G01 X-21.5338 Y46.9142 
G01 X-21.5730 Y46.7679 
G01 X-21.6471 Y46.6396 
G01 X-21.6487 Y46.6367 
G01 X-21.7559 Y46.5296 
G01 X-21.9680 Y46.3174 
G01 X-22.0334 Y46.1595 
G01 X-21.9758 Y46.2726 
G01 X-21.8783 Y46.4069 
G01 X-21.7609 Y46.5243 
G01 X-21.6266 Y46.6218 
G01 X-21.4787 Y46.6971 
G01 X-21.3209 Y46.7484 
G01 X-21.1570 Y46.7744 
G01 X-19.4830 Y46.7744 
G01 X-19.3191 Y46.7484 
G01 X-19.1613 Y46.6971 
G01 X-19.0134 Y46.6218 
G01 X-18.8791 Y46.5243 
G01 X-18.7617 Y46.4069 
G01 X-18.6642 Y46.2726 
G01 X-18.6065 Y46.1594 
G01 X-18.6720 Y46.3174 
G01 X-18.8841 Y46.5296 
G00 Z2.5400 
G00 X-22.1286 Y45.5102 
G01 Z-0.1000 F18.00 
G01 X-22.0632 Y45.3523 F24.00 
G01 X-22.1024 Y45.4731 
G01 X-22.1284 Y45.6370 
G01 X-22.1284 Y45.8030 
G01 X-22.1024 Y45.9669 
G01 X-22.0632 Y46.0877 
G01 X-22.1286 Y45.9298 
G01 X-22.1286 Y45.5102 
G00 Z2.5400 
G00 X-22.1286 Y42.9702 
G01 Z-0.1000 F18.00 
G01 X-22.0632 Y42.8123 F24.00 
G01 X-22.1024 Y42.9331 
G01 X-22.1284 Y43.0970 
G01 X-22.1284 Y43.2630 
G01 X-22.1024 Y43.4269 
G01 X-22.0632 Y43.5477 
G01 X-22.1286 Y43.3898 
G01 X-22.1286 Y42.9702 
G00 Z2.5400 
G00 X-22.1286 Y40.4302 
G01 Z-0.1000 F18.00 
G01 X-22.0632 Y40.2723 F24.00 
G01 X-22.1024 Y40.3931 
G01 X-22.1284 Y40.5570 
G01 X-22.1284 Y40.7230 
G01 X-22.1024 Y40.8869 
G01 X-22.0632 Y41.0077 
G01 X-22.1286 Y40.8498 
G01 X-22.1286 Y40.4302 
G00 Z2.5400 
G00 X-22.1286 Y37.8902 
G01 Z-0.1000 F18.00 
G01 X-22.0632 Y37.7323 F24.00 
G01 X-22.1024 Y37.8531 
G01 X-22.1284 Y38.0170 
G01 X-22.1284 Y38.1830 
G01 X-22.1024 Y38.3469 
G01 X-22.0632 Y38.4677 
G01 X-22.1286 Y38.3098 
G01 X-22.1286 Y37.8902 
G00 Z2.5400 
G00 X-22.1286 Y35.3502 
G01 Z-0.1000 F18.00 
G01 X-22.0632 Y35.1923 F24.00 
G01 X-22.1024 Y35.3131 
G01 X-22.1284 Y35.4770 
G01 X-22.1284 Y35.6430 
G01 X-22.1024 Y35.8069 
G01 X-22.0632 Y35.9277 
G01 X-22.1286 Y35.7698 
G01 X-22.1286 Y35.3502 
G00 Z2.5400 
G00 X-22.1286 Y32.8102 
G01 Z-0.1000 F18.00 
G01 X-22.0632 Y32.6523 F24.00 
G01 X-22.1024 Y32.7731 
G01 X-22.1284 Y32.9370 
G01 X-22.1284 Y33.1030 
G01 X-22.1024 Y33.2669 
G01 X-22.0632 Y33.3876 
G01 X-22.1286 Y33.2298 
G01 X-22.1286 Y32.8102 
G00 Z2.5400 
G00 X-22.1286 Y30.2702 
G01 Z-0.1000 F18.00 
G01 X-22.0632 Y30.1123 F24.00 
G01 X-22.1024 Y30.2331 
G01 X-22.1284 Y30.3970 
G01 X-22.1284 Y30.5630 
G01 X-22.1024 Y30.7269 
G01 X-22.0632 Y30.8477 
G01 X-22.1286 Y30.6898 
G01 X-22.1286 Y30.2702 
G00 Z2.5400 
G00 X-22.1286 Y27.7302 
G01 Z-0.1000 F18.00 
G01 X-22.0632 Y27.5723 F24.00 
G01 X-22.1024 Y27.6931 
G01 X-22.1284 Y27.8570 
G01 X-22.1284 Y28.0230 
G01 X-22.1024 Y28.1869 
G01 X-22.0632 Y28.3077 
G01 X-22.1286 Y28.1498 
G01 X-22.1286 Y27.7302 
G00 Z2.5400 
G00 X-22.1286 Y25.1902 
G01 Z-0.1000 F18.00 
G01 X-22.0632 Y25.0323 F24.00 
G01 X-22.1024 Y25.1531 
G01 X-22.1284 Y25.3170 
G01 X-22.1284 Y25.4830 
G01 X-22.1024 Y25.6469 
G01 X-22.0632 Y25.7677 
G01 X-22.1286 Y25.6098 
G01 X-22.1286 Y25.1902 
G00 Z2.5400 
G00 X-21.6714 Y21.9660 
G01 Z-0.1000 F18.00 
G01 X-21.6269 Y21.9475 F24.00 
G01 X-21.6194 Y21.9463 
G01 X-21.5571 Y21.9186 
G01 X-21.5135 Y21.9005 
G01 X-21.6266 Y21.9582 
G01 X-21.7609 Y22.0557 
G01 X-21.8783 Y22.1731 
G01 X-21.9758 Y22.3074 
G01 X-22.0335 Y22.4205 
G01 X-21.9680 Y22.2626 
G01 X-21.6714 Y21.9660 
G00 Z2.5400 
G00 X-22.1286 Y22.6502 
G01 Z-0.1000 F18.00 
G01 X-22.0632 Y22.4923 F24.00 
G01 X-22.1024 Y22.6131 
G01 X-22.1284 Y22.7770 
G01 X-22.1284 Y22.9430 
G01 X-22.1024 Y23.1069 
G01 X-22.0632 Y23.2277 
G01 X-22.1286 Y23.0698 
G01 X-22.1286 Y22.6502 
G00 Z2.5400 
G00 X-19.4830 Y11.6456 
G01 Z-0.1000 F18.00 
G01 X-21.1570 Y11.6456 F24.00 
G01 X-21.3209 Y11.6716 
G01 X-21.4417 Y11.7108 
G01 X-21.2838 Y11.6454 
G01 X-19.3562 Y11.6454 
G01 X-19.1983 Y11.7108 
G01 X-19.3191 Y11.6716 
G01 X-19.4830 Y11.6456 
G00 Z2.5400 
G00 X-21.6266 Y11.7982 
G01 Z-0.1000 F18.00 
G01 X-21.7609 Y11.8957 F24.00 
G01 X-21.8783 Y12.0131 
G01 X-21.9758 Y12.1474 
G01 X-22.0335 Y12.2605 
G01 X-21.9680 Y12.1026 
G01 X-21.6714 Y11.8060 
G01 X-21.5135 Y11.7405 
G01 X-21.6266 Y11.7982 
G00 Z2.5400 
G00 X-22.1024 Y12.4531 
G01 Z-0.1000 F18.00 
G01 X-22.1284 Y12.6170 F24.00 
G01 X-22.1284 Y12.7830 
G01 X-22.1024 Y12.9469 
G01 X-22.0632 Y13.0677 
G01 X-22.1286 Y12.9098 
G01 X-22.1286 Y12.4902 
G01 X-22.0632 Y12.3323 
G01 X-22.1024 Y12.4531 
G00 Z2.5400 
G00 X-21.9758 Y15.7926 
G01 Z-0.1000 F18.00 
G01 X-21.8783 Y15.9269 F24.00 
G01 X-21.7609 Y16.0443 
G01 X-21.6266 Y16.1418 
G01 X-21.4787 Y16.2171 
G01 X-21.3209 Y16.2684 
G01 X-21.1570 Y16.2944 
G01 X-19.4830 Y16.2944 
G01 X-19.3191 Y16.2684 
G01 X-19.1613 Y16.2171 
G01 X-19.0134 Y16.1418 
G01 X-18.8791 Y16.0443 
G01 X-18.7617 Y15.9269 
G01 X-18.6642 Y15.7926 
G01 X-18.6065 Y15.6795 
G01 X-18.6720 Y15.8374 
G01 X-18.8841 Y16.0496 
G01 X-18.9842 Y16.1496 
G01 X-18.9913 Y16.1567 
G01 X-19.0670 Y16.2879 
G01 X-19.1062 Y16.4342 
G01 X-19.1062 Y16.5858 
G01 X-19.0687 Y16.7259 
G01 X-19.0670 Y16.7321 
G01 X-18.9913 Y16.8633 
G01 X-18.8841 Y16.9704 
G01 X-18.6720 Y17.1826 
G01 X-18.6065 Y17.3405 
G01 X-18.6642 Y17.2274 
G01 X-18.7617 Y17.0931 
G01 X-18.8791 Y16.9757 
G01 X-19.0134 Y16.8782 
G01 X-19.1613 Y16.8028 
G01 X-19.3191 Y16.7516 
G01 X-19.4830 Y16.7256 
G01 X-21.1570 Y16.7256 
G01 X-21.3209 Y16.7516 
G01 X-21.4787 Y16.8028 
G01 X-21.6266 Y16.8782 
G01 X-21.7609 Y16.9757 
G01 X-21.8783 Y17.0931 
G01 X-21.9758 Y17.2274 
G01 X-22.0335 Y17.3405 
G01 X-21.9680 Y17.1826 
G01 X-21.6487 Y16.8633 
G01 X-21.5753 Y16.7360 
G01 X-21.5730 Y16.7321 
G01 X-21.5338 Y16.5858 
G01 X-21.5338 Y16.4342 
G01 X-21.5730 Y16.2879 
G01 X-21.6471 Y16.1596 
G01 X-21.6487 Y16.1567 
G01 X-21.7559 Y16.0496 
G01 X-21.9680 Y15.8374 
G01 X-22.0334 Y15.6795 
G01 X-21.9758 Y15.7926 
G00 Z2.5400 
G00 X-22.1024 Y17.5331 
G01 Z-0.1000 F18.00 
G01 X-22.1284 Y17.6970 F24.00 
G01 X-22.1284 Y17.8630 
G01 X-22.1024 Y18.0269 
G01 X-22.0632 Y18.1477 
G01 X-22.1286 Y17.9898 
G01 X-22.1286 Y17.5702 
G01 X-22.0632 Y17.4123 
G01 X-22.1024 Y17.5331 
G00 Z2.5400 
G00 X-21.9758 Y18.3326 
G01 Z-0.1000 F18.00 
G01 X-21.8783 Y18.4669 F24.00 
G01 X-21.7609 Y18.5843 
G01 X-21.6266 Y18.6818 
G01 X-21.5135 Y18.7394 
G01 X-21.5571 Y18.7214 
G01 X-21.6194 Y18.6937 
G01 X-21.6269 Y18.6925 
G01 X-21.6714 Y18.6740 
G01 X-21.9680 Y18.3774 
G01 X-22.0334 Y18.2195 
G01 X-21.9758 Y18.3326 
G00 Z2.5400 
G00 X-21.3209 Y18.8084 
G01 Z-0.1000 F18.00 
G01 X-21.1570 Y18.8344 F24.00 
G01 X-19.4830 Y18.8344 
G01 X-19.3191 Y18.8084 
G01 X-19.1614 Y18.7572 
G01 X-19.2121 Y18.7982 
G01 X-19.2662 Y18.8397 
G01 X-19.2708 Y18.8458 
G01 X-19.2768 Y18.8506 
G01 X-19.3169 Y18.9058 
G01 X-19.3584 Y18.9599 
G01 X-19.3613 Y18.9670 
G01 X-19.3658 Y18.9732 
G01 X-19.3903 Y19.0369 
G01 X-19.4164 Y19.0999 
G01 X-19.4174 Y19.1075 
G01 X-19.4201 Y19.1146 
G01 X-19.4273 Y19.1825 
G01 X-19.4362 Y19.2501 
G01 X-19.4352 Y19.2577 
G01 X-19.4360 Y19.2653 
G01 X-19.4347 Y19.2733 
G01 X-19.4830 Y19.2656 
G01 X-21.1570 Y19.2656 
G01 X-21.2053 Y19.2733 
G01 X-21.2040 Y19.2653 
G01 X-21.2048 Y19.2577 
G01 X-21.2038 Y19.2501 
G01 X-21.2127 Y19.1825 
G01 X-21.2199 Y19.1146 
G01 X-21.2226 Y19.1075 
G01 X-21.2236 Y19.0999 
G01 X-21.2497 Y19.0369 
G01 X-21.2742 Y18.9732 
G01 X-21.2787 Y18.9670 
G01 X-21.2816 Y18.9599 
G01 X-21.3231 Y18.9058 
G01 X-21.3632 Y18.8506 
G01 X-21.3692 Y18.8458 
G01 X-21.3738 Y18.8397 
G01 X-21.4279 Y18.7982 
G01 X-21.4786 Y18.7572 
G01 X-21.3209 Y18.8084 
G00 Z2.5400 
G00 X-22.1024 Y14.9931 
G01 Z-0.1000 F18.00 
G01 X-22.1284 Y15.1570 F24.00 
G01 X-22.1284 Y15.3230 
G01 X-22.1024 Y15.4869 
G01 X-22.0632 Y15.6077 
G01 X-22.1286 Y15.4498 
G01 X-22.1286 Y15.0302 
G01 X-22.0632 Y14.8723 
G01 X-22.1024 Y14.9931 
G00 Z2.5400 
G00 X-21.9758 Y13.2526 
G01 Z-0.1000 F18.00 
G01 X-21.8783 Y13.3869 F24.00 
G01 X-21.7609 Y13.5043 
G01 X-21.6266 Y13.6018 
G01 X-21.4787 Y13.6771 
G01 X-21.3209 Y13.7284 
G01 X-21.1570 Y13.7544 
G01 X-19.4830 Y13.7544 
G01 X-19.3191 Y13.7284 
G01 X-19.1613 Y13.6771 
G01 X-19.0134 Y13.6018 
G01 X-18.8791 Y13.5043 
G01 X-18.7617 Y13.3869 
G01 X-18.6642 Y13.2526 
G01 X-18.6065 Y13.1395 
G01 X-18.6720 Y13.2974 
G01 X-18.8841 Y13.5096 
G01 X-18.9842 Y13.6096 
G01 X-18.9913 Y13.6167 
G01 X-19.0670 Y13.7479 
G01 X-19.1062 Y13.8942 
G01 X-19.1062 Y14.0457 
G01 X-19.0687 Y14.1859 
G01 X-19.0670 Y14.1921 
G01 X-18.9913 Y14.3233 
G01 X-18.8841 Y14.4304 
G01 X-18.6720 Y14.6426 
G01 X-18.6065 Y14.8006 
G01 X-18.6642 Y14.6874 
G01 X-18.7617 Y14.5531 
G01 X-18.8791 Y14.4357 
G01 X-19.0134 Y14.3382 
G01 X-19.1613 Y14.2629 
G01 X-19.3191 Y14.2116 
G01 X-19.4830 Y14.1856 
G01 X-21.1570 Y14.1856 
G01 X-21.3209 Y14.2116 
G01 X-21.4787 Y14.2629 
G01 X-21.6266 Y14.3382 
G01 X-21.7609 Y14.4357 
G01 X-21.8783 Y14.5531 
G01 X-21.9758 Y14.6874 
G01 X-22.0335 Y14.8005 
G01 X-21.9680 Y14.6426 
G01 X-21.6487 Y14.3233 
G01 X-21.5753 Y14.1960 
G01 X-21.5730 Y14.1921 
G01 X-21.5338 Y14.0457 
G01 X-21.5338 Y13.8942 
G01 X-21.5730 Y13.7479 
G01 X-21.6471 Y13.6196 
G01 X-21.6487 Y13.6167 
G01 X-21.7559 Y13.5096 
G01 X-21.9680 Y13.2974 
G01 X-22.0334 Y13.1395 
G01 X-21.9758 Y13.2526 
G00 Z2.5400 
G00 X-18.6720 Y12.1026 
G01 Z-0.1000 F18.00 
G01 X-18.6065 Y12.2606 F24.00 
G01 X-18.6642 Y12.1474 
G01 X-18.7617 Y12.0131 
G01 X-18.8791 Y11.8957 
G01 X-19.0134 Y11.7982 
G01 X-19.1266 Y11.7405 
G01 X-18.9686 Y11.8060 
G01 X-18.6720 Y12.1026 
G00 Z2.5400 
G00 X-18.5114 Y12.9098 
G01 Z-0.1000 F18.00 
G01 X-18.5768 Y13.0677 F24.00 
G01 X-18.5376 Y12.9469 
G01 X-18.5116 Y12.7830 
G01 X-18.5116 Y12.6170 
G01 X-18.5376 Y12.4531 
G01 X-18.5768 Y12.3323 
G01 X-18.5114 Y12.4902 
G01 X-18.5114 Y12.9098 
G00 Z2.5400 
G00 X-34.2086 Y13.5940 
G01 Z-0.1000 F18.00 
G01 X-34.2531 Y13.6125 F24.00 
G01 X-34.2606 Y13.6137 
G01 X-34.3229 Y13.6414 
G01 X-34.3665 Y13.6594 
G01 X-34.2534 Y13.6018 
G01 X-34.1191 Y13.5043 
G01 X-34.0017 Y13.3869 
G01 X-33.9042 Y13.2526 
G01 X-33.8465 Y13.1395 
G01 X-33.9120 Y13.2974 
G01 X-34.2086 Y13.5940 
G00 Z2.5400 
G00 X-33.7514 Y12.9098 
G01 Z-0.1000 F18.00 
G01 X-33.8168 Y13.0677 F24.00 
G01 X-33.7776 Y12.9469 
G01 X-33.7516 Y12.7830 
G01 X-33.7516 Y12.6170 
G01 X-33.7776 Y12.4531 
G01 X-33.8168 Y12.3323 
G01 X-33.7514 Y12.4902 
G01 X-33.7514 Y12.9098 
G00 Z2.5400 
G00 X-33.9120 Y12.1026 
G01 Z-0.1000 F18.00 
G01 X-33.8465 Y12.2605 F24.00 
G01 X-33.9042 Y12.1474 
G01 X-34.0017 Y12.0131 
G01 X-34.1191 Y11.8957 
G01 X-34.2534 Y11.7982 
G01 X-34.3666 Y11.7405 
G01 X-34.2086 Y11.8060 
G01 X-33.9120 Y12.1026 
G00 Z2.5400 
G00 X-36.5609 Y13.7284 
G01 Z-0.1000 F18.00 
G01 X-36.3970 Y13.7544 F24.00 
G01 X-34.7230 Y13.7544 
G01 X-34.5591 Y13.7284 
G01 X-34.4014 Y13.6772 
G01 X-34.4520 Y13.7182 
G01 X-34.5062 Y13.7597 
G01 X-34.5108 Y13.7658 
G01 X-34.5168 Y13.7706 
G01 X-34.5569 Y13.8258 
G01 X-34.5984 Y13.8799 
G01 X-34.6013 Y13.8870 
G01 X-34.6058 Y13.8932 
G01 X-34.6303 Y13.9569 
G01 X-34.6564 Y14.0199 
G01 X-34.6574 Y14.0275 
G01 X-34.6601 Y14.0346 
G01 X-34.6673 Y14.1025 
G01 X-34.6762 Y14.1701 
G01 X-34.6752 Y14.1777 
G01 X-34.6760 Y14.1853 
G01 X-34.6747 Y14.1933 
G01 X-34.7230 Y14.1856 
G01 X-36.3970 Y14.1856 
G01 X-36.4453 Y14.1933 
G01 X-36.4440 Y14.1853 
G01 X-36.4448 Y14.1777 
G01 X-36.4438 Y14.1701 
G01 X-36.4527 Y14.1025 
G01 X-36.4599 Y14.0346 
G01 X-36.4626 Y14.0275 
G01 X-36.4636 Y14.0199 
G01 X-36.4897 Y13.9569 
G01 X-36.5142 Y13.8932 
G01 X-36.5187 Y13.8870 
G01 X-36.5216 Y13.8799 
G01 X-36.5631 Y13.8258 
G01 X-36.6032 Y13.7706 
G01 X-36.6092 Y13.7658 
G01 X-36.6138 Y13.7597 
G01 X-36.6680 Y13.7182 
G01 X-36.7186 Y13.6772 
G01 X-36.5609 Y13.7284 
G00 Z2.5400 
G00 X-37.2158 Y13.2526 
G01 Z-0.1000 F18.00 
G01 X-37.1183 Y13.3869 F24.00 
G01 X-37.0009 Y13.5043 
G01 X-36.8666 Y13.6018 
G01 X-36.7535 Y13.6594 
G01 X-36.7971 Y13.6414 
G01 X-36.8594 Y13.6137 
G01 X-36.8669 Y13.6125 
G01 X-36.9114 Y13.5940 
G01 X-37.2080 Y13.2974 
G01 X-37.2734 Y13.1395 
G01 X-37.2158 Y13.2526 
G00 Z2.5400 
G00 X-36.8666 Y16.8782 
G01 Z-0.1000 F18.00 
G01 X-37.0009 Y16.9757 F24.00 
G01 X-37.1183 Y17.0931 
G01 X-37.2158 Y17.2274 
G01 X-37.2734 Y17.3405 
G01 X-37.2080 Y17.1826 
G01 X-36.9114 Y16.8860 
G01 X-36.8669 Y16.8675 
G01 X-36.8594 Y16.8663 
G01 X-36.7971 Y16.8386 
G01 X-36.7535 Y16.8205 
G01 X-36.8666 Y16.8782 
G00 Z2.5400 
G00 X-37.3424 Y17.5331 
G01 Z-0.1000 F18.00 
G01 X-37.3684 Y17.6970 F24.00 
G01 X-37.3684 Y17.8630 
G01 X-37.3424 Y18.0269 
G01 X-37.3032 Y18.1477 
G01 X-37.3686 Y17.9898 
G01 X-37.3686 Y17.5702 
G01 X-37.3032 Y17.4123 
G01 X-37.3424 Y17.5331 
G00 Z2.5400 
G00 X-37.2158 Y20.8726 
G01 Z-0.1000 F18.00 
G01 X-37.1183 Y21.0069 F24.00 
G01 X-37.0009 Y21.1242 
G01 X-36.8666 Y21.2218 
G01 X-36.7187 Y21.2971 
G01 X-36.5609 Y21.3484 
G01 X-36.3970 Y21.3744 
G01 X-34.7230 Y21.3744 
G01 X-34.5591 Y21.3484 
G01 X-34.4013 Y21.2971 
G01 X-34.2534 Y21.2218 
G01 X-34.1191 Y21.1242 
G01 X-34.0017 Y21.0069 
G01 X-33.9042 Y20.8726 
G01 X-33.8465 Y20.7595 
G01 X-33.9120 Y20.9174 
G01 X-34.2313 Y21.2367 
G01 X-34.3047 Y21.3640 
G01 X-34.3070 Y21.3679 
G01 X-34.3462 Y21.5142 
G01 X-34.3462 Y21.6658 
G01 X-34.3070 Y21.8121 
G01 X-34.2329 Y21.9404 
G01 X-34.2313 Y21.9433 
G01 X-34.1241 Y22.0504 
G01 X-33.9120 Y22.2626 
G01 X-33.8465 Y22.4206 
G01 X-33.9042 Y22.3074 
G01 X-34.0017 Y22.1731 
G01 X-34.1191 Y22.0557 
G01 X-34.2534 Y21.9582 
G01 X-34.4013 Y21.8829 
G01 X-34.5591 Y21.8316 
G01 X-34.7230 Y21.8056 
G01 X-36.3970 Y21.8056 
G01 X-36.5609 Y21.8316 
G01 X-36.7187 Y21.8829 
G01 X-36.8666 Y21.9582 
G01 X-37.0009 Y22.0557 
G01 X-37.1183 Y22.1731 
G01 X-37.2158 Y22.3074 
G01 X-37.2735 Y22.4205 
G01 X-37.2080 Y22.2626 
G01 X-36.9959 Y22.0504 
G01 X-36.8958 Y21.9504 
G01 X-36.8887 Y21.9433 
G01 X-36.8130 Y21.8121 
G01 X-36.7738 Y21.6658 
G01 X-36.7738 Y21.5142 
G01 X-36.8113 Y21.3741 
G01 X-36.8130 Y21.3679 
G01 X-36.8887 Y21.2367 
G01 X-36.9959 Y21.1296 
G01 X-37.2080 Y20.9174 
G01 X-37.2734 Y20.7595 
G01 X-37.2158 Y20.8726 
G00 Z2.5400 
G00 X-37.3424 Y22.6131 
G01 Z-0.1000 F18.00 
G01 X-37.3684 Y22.7770 F24.00 
G01 X-37.3684 Y22.9430 
G01 X-37.3424 Y23.1069 
G01 X-37.3032 Y23.2277 
G01 X-37.3686 Y23.0698 
G01 X-37.3686 Y22.6502 
G01 X-37.3032 Y22.4923 
G01 X-37.3424 Y22.6131 
G00 Z2.5400 
G00 X-37.2158 Y25.9526 
G01 Z-0.1000 F18.00 
G01 X-37.1183 Y26.0869 F24.00 
G01 X-37.0009 Y26.2043 
G01 X-36.8666 Y26.3018 
G01 X-36.7187 Y26.3771 
G01 X-36.5609 Y26.4284 
G01 X-36.3970 Y26.4544 
G01 X-34.7230 Y26.4544 
G01 X-34.5591 Y26.4284 
G01 X-34.4013 Y26.3771 
G01 X-34.2534 Y26.3018 
G01 X-34.1191 Y26.2043 
G01 X-34.0017 Y26.0869 
G01 X-33.9042 Y25.9526 
G01 X-33.8465 Y25.8395 
G01 X-33.9120 Y25.9974 
G01 X-34.1241 Y26.2096 
G01 X-34.2242 Y26.3096 
G01 X-34.2313 Y26.3167 
G01 X-34.3070 Y26.4479 
G01 X-34.3462 Y26.5942 
G01 X-34.3462 Y26.7458 
G01 X-34.3087 Y26.8859 
G01 X-34.3070 Y26.8921 
G01 X-34.2313 Y27.0233 
G01 X-34.1241 Y27.1304 
G01 X-33.9120 Y27.3426 
G01 X-33.8465 Y27.5006 
G01 X-33.9042 Y27.3874 
G01 X-34.0017 Y27.2531 
G01 X-34.1191 Y27.1357 
G01 X-34.2534 Y27.0382 
G01 X-34.4013 Y26.9628 
G01 X-34.5591 Y26.9116 
G01 X-34.7230 Y26.8856 
G01 X-36.3970 Y26.8856 
G01 X-36.5609 Y26.9116 
G01 X-36.7187 Y26.9628 
G01 X-36.8666 Y27.0382 
G01 X-37.0009 Y27.1357 
G01 X-37.1183 Y27.2531 
G01 X-37.2158 Y27.3874 
G01 X-37.2735 Y27.5005 
G01 X-37.2080 Y27.3426 
G01 X-36.8887 Y27.0233 
G01 X-36.8153 Y26.8960 
G01 X-36.8130 Y26.8921 
G01 X-36.7738 Y26.7458 
G01 X-36.7738 Y26.5942 
G01 X-36.8130 Y26.4479 
G01 X-36.8871 Y26.3196 
G01 X-36.8887 Y26.3167 
G01 X-36.9959 Y26.2096 
G01 X-37.2080 Y25.9974 
G01 X-37.2734 Y25.8395 
G01 X-37.2158 Y25.9526 
G00 Z2.5400 
G00 X-37.3424 Y27.6931 
G01 Z-0.1000 F18.00 
G01 X-37.3684 Y27.8570 F24.00 
G01 X-37.3684 Y28.0230 
G01 X-37.3424 Y28.1869 
G01 X-37.3032 Y28.3077 
G01 X-37.3686 Y28.1498 
G01 X-37.3686 Y27.7302 
G01 X-37.3032 Y27.5723 
G01 X-37.3424 Y27.6931 
G00 Z2.5400 
G00 X-37.2158 Y31.0326 
G01 Z-0.1000 F18.00 
G01 X-37.1183 Y31.1669 F24.00 
G01 X-37.0009 Y31.2843 
G01 X-36.8666 Y31.3818 
G01 X-36.7187 Y31.4571 
G01 X-36.5609 Y31.5084 
G01 X-36.3970 Y31.5344 
G01 X-34.7230 Y31.5344 
G01 X-34.5591 Y31.5084 
G01 X-34.4013 Y31.4571 
G01 X-34.2534 Y31.3818 
G01 X-34.1191 Y31.2843 
G01 X-34.0017 Y31.1669 
G01 X-33.9042 Y31.0326 
G01 X-33.8465 Y30.9195 
G01 X-33.9120 Y31.0774 
G01 X-34.2313 Y31.3967 
G01 X-34.3047 Y31.5240 
G01 X-34.3070 Y31.5279 
G01 X-34.3462 Y31.6742 
G01 X-34.3462 Y31.8258 
G01 X-34.3070 Y31.9721 
G01 X-34.2329 Y32.1004 
G01 X-34.2313 Y32.1033 
G01 X-34.1241 Y32.2104 
G01 X-33.9120 Y32.4226 
G01 X-33.8465 Y32.5806 
G01 X-33.9042 Y32.4674 
G01 X-34.0017 Y32.3331 
G01 X-34.1191 Y32.2157 
G01 X-34.2534 Y32.1182 
G01 X-34.4013 Y32.0429 
G01 X-34.5591 Y31.9916 
G01 X-34.7230 Y31.9656 
G01 X-36.3970 Y31.9656 
G01 X-36.5609 Y31.9916 
G01 X-36.7187 Y32.0429 
G01 X-36.8666 Y32.1182 
G01 X-37.0009 Y32.2157 
G01 X-37.1183 Y32.3331 
G01 X-37.2158 Y32.4674 
G01 X-37.2735 Y32.5805 
G01 X-37.2080 Y32.4226 
G01 X-36.9959 Y32.2104 
G01 X-36.8958 Y32.1104 
G01 X-36.8887 Y32.1033 
G01 X-36.8130 Y31.9721 
G01 X-36.7738 Y31.8258 
G01 X-36.7738 Y31.6742 
G01 X-36.8113 Y31.5341 
G01 X-36.8130 Y31.5279 
G01 X-36.8887 Y31.3967 
G01 X-36.9959 Y31.2896 
G01 X-37.2080 Y31.0774 
G01 X-37.2734 Y30.9195 
G01 X-37.2158 Y31.0326 
G00 Z2.5400 
G00 X-37.3424 Y32.7731 
G01 Z-0.1000 F18.00 
G01 X-37.3684 Y32.9370 F24.00 
G01 X-37.3684 Y33.1030 
G01 X-37.3424 Y33.2669 
G01 X-37.3032 Y33.3877 
G01 X-37.3686 Y33.2298 
G01 X-37.3686 Y32.8102 
G01 X-37.3032 Y32.6523 
G01 X-37.3424 Y32.7731 
G00 Z2.5400 
G00 X-37.2158 Y36.1126 
G01 Z-0.1000 F18.00 
G01 X-37.1183 Y36.2469 F24.00 
G01 X-37.0009 Y36.3642 
G01 X-36.8666 Y36.4618 
G01 X-36.7187 Y36.5371 
G01 X-36.5609 Y36.5884 
G01 X-36.3970 Y36.6144 
G01 X-34.7230 Y36.6144 
G01 X-34.5591 Y36.5884 
G01 X-34.4013 Y36.5371 
G01 X-34.2534 Y36.4618 
G01 X-34.1191 Y36.3642 
G01 X-34.0017 Y36.2469 
G01 X-33.9042 Y36.1126 
G01 X-33.8465 Y35.9995 
G01 X-33.9120 Y36.1574 
G01 X-34.2313 Y36.4767 
G01 X-34.3047 Y36.6040 
G01 X-34.3070 Y36.6079 
G01 X-34.3462 Y36.7542 
G01 X-34.3462 Y36.9058 
G01 X-34.3070 Y37.0521 
G01 X-34.2329 Y37.1804 
G01 X-34.2313 Y37.1833 
G01 X-34.1241 Y37.2904 
G01 X-33.9120 Y37.5026 
G01 X-33.8465 Y37.6606 
G01 X-33.9042 Y37.5474 
G01 X-34.0017 Y37.4131 
G01 X-34.1191 Y37.2957 
G01 X-34.2534 Y37.1982 
G01 X-34.4013 Y37.1228 
G01 X-34.5591 Y37.0716 
G01 X-34.7230 Y37.0456 
G01 X-36.3970 Y37.0456 
G01 X-36.5609 Y37.0716 
G01 X-36.7187 Y37.1228 
G01 X-36.8666 Y37.1982 
G01 X-37.0009 Y37.2957 
G01 X-37.1183 Y37.4131 
G01 X-37.2158 Y37.5474 
G01 X-37.2735 Y37.6605 
G01 X-37.2080 Y37.5026 
G01 X-36.9959 Y37.2904 
G01 X-36.8958 Y37.1904 
G01 X-36.8887 Y37.1833 
G01 X-36.8130 Y37.0521 
G01 X-36.7738 Y36.9058 
G01 X-36.7738 Y36.7542 
G01 X-36.8113 Y36.6141 
G01 X-36.8130 Y36.6079 
G01 X-36.8887 Y36.4767 
G01 X-36.9959 Y36.3696 
G01 X-37.2080 Y36.1574 
G01 X-37.2734 Y35.9995 
G01 X-37.2158 Y36.1126 
G00 Z2.5400 
G00 X-37.3424 Y37.8531 
G01 Z-0.1000 F18.00 
G01 X-37.3684 Y38.0170 F24.00 
G01 X-37.3684 Y38.1830 
G01 X-37.3424 Y38.3469 
G01 X-37.3032 Y38.4677 
G01 X-37.3686 Y38.3098 
G01 X-37.3686 Y37.8902 
G01 X-37.3032 Y37.7323 
G01 X-37.3424 Y37.8531 
G00 Z2.5400 
G00 X-37.2158 Y41.1926 
G01 Z-0.1000 F18.00 
G01 X-37.1183 Y41.3269 F24.00 
G01 X-37.0009 Y41.4443 
G01 X-36.8666 Y41.5418 
G01 X-36.7187 Y41.6171 
G01 X-36.5609 Y41.6684 
G01 X-36.3970 Y41.6944 
G01 X-34.7230 Y41.6944 
G01 X-34.5591 Y41.6684 
G01 X-34.4013 Y41.6171 
G01 X-34.2534 Y41.5418 
G01 X-34.1191 Y41.4443 
G01 X-34.0017 Y41.3269 
G01 X-33.9042 Y41.1926 
G01 X-33.8465 Y41.0795 
G01 X-33.9120 Y41.2374 
G01 X-34.2313 Y41.5567 
G01 X-34.3047 Y41.6840 
G01 X-34.3070 Y41.6879 
G01 X-34.3462 Y41.8342 
G01 X-34.3462 Y41.9858 
G01 X-34.3070 Y42.1321 
G01 X-34.2329 Y42.2604 
G01 X-34.2313 Y42.2633 
G01 X-34.1241 Y42.3704 
G01 X-33.9120 Y42.5826 
G01 X-33.8465 Y42.7406 
G01 X-33.9042 Y42.6274 
G01 X-34.0017 Y42.4931 
G01 X-34.1191 Y42.3757 
G01 X-34.2534 Y42.2782 
G01 X-34.4013 Y42.2029 
G01 X-34.5591 Y42.1516 
G01 X-34.7230 Y42.1256 
G01 X-36.3970 Y42.1256 
G01 X-36.5609 Y42.1516 
G01 X-36.7187 Y42.2029 
G01 X-36.8666 Y42.2782 
G01 X-37.0009 Y42.3757 
G01 X-37.1183 Y42.4931 
G01 X-37.2158 Y42.6274 
G01 X-37.2735 Y42.7405 
G01 X-37.2080 Y42.5826 
G01 X-36.9959 Y42.3704 
G01 X-36.8958 Y42.2704 
G01 X-36.8887 Y42.2633 
G01 X-36.8130 Y42.1321 
G01 X-36.7738 Y41.9858 
G01 X-36.7738 Y41.8342 
G01 X-36.8113 Y41.6941 
G01 X-36.8130 Y41.6879 
G01 X-36.8887 Y41.5567 
G01 X-36.9959 Y41.4496 
G01 X-37.2080 Y41.2374 
G01 X-37.2734 Y41.0795 
G01 X-37.2158 Y41.1926 
G00 Z2.5400 
G00 X-37.3424 Y42.9331 
G01 Z-0.1000 F18.00 
G01 X-37.3684 Y43.0970 F24.00 
G01 X-37.3684 Y43.2630 
G01 X-37.3424 Y43.4269 
G01 X-37.3032 Y43.5477 
G01 X-37.3686 Y43.3898 
G01 X-37.3686 Y42.9702 
G01 X-37.3032 Y42.8123 
G01 X-37.3424 Y42.9331 
G00 Z2.5400 
G00 X-18.5114 Y15.4498 
G01 Z-0.1000 F18.00 
G01 X-18.5768 Y15.6077 F24.00 
G01 X-18.5376 Y15.4869 
G01 X-18.5116 Y15.3230 
G01 X-18.5116 Y15.1570 
G01 X-18.5376 Y14.9931 
G01 X-18.5768 Y14.8723 
G01 X-18.5114 Y15.0302 
G01 X-18.5114 Y15.4498 
G00 Z2.5400 
G00 X-18.5114 Y17.9898 
G01 Z-0.1000 F18.00 
G01 X-18.5768 Y18.1477 F24.00 
G01 X-18.5376 Y18.0269 
G01 X-18.5116 Y17.8630 
G01 X-18.5116 Y17.6970 
G01 X-18.5376 Y17.5331 
G01 X-18.5768 Y17.4123 
G01 X-18.5114 Y17.5702 
G01 X-18.5114 Y17.9898 
G00 Z2.5400 
G00 X-18.9686 Y18.6740 
G01 Z-0.1000 F18.00 
G01 X-19.0131 Y18.6925 F24.00 
G01 X-19.0206 Y18.6937 
G01 X-19.0829 Y18.7214 
G01 X-19.1265 Y18.7394 
G01 X-19.0134 Y18.6818 
G01 X-18.8791 Y18.5843 
G01 X-18.7617 Y18.4669 
G01 X-18.6642 Y18.3326 
G01 X-18.6065 Y18.2195 
G01 X-18.6720 Y18.3774 
G01 X-18.9686 Y18.6740 
G00 Z2.5400 
G00 X-37.2158 Y46.2726 
G01 Z-0.1000 F18.00 
G01 X-37.1183 Y46.4069 F24.00 
G01 X-37.0009 Y46.5243 
G01 X-36.8666 Y46.6218 
G01 X-36.7187 Y46.6971 
G01 X-36.5609 Y46.7484 
G01 X-36.3970 Y46.7744 
G01 X-34.7230 Y46.7744 
G01 X-34.5591 Y46.7484 
G01 X-34.4013 Y46.6971 
G01 X-34.2534 Y46.6218 
G01 X-34.1191 Y46.5243 
G01 X-34.0017 Y46.4069 
G01 X-33.9042 Y46.2726 
G01 X-33.8465 Y46.1595 
G01 X-33.9120 Y46.3174 
G01 X-34.2313 Y46.6367 
G01 X-34.3047 Y46.7640 
G01 X-34.3070 Y46.7679 
G01 X-34.3462 Y46.9142 
G01 X-34.3462 Y47.0658 
G01 X-34.3070 Y47.2121 
G01 X-34.2329 Y47.3404 
G01 X-34.2313 Y47.3433 
G01 X-34.1241 Y47.4504 
G01 X-33.9120 Y47.6626 
G01 X-33.8465 Y47.8206 
G01 X-33.9042 Y47.7074 
G01 X-34.0017 Y47.5731 
G01 X-34.1191 Y47.4557 
G01 X-34.2534 Y47.3582 
G01 X-34.4013 Y47.2829 
G01 X-34.5591 Y47.2316 
G01 X-34.7230 Y47.2056 
G01 X-36.3970 Y47.2056 
G01 X-36.5609 Y47.2316 
G01 X-36.7187 Y47.2829 
G01 X-36.8666 Y47.3582 
G01 X-37.0009 Y47.4557 
G01 X-37.1183 Y47.5731 
G01 X-37.2158 Y47.7074 
G01 X-37.2735 Y47.8205 
G01 X-37.2080 Y47.6626 
G01 X-36.9959 Y47.4504 
G01 X-36.8958 Y47.3504 
G01 X-36.8887 Y47.3433 
G01 X-36.8130 Y47.2121 
G01 X-36.7738 Y47.0658 
G01 X-36.7738 Y46.9142 
G01 X-36.8113 Y46.7741 
G01 X-36.8130 Y46.7679 
G01 X-36.8887 Y46.6367 
G01 X-36.9959 Y46.5296 
G01 X-37.2080 Y46.3174 
G01 X-37.2734 Y46.1595 
G01 X-37.2158 Y46.2726 
G00 Z2.5400 
G00 X-37.3424 Y45.4731 
G01 Z-0.1000 F18.00 
G01 X-37.3684 Y45.6370 F24.00 
G01 X-37.3684 Y45.8030 
G01 X-37.3424 Y45.9669 
G01 X-37.3032 Y46.0877 
G01 X-37.3686 Y45.9298 
G01 X-37.3686 Y45.5102 
G01 X-37.3032 Y45.3523 
G01 X-37.3424 Y45.4731 
G00 Z2.5400 
G00 X-37.2158 Y43.7326 
G01 Z-0.1000 F18.00 
G01 X-37.1183 Y43.8669 F24.00 
G01 X-37.0009 Y43.9843 
G01 X-36.8666 Y44.0818 
G01 X-36.7187 Y44.1571 
G01 X-36.5609 Y44.2084 
G01 X-36.3970 Y44.2344 
G01 X-34.7230 Y44.2344 
G01 X-34.5591 Y44.2084 
G01 X-34.4013 Y44.1571 
G01 X-34.2534 Y44.0818 
G01 X-34.1191 Y43.9843 
G01 X-34.0017 Y43.8669 
G01 X-33.9042 Y43.7326 
G01 X-33.8465 Y43.6195 
G01 X-33.9120 Y43.7774 
G01 X-34.2313 Y44.0967 
G01 X-34.3047 Y44.2240 
G01 X-34.3070 Y44.2279 
G01 X-34.3462 Y44.3742 
G01 X-34.3462 Y44.5258 
G01 X-34.3070 Y44.6721 
G01 X-34.2329 Y44.8004 
G01 X-34.2313 Y44.8033 
G01 X-34.1241 Y44.9104 
G01 X-33.9120 Y45.1226 
G01 X-33.8465 Y45.2806 
G01 X-33.9042 Y45.1674 
G01 X-34.0017 Y45.0331 
G01 X-34.1191 Y44.9157 
G01 X-34.2534 Y44.8182 
G01 X-34.4013 Y44.7429 
G01 X-34.5591 Y44.6916 
G01 X-34.7230 Y44.6656 
G01 X-36.3970 Y44.6656 
G01 X-36.5609 Y44.6916 
G01 X-36.7187 Y44.7429 
G01 X-36.8666 Y44.8182 
G01 X-37.0009 Y44.9157 
G01 X-37.1183 Y45.0331 
G01 X-37.2158 Y45.1674 
G01 X-37.2735 Y45.2805 
G01 X-37.2080 Y45.1226 
G01 X-36.9959 Y44.9104 
G01 X-36.8958 Y44.8104 
G01 X-36.8887 Y44.8033 
G01 X-36.8130 Y44.6721 
G01 X-36.7738 Y44.5258 
G01 X-36.7738 Y44.3742 
G01 X-36.8113 Y44.2341 
G01 X-36.8130 Y44.2279 
G01 X-36.8887 Y44.0967 
G01 X-36.9959 Y43.9896 
G01 X-37.2080 Y43.7774 
G01 X-37.2734 Y43.6195 
G01 X-37.2158 Y43.7326 
G00 Z2.5400 
G00 X-37.3424 Y40.3931 
G01 Z-0.1000 F18.00 
G01 X-37.3684 Y40.5570 F24.00 
G01 X-37.3684 Y40.7230 
G01 X-37.3424 Y40.8869 
G01 X-37.3032 Y41.0077 
G01 X-37.3686 Y40.8498 
G01 X-37.3686 Y40.4302 
G01 X-37.3032 Y40.2723 
G01 X-37.3424 Y40.3931 
G00 Z2.5400 
G00 X-37.2158 Y38.6526 
G01 Z-0.1000 F18.00 
G01 X-37.1183 Y38.7869 F24.00 
G01 X-37.0009 Y38.9043 
G01 X-36.8666 Y39.0018 
G01 X-36.7187 Y39.0771 
G01 X-36.5609 Y39.1284 
G01 X-36.3970 Y39.1544 
G01 X-34.7230 Y39.1544 
G01 X-34.5591 Y39.1284 
G01 X-34.4013 Y39.0771 
G01 X-34.2534 Y39.0018 
G01 X-34.1191 Y38.9043 
G01 X-34.0017 Y38.7869 
G01 X-33.9042 Y38.6526 
G01 X-33.8465 Y38.5395 
G01 X-33.9120 Y38.6974 
G01 X-34.2313 Y39.0167 
G01 X-34.3047 Y39.1440 
G01 X-34.3070 Y39.1479 
G01 X-34.3462 Y39.2942 
G01 X-34.3462 Y39.4458 
G01 X-34.3070 Y39.5921 
G01 X-34.2329 Y39.7204 
G01 X-34.2313 Y39.7233 
G01 X-34.1241 Y39.8304 
G01 X-33.9120 Y40.0426 
G01 X-33.8465 Y40.2006 
G01 X-33.9042 Y40.0874 
G01 X-34.0017 Y39.9531 
G01 X-34.1191 Y39.8357 
G01 X-34.2534 Y39.7382 
G01 X-34.4013 Y39.6628 
G01 X-34.5591 Y39.6116 
G01 X-34.7230 Y39.5856 
G01 X-36.3970 Y39.5856 
G01 X-36.5609 Y39.6116 
G01 X-36.7187 Y39.6628 
G01 X-36.8666 Y39.7382 
G01 X-37.0009 Y39.8357 
G01 X-37.1183 Y39.9531 
G01 X-37.2158 Y40.0874 
G01 X-37.2735 Y40.2005 
G01 X-37.2080 Y40.0426 
G01 X-36.9959 Y39.8304 
G01 X-36.8887 Y39.7233 
G01 X-36.8303 Y39.6221 
G01 X-36.8130 Y39.5921 
G01 X-36.7738 Y39.4458 
G01 X-36.7738 Y39.2942 
G01 X-36.8130 Y39.1479 
G01 X-36.8887 Y39.0167 
G01 X-37.2080 Y38.6974 
G01 X-37.2734 Y38.5395 
G01 X-37.2158 Y38.6526 
G00 Z2.5400 
G00 X-37.3424 Y35.3131 
G01 Z-0.1000 F18.00 
G01 X-37.3684 Y35.4770 F24.00 
G01 X-37.3684 Y35.6430 
G01 X-37.3424 Y35.8069 
G01 X-37.3032 Y35.9277 
G01 X-37.3686 Y35.7698 
G01 X-37.3686 Y35.3502 
G01 X-37.3032 Y35.1923 
G01 X-37.3424 Y35.3131 
G00 Z2.5400 
G00 X-37.2158 Y33.5726 
G01 Z-0.1000 F18.00 
G01 X-37.1183 Y33.7069 F24.00 
G01 X-37.0009 Y33.8242 
G01 X-36.8666 Y33.9218 
G01 X-36.7187 Y33.9971 
G01 X-36.5609 Y34.0484 
G01 X-36.3970 Y34.0744 
G01 X-34.7230 Y34.0744 
G01 X-34.5591 Y34.0484 
G01 X-34.4013 Y33.9971 
G01 X-34.2534 Y33.9218 
G01 X-34.1191 Y33.8242 
G01 X-34.0017 Y33.7069 
G01 X-33.9042 Y33.5726 
G01 X-33.8465 Y33.4595 
G01 X-33.9120 Y33.6174 
G01 X-34.2313 Y33.9367 
G01 X-34.3047 Y34.0640 
G01 X-34.3070 Y34.0679 
G01 X-34.3462 Y34.2142 
G01 X-34.3462 Y34.3658 
G01 X-34.3070 Y34.5121 
G01 X-34.2329 Y34.6404 
G01 X-34.2313 Y34.6433 
G01 X-34.1241 Y34.7504 
G01 X-33.9120 Y34.9626 
G01 X-33.8465 Y35.1206 
G01 X-33.9042 Y35.0074 
G01 X-34.0017 Y34.8731 
G01 X-34.1191 Y34.7557 
G01 X-34.2534 Y34.6582 
G01 X-34.4013 Y34.5829 
G01 X-34.5591 Y34.5316 
G01 X-34.7230 Y34.5056 
G01 X-36.3970 Y34.5056 
G01 X-36.5609 Y34.5316 
G01 X-36.7187 Y34.5829 
G01 X-36.8666 Y34.6582 
G01 X-37.0009 Y34.7557 
G01 X-37.1183 Y34.8731 
G01 X-37.2158 Y35.0074 
G01 X-37.2735 Y35.1205 
G01 X-37.2080 Y34.9626 
G01 X-36.9959 Y34.7504 
G01 X-36.8958 Y34.6504 
G01 X-36.8887 Y34.6433 
G01 X-36.8130 Y34.5121 
G01 X-36.7738 Y34.3658 
G01 X-36.7738 Y34.2142 
G01 X-36.8113 Y34.0741 
G01 X-36.8130 Y34.0679 
G01 X-36.8887 Y33.9367 
G01 X-36.9959 Y33.8296 
G01 X-37.2080 Y33.6174 
G01 X-37.2734 Y33.4595 
G01 X-37.2158 Y33.5726 
G00 Z2.5400 
G00 X-37.3424 Y30.2331 
G01 Z-0.1000 F18.00 
G01 X-37.3684 Y30.3970 F24.00 
G01 X-37.3684 Y30.5630 
G01 X-37.3424 Y30.7269 
G01 X-37.3032 Y30.8477 
G01 X-37.3686 Y30.6898 
G01 X-37.3686 Y30.2702 
G01 X-37.3032 Y30.1123 
G01 X-37.3424 Y30.2331 
G00 Z2.5400 
G00 X-37.2158 Y28.4926 
G01 Z-0.1000 F18.00 
G01 X-37.1183 Y28.6269 F24.00 
G01 X-37.0009 Y28.7443 
G01 X-36.8666 Y28.8418 
G01 X-36.7187 Y28.9171 
G01 X-36.5609 Y28.9684 
G01 X-36.3970 Y28.9944 
G01 X-34.7230 Y28.9944 
G01 X-34.5591 Y28.9684 
G01 X-34.4013 Y28.9171 
G01 X-34.2534 Y28.8418 
G01 X-34.1191 Y28.7443 
G01 X-34.0017 Y28.6269 
G01 X-33.9042 Y28.4926 
G01 X-33.8465 Y28.3795 
G01 X-33.9120 Y28.5374 
G01 X-34.2313 Y28.8567 
G01 X-34.3047 Y28.9840 
G01 X-34.3070 Y28.9879 
G01 X-34.3462 Y29.1342 
G01 X-34.3462 Y29.2858 
G01 X-34.3070 Y29.4321 
G01 X-34.2329 Y29.5604 
G01 X-34.2313 Y29.5633 
G01 X-34.1241 Y29.6704 
G01 X-33.9120 Y29.8826 
G01 X-33.8465 Y30.0406 
G01 X-33.9042 Y29.9274 
G01 X-34.0017 Y29.7931 
G01 X-34.1191 Y29.6757 
G01 X-34.2534 Y29.5782 
G01 X-34.4013 Y29.5029 
G01 X-34.5591 Y29.4516 
G01 X-34.7230 Y29.4256 
G01 X-36.3970 Y29.4256 
G01 X-36.5609 Y29.4516 
G01 X-36.7187 Y29.5029 
G01 X-36.8666 Y29.5782 
G01 X-37.0009 Y29.6757 
G01 X-37.1183 Y29.7931 
G01 X-37.2158 Y29.9274 
G01 X-37.2735 Y30.0405 
G01 X-37.2080 Y29.8826 
G01 X-36.9959 Y29.6704 
G01 X-36.8958 Y29.5704 
G01 X-36.8887 Y29.5633 
G01 X-36.8130 Y29.4321 
G01 X-36.7738 Y29.2858 
G01 X-36.7738 Y29.1342 
G01 X-36.8113 Y28.9941 
G01 X-36.8130 Y28.9879 
G01 X-36.8887 Y28.8567 
G01 X-36.9959 Y28.7496 
G01 X-37.2080 Y28.5374 
G01 X-37.2734 Y28.3795 
G01 X-37.2158 Y28.4926 
G00 Z2.5400 
G00 X-37.3424 Y25.1531 
G01 Z-0.1000 F18.00 
G01 X-37.3684 Y25.3170 F24.00 
G01 X-37.3684 Y25.4830 
G01 X-37.3424 Y25.6469 
G01 X-37.3032 Y25.7677 
G01 X-37.3686 Y25.6098 
G01 X-37.3686 Y25.1902 
G01 X-37.3032 Y25.0323 
G01 X-37.3424 Y25.1531 
G00 Z2.5400 
G00 X-37.2158 Y23.4126 
G01 Z-0.1000 F18.00 
G01 X-37.1183 Y23.5469 F24.00 
G01 X-37.0009 Y23.6643 
G01 X-36.8666 Y23.7618 
G01 X-36.7187 Y23.8371 
G01 X-36.5609 Y23.8884 
G01 X-36.3970 Y23.9144 
G01 X-34.7230 Y23.9144 
G01 X-34.5591 Y23.8884 
G01 X-34.4013 Y23.8371 
G01 X-34.2534 Y23.7618 
G01 X-34.1191 Y23.6643 
G01 X-34.0017 Y23.5469 
G01 X-33.9042 Y23.4126 
G01 X-33.8465 Y23.2995 
G01 X-33.9120 Y23.4574 
G01 X-34.2313 Y23.7767 
G01 X-34.3047 Y23.9040 
G01 X-34.3070 Y23.9079 
G01 X-34.3462 Y24.0542 
G01 X-34.3462 Y24.2058 
G01 X-34.3070 Y24.3521 
G01 X-34.2329 Y24.4804 
G01 X-34.2313 Y24.4833 
G01 X-34.1241 Y24.5904 
G01 X-33.9120 Y24.8026 
G01 X-33.8465 Y24.9606 
G01 X-33.9042 Y24.8474 
G01 X-34.0017 Y24.7131 
G01 X-34.1191 Y24.5957 
G01 X-34.2534 Y24.4982 
G01 X-34.4013 Y24.4229 
G01 X-34.5591 Y24.3716 
G01 X-34.7230 Y24.3456 
G01 X-36.3970 Y24.3456 
G01 X-36.5609 Y24.3716 
G01 X-36.7187 Y24.4229 
G01 X-36.8666 Y24.4982 
G01 X-37.0009 Y24.5957 
G01 X-37.1183 Y24.7131 
G01 X-37.2158 Y24.8474 
G01 X-37.2735 Y24.9605 
G01 X-37.2080 Y24.8026 
G01 X-36.9959 Y24.5904 
G01 X-36.8958 Y24.4904 
G01 X-36.8887 Y24.4833 
G01 X-36.8130 Y24.3521 
G01 X-36.7738 Y24.2058 
G01 X-36.7738 Y24.0542 
G01 X-36.8113 Y23.9141 
G01 X-36.8130 Y23.9079 
G01 X-36.8887 Y23.7767 
G01 X-36.9959 Y23.6696 
G01 X-37.2080 Y23.4574 
G01 X-37.2734 Y23.2995 
G01 X-37.2158 Y23.4126 
G00 Z2.5400 
G00 X-37.3424 Y20.0731 
G01 Z-0.1000 F18.00 
G01 X-37.3684 Y20.2370 F24.00 
G01 X-37.3684 Y20.4030 
G01 X-37.3424 Y20.5669 
G01 X-37.3032 Y20.6877 
G01 X-37.3686 Y20.5298 
G01 X-37.3686 Y20.1102 
G01 X-37.3032 Y19.9523 
G01 X-37.3424 Y20.0731 
G00 Z2.5400 
G00 X-37.2158 Y18.3326 
G01 Z-0.1000 F18.00 
G01 X-37.1183 Y18.4669 F24.00 
G01 X-37.0009 Y18.5843 
G01 X-36.8666 Y18.6818 
G01 X-36.7187 Y18.7571 
G01 X-36.5609 Y18.8084 
G01 X-36.3970 Y18.8344 
G01 X-34.7230 Y18.8344 
G01 X-34.5591 Y18.8084 
G01 X-34.4013 Y18.7571 
G01 X-34.2534 Y18.6818 
G01 X-34.1191 Y18.5843 
G01 X-34.0017 Y18.4669 
G01 X-33.9042 Y18.3326 
G01 X-33.8465 Y18.2195 
G01 X-33.9120 Y18.3774 
G01 X-34.2313 Y18.6967 
G01 X-34.3047 Y18.8240 
G01 X-34.3070 Y18.8279 
G01 X-34.3462 Y18.9742 
G01 X-34.3462 Y19.1258 
G01 X-34.3070 Y19.2721 
G01 X-34.2329 Y19.4004 
G01 X-34.2313 Y19.4033 
G01 X-34.1241 Y19.5104 
G01 X-33.9120 Y19.7226 
G01 X-33.8465 Y19.8806 
G01 X-33.9042 Y19.7674 
G01 X-34.0017 Y19.6331 
G01 X-34.1191 Y19.5157 
G01 X-34.2534 Y19.4182 
G01 X-34.4013 Y19.3429 
G01 X-34.5591 Y19.2916 
G01 X-34.7230 Y19.2656 
G01 X-36.3970 Y19.2656 
G01 X-36.5609 Y19.2916 
G01 X-36.7187 Y19.3429 
G01 X-36.8666 Y19.4182 
G01 X-37.0009 Y19.5157 
G01 X-37.1183 Y19.6331 
G01 X-37.2158 Y19.7674 
G01 X-37.2734 Y19.8805 
G01 X-37.2080 Y19.7226 
G01 X-36.9959 Y19.5104 
G01 X-36.8958 Y19.4104 
G01 X-36.8887 Y19.4033 
G01 X-36.8130 Y19.2721 
G01 X-36.7738 Y19.1258 
G01 X-36.7738 Y18.9742 
G01 X-36.8113 Y18.8341 
G01 X-36.8130 Y18.8279 
G01 X-36.8887 Y18.6967 
G01 X-36.9959 Y18.5896 
G01 X-37.2080 Y18.3774 
G01 X-37.2734 Y18.2195 
G01 X-37.2158 Y18.3326 
G00 Z2.5400 
G00 X-36.3970 Y16.2944 
G01 Z-0.1000 F18.00 
G01 X-34.7230 Y16.2944 F24.00 
G01 X-34.6747 Y16.2867 
G01 X-34.6760 Y16.2947 
G01 X-34.6752 Y16.3023 
G01 X-34.6762 Y16.3099 
G01 X-34.6673 Y16.3775 
G01 X-34.6601 Y16.4454 
G01 X-34.6574 Y16.4525 
G01 X-34.6564 Y16.4601 
G01 X-34.6303 Y16.5231 
G01 X-34.6058 Y16.5868 
G01 X-34.6013 Y16.5930 
G01 X-34.5984 Y16.6001 
G01 X-34.5569 Y16.6542 
G01 X-34.5168 Y16.7094 
G01 X-34.5108 Y16.7142 
G01 X-34.5062 Y16.7203 
G01 X-34.4520 Y16.7618 
G01 X-34.4014 Y16.8028 
G01 X-34.5591 Y16.7516 
G01 X-34.7230 Y16.7256 
G01 X-36.3970 Y16.7256 
G01 X-36.5609 Y16.7516 
G01 X-36.7186 Y16.8028 
G01 X-36.6680 Y16.7618 
G01 X-36.6138 Y16.7203 
G01 X-36.6092 Y16.7142 
G01 X-36.6032 Y16.7094 
G01 X-36.5631 Y16.6542 
G01 X-36.5216 Y16.6001 
G01 X-36.5187 Y16.5930 
G01 X-36.5142 Y16.5868 
G01 X-36.4897 Y16.5231 
G01 X-36.4636 Y16.4601 
G01 X-36.4626 Y16.4525 
G01 X-36.4599 Y16.4454 
G01 X-36.4527 Y16.3775 
G01 X-36.4438 Y16.3099 
G01 X-36.4448 Y16.3023 
G01 X-36.4440 Y16.2947 
G01 X-36.4453 Y16.2867 
G01 X-36.3970 Y16.2944 
G00 Z2.5400 
G00 X-37.3424 Y12.4531 
G01 Z-0.1000 F18.00 
G01 X-37.3684 Y12.6170 F24.00 
G01 X-37.3684 Y12.7830 
G01 X-37.3424 Y12.9469 
G01 X-37.3032 Y13.0677 
G01 X-37.3686 Y12.9098 
G01 X-37.3686 Y12.4902 
G01 X-37.3032 Y12.3323 
G01 X-37.3424 Y12.4531 
G00 Z2.5400 
G00 X-36.8666 Y11.7982 
G01 Z-0.1000 F18.00 
G01 X-37.0009 Y11.8957 F24.00 
G01 X-37.1183 Y12.0131 
G01 X-37.2158 Y12.1474 
G01 X-37.2735 Y12.2605 
G01 X-37.2080 Y12.1026 
G01 X-36.9114 Y11.8060 
G01 X-36.7535 Y11.7405 
G01 X-36.8666 Y11.7982 
G00 Z2.5400 
G00 X-34.7230 Y11.6456 
G01 Z-0.1000 F18.00 
G01 X-36.3970 Y11.6456 F24.00 
G01 X-36.5609 Y11.6716 
G01 X-36.6817 Y11.7108 
G01 X-36.5238 Y11.6454 
G01 X-34.5962 Y11.6454 
G01 X-34.4383 Y11.7108 
G01 X-34.5591 Y11.6716 
G01 X-34.7230 Y11.6456 
G00 Z2.5400 
G00 X-33.9120 Y17.1826 
G01 Z-0.1000 F18.00 
G01 X-33.8465 Y17.3406 F24.00 
G01 X-33.9042 Y17.2274 
G01 X-34.0017 Y17.0931 
G01 X-34.1191 Y16.9757 
G01 X-34.2534 Y16.8782 
G01 X-34.3666 Y16.8205 
G01 X-34.3229 Y16.8386 
G01 X-34.2606 Y16.8663 
G01 X-34.2531 Y16.8675 
G01 X-34.2086 Y16.8860 
G01 X-33.9120 Y17.1826 
G00 Z2.5400 
G00 X-33.7514 Y17.9898 
G01 Z-0.1000 F18.00 
G01 X-33.8168 Y18.1477 F24.00 
G01 X-33.7776 Y18.0269 
G01 X-33.7516 Y17.8630 
G01 X-33.7516 Y17.6970 
G01 X-33.7776 Y17.5331 
G01 X-33.8168 Y17.4123 
G01 X-33.7514 Y17.5702 
G01 X-33.7514 Y17.9898 
G00 Z2.5400 
G00 X-33.7514 Y20.5298 
G01 Z-0.1000 F18.00 
G01 X-33.8168 Y20.6877 F24.00 
G01 X-33.7776 Y20.5669 
G01 X-33.7516 Y20.4030 
G01 X-33.7516 Y20.2370 
G01 X-33.7776 Y20.0731 
G01 X-33.8168 Y19.9523 
G01 X-33.7514 Y20.1102 
G01 X-33.7514 Y20.5298 
G00 Z2.5400 
G00 X-33.7514 Y23.0698 
G01 Z-0.1000 F18.00 
G01 X-33.8168 Y23.2277 F24.00 
G01 X-33.7776 Y23.1069 
G01 X-33.7516 Y22.9430 
G01 X-33.7516 Y22.7770 
G01 X-33.7776 Y22.6131 
G01 X-33.8168 Y22.4923 
G01 X-33.7514 Y22.6502 
G01 X-33.7514 Y23.0698 
G00 Z2.5400 
G00 X-33.7514 Y25.6098 
G01 Z-0.1000 F18.00 
G01 X-33.8168 Y25.7677 F24.00 
G01 X-33.7776 Y25.6469 
G01 X-33.7516 Y25.4830 
G01 X-33.7516 Y25.3170 
G01 X-33.7776 Y25.1531 
G01 X-33.8168 Y25.0323 
G01 X-33.7514 Y25.1902 
G01 X-33.7514 Y25.6098 
G00 Z2.5400 
G00 X-33.7514 Y28.1498 
G01 Z-0.1000 F18.00 
G01 X-33.8168 Y28.3077 F24.00 
G01 X-33.7776 Y28.1869 
G01 X-33.7516 Y28.0230 
G01 X-33.7516 Y27.8570 
G01 X-33.7776 Y27.6931 
G01 X-33.8168 Y27.5723 
G01 X-33.7514 Y27.7302 
G01 X-33.7514 Y28.1498 
G00 Z2.5400 
G00 X-33.7514 Y30.6898 
G01 Z-0.1000 F18.00 
G01 X-33.8168 Y30.8477 F24.00 
G01 X-33.7776 Y30.7269 
G01 X-33.7516 Y30.5630 
G01 X-33.7516 Y30.3970 
G01 X-33.7776 Y30.2331 
G01 X-33.8168 Y30.1123 
G01 X-33.7514 Y30.2702 
G01 X-33.7514 Y30.6898 
G00 Z2.5400 
G00 X-33.7514 Y33.2298 
G01 Z-0.1000 F18.00 
G01 X-33.8168 Y33.3877 F24.00 
G01 X-33.7776 Y33.2669 
G01 X-33.7516 Y33.1030 
G01 X-33.7516 Y32.9370 
G01 X-33.7776 Y32.7731 
G01 X-33.8168 Y32.6523 
G01 X-33.7514 Y32.8102 
G01 X-33.7514 Y33.2298 
G00 Z2.5400 
G00 X-33.7514 Y35.7698 
G01 Z-0.1000 F18.00 
G01 X-33.8168 Y35.9277 F24.00 
G01 X-33.7776 Y35.8069 
G01 X-33.7516 Y35.6430 
G01 X-33.7516 Y35.4770 
G01 X-33.7776 Y35.3131 
G01 X-33.8168 Y35.1923 
G01 X-33.7514 Y35.3502 
G01 X-33.7514 Y35.7698 
G00 Z2.5400 
G00 X-33.7514 Y38.3098 
G01 Z-0.1000 F18.00 
G01 X-33.8168 Y38.4677 F24.00 
G01 X-33.7776 Y38.3469 
G01 X-33.7516 Y38.1830 
G01 X-33.7516 Y38.0170 
G01 X-33.7776 Y37.8531 
G01 X-33.8168 Y37.7323 
G01 X-33.7514 Y37.8902 
G01 X-33.7514 Y38.3098 
G00 Z2.5400 
G00 X-33.7514 Y40.8498 
G01 Z-0.1000 F18.00 
G01 X-33.8168 Y41.0077 F24.00 
G01 X-33.7776 Y40.8869 
G01 X-33.7516 Y40.7230 
G01 X-33.7516 Y40.5570 
G01 X-33.7776 Y40.3931 
G01 X-33.8168 Y40.2723 
G01 X-33.7514 Y40.4302 
G01 X-33.7514 Y40.8498 
G00 Z2.5400 
G00 X-33.7514 Y43.3898 
G01 Z-0.1000 F18.00 
G01 X-33.8168 Y43.5477 F24.00 
G01 X-33.7776 Y43.4269 
G01 X-33.7516 Y43.2630 
G01 X-33.7516 Y43.0970 
G01 X-33.7776 Y42.9331 
G01 X-33.8168 Y42.8123 
G01 X-33.7514 Y42.9702 
G01 X-33.7514 Y43.3898 
G00 Z2.5400 
G00 X-33.7514 Y45.9298 
G01 Z-0.1000 F18.00 
G01 X-33.8168 Y46.0877 F24.00 
G01 X-33.7776 Y45.9669 
G01 X-33.7516 Y45.8030 
G01 X-33.7516 Y45.6370 
G01 X-33.7776 Y45.4731 
G01 X-33.8168 Y45.3523 
G01 X-33.7514 Y45.5102 
G01 X-33.7514 Y45.9298 
G00 Z2.5400 
G00 X-33.7514 Y48.4698 
G01 Z-0.1000 F18.00 
G01 X-33.8168 Y48.6277 F24.00 
G01 X-33.7776 Y48.5069 
G01 X-33.7516 Y48.3430 
G01 X-33.7516 Y48.1770 
G01 X-33.7776 Y48.0131 
G01 X-33.8168 Y47.8923 
G01 X-33.7514 Y48.0502 
G01 X-33.7514 Y48.4698 
G00 Z2.5400 
G00 X-34.2086 Y49.1540 
G01 Z-0.1000 F18.00 
G01 X-34.3665 Y49.2195 F24.00 
G01 X-34.2534 Y49.1618 
G01 X-34.1191 Y49.0643 
G01 X-34.0017 Y48.9469 
G01 X-33.9042 Y48.8126 
G01 X-33.8465 Y48.6995 
G01 X-33.9120 Y48.8574 
G01 X-34.2086 Y49.1540 
G00 Z2.5400 
G00 X-36.5238 Y49.3146 
G01 Z-0.1000 F18.00 
G01 X-36.6817 Y49.2492 F24.00 
G01 X-36.5609 Y49.2884 
G01 X-36.3970 Y49.3144 
G01 X-34.7230 Y49.3144 
G01 X-34.5591 Y49.2884 
G01 X-34.4383 Y49.2492 
G01 X-34.5962 Y49.3146 
G01 X-36.5238 Y49.3146 
G00 Z2.5400 
G00 X-37.2080 Y48.8574 
G01 Z-0.1000 F18.00 
G01 X-37.2734 Y48.6995 F24.00 
G01 X-37.2158 Y48.8126 
G01 X-37.1183 Y48.9469 
G01 X-37.0009 Y49.0643 
G01 X-36.8666 Y49.1618 
G01 X-36.7535 Y49.2194 
G01 X-36.9114 Y49.1540 
G01 X-37.2080 Y48.8574 
G00 Z2.5400 
G00 X-37.3686 Y48.0502 
G01 Z-0.1000 F18.00 
G01 X-37.3032 Y47.8923 F24.00 
G01 X-37.3424 Y48.0131 
G01 X-37.3684 Y48.1770 
G01 X-37.3684 Y48.3430 
G01 X-37.3424 Y48.5069 
G01 X-37.3032 Y48.6277 
G01 X-37.3686 Y48.4698 
G01 X-37.3686 Y48.0502 
G00 Z2.5400 
G00 X-42.0102 Y32.0354 
G01 Z-0.1000 F18.00 
G01 X-42.1692 Y31.9838 F24.00 
G01 X-42.3344 Y31.9576 
G01 X-44.0256 Y31.9576 
G01 X-44.1908 Y31.9838 
G01 X-44.3498 Y32.0354 
G01 X-44.3759 Y32.0487 
G01 X-44.3722 Y32.0459 
G01 X-44.3652 Y32.0428 
G01 X-44.3123 Y31.9999 
G01 X-44.2581 Y31.9583 
G01 X-44.2534 Y31.9523 
G01 X-44.2475 Y31.9474 
G01 X-44.2074 Y31.8923 
G01 X-44.1659 Y31.8381 
G01 X-44.1629 Y31.8311 
G01 X-44.1584 Y31.8249 
G01 X-44.1340 Y31.7612 
G01 X-44.1079 Y31.6982 
G01 X-44.1069 Y31.6906 
G01 X-44.1041 Y31.6834 
G01 X-44.0970 Y31.6156 
G01 X-44.0881 Y31.5480 
G01 X-44.0891 Y31.5404 
G01 X-44.0883 Y31.5328 
G01 X-44.0256 Y31.5424 
G01 X-42.3344 Y31.5424 
G01 X-42.2717 Y31.5325 
G01 X-42.2709 Y31.5404 
G01 X-42.2719 Y31.5480 
G01 X-42.2630 Y31.6156 
G01 X-42.2559 Y31.6834 
G01 X-42.2531 Y31.6906 
G01 X-42.2521 Y31.6982 
G01 X-42.2260 Y31.7612 
G01 X-42.2016 Y31.8249 
G01 X-42.1971 Y31.8311 
G01 X-42.1941 Y31.8381 
G01 X-42.1526 Y31.8923 
G01 X-42.1125 Y31.9474 
G01 X-42.1066 Y31.9523 
G01 X-42.1019 Y31.9583 
G01 X-42.0477 Y31.9999 
G01 X-41.9948 Y32.0428 
G01 X-41.9878 Y32.0459 
G01 X-41.9841 Y32.0487 
G01 X-42.0102 Y32.0354 
G00 Z2.5400 
G00 X-41.5094 Y32.4632 
G01 Z-0.1000 F18.00 
G01 X-41.6076 Y32.3279 F24.00 
G01 X-41.7259 Y32.2096 
G01 X-41.8612 Y32.1114 
G01 X-41.9752 Y32.0533 
G01 X-41.9187 Y32.0767 
G01 X-41.8564 Y32.1044 
G01 X-41.8488 Y32.1056 
G01 X-41.8161 Y32.1192 
G01 X-41.5172 Y32.4181 
G01 X-41.4513 Y32.5772 
G01 X-41.5094 Y32.4632 
G00 Z2.5400 
G00 X-41.3818 Y33.2688 
G01 Z-0.1000 F18.00 
G01 X-41.3556 Y33.1036 F24.00 
G01 X-41.3556 Y32.9364 
G01 X-41.3818 Y32.7712 
G01 X-41.4213 Y32.6495 
G01 X-41.3554 Y32.8086 
G01 X-41.3554 Y33.2314 
G01 X-41.4213 Y33.3905 
G01 X-41.3818 Y33.2688 
G00 Z2.5400 
G00 X-42.3344 Y34.4976 
G01 Z-0.1000 F18.00 
G01 X-44.0256 Y34.4976 F24.00 
G01 X-44.1908 Y34.5238 
G01 X-44.3498 Y34.5754 
G01 X-44.4988 Y34.6514 
G01 X-44.6341 Y34.7496 
G01 X-44.7523 Y34.8679 
G01 X-44.8506 Y35.0032 
G01 X-44.9087 Y35.1172 
G01 X-44.8428 Y34.9581 
G01 X-44.5280 Y34.6433 
G01 X-44.4546 Y34.5160 
G01 X-44.4523 Y34.5121 
G01 X-44.4131 Y34.3657 
G01 X-44.4131 Y34.2142 
G01 X-44.4523 Y34.0679 
G01 X-44.5264 Y33.9396 
G01 X-44.5280 Y33.9367 
G01 X-44.6352 Y33.8296 
G01 X-44.8428 Y33.6219 
G01 X-44.9087 Y33.4628 
G01 X-44.8506 Y33.5768 
G01 X-44.7523 Y33.7121 
G01 X-44.6341 Y33.8304 
G01 X-44.4988 Y33.9286 
G01 X-44.3498 Y34.0046 
G01 X-44.1908 Y34.0562 
G01 X-44.0256 Y34.0824 
G01 X-42.3344 Y34.0824 
G01 X-42.1692 Y34.0562 
G01 X-42.0102 Y34.0046 
G01 X-41.8612 Y33.9286 
G01 X-41.7259 Y33.8304 
G01 X-41.6076 Y33.7121 
G01 X-41.5094 Y33.5768 
G01 X-41.4513 Y33.4628 
G01 X-41.5172 Y33.6219 
G01 X-41.7248 Y33.8296 
G01 X-41.8250 Y33.9297 
G01 X-41.8319 Y33.9367 
G01 X-41.9077 Y34.0679 
G01 X-41.9469 Y34.2142 
G01 X-41.9469 Y34.3657 
G01 X-41.9094 Y34.5059 
G01 X-41.9077 Y34.5121 
G01 X-41.8320 Y34.6433 
G01 X-41.7248 Y34.7504 
G01 X-41.5172 Y34.9581 
G01 X-41.4513 Y35.1172 
G01 X-41.5094 Y35.0032 
G01 X-41.6076 Y34.8679 
G01 X-41.7259 Y34.7496 
G01 X-41.8612 Y34.6514 
G01 X-42.0102 Y34.5754 
G01 X-42.1692 Y34.5238 
G01 X-42.3344 Y34.4976 
G00 Z2.5400 
G00 X-41.3554 Y35.7714 
G01 Z-0.1000 F18.00 
G01 X-41.4213 Y35.9305 F24.00 
G01 X-41.3818 Y35.8088 
G01 X-41.3556 Y35.6436 
G01 X-41.3556 Y35.4764 
G01 X-41.3818 Y35.3112 
G01 X-41.4213 Y35.1895 
G01 X-41.3554 Y35.3486 
G01 X-41.3554 Y35.7714 
G00 Z2.5400 
G00 X-41.8161 Y36.4608 
G01 Z-0.1000 F18.00 
G01 X-41.9752 Y36.5267 F24.00 
G01 X-41.8612 Y36.4686 
G01 X-41.7259 Y36.3704 
G01 X-41.6076 Y36.2521 
G01 X-41.5094 Y36.1168 
G01 X-41.4513 Y36.0028 
G01 X-41.5172 Y36.1619 
G01 X-41.8161 Y36.4608 
G00 Z2.5400 
G00 X-44.1534 Y36.6226 
G01 Z-0.1000 F18.00 
G01 X-44.3124 Y36.5567 F24.00 
G01 X-44.1908 Y36.5962 
G01 X-44.0256 Y36.6224 
G01 X-42.3344 Y36.6224 
G01 X-42.1692 Y36.5962 
G01 X-42.0476 Y36.5567 
G01 X-42.2066 Y36.6226 
G01 X-44.1534 Y36.6226 
G00 Z2.5400 
G00 X-44.8428 Y36.1619 
G01 Z-0.1000 F18.00 
G01 X-44.9087 Y36.0028 F24.00 
G01 X-44.8506 Y36.1168 
G01 X-44.7523 Y36.2521 
G01 X-44.6341 Y36.3704 
G01 X-44.4988 Y36.4686 
G01 X-44.3848 Y36.5267 
G01 X-44.5439 Y36.4608 
G01 X-44.8428 Y36.1619 
G00 Z2.5400 
G00 X-45.0046 Y35.3486 
G01 Z-0.1000 F18.00 
G01 X-44.9387 Y35.1896 F24.00 
G01 X-44.9782 Y35.3112 
G01 X-45.0044 Y35.4764 
G01 X-45.0044 Y35.6436 
G01 X-44.9782 Y35.8088 
G01 X-44.9387 Y35.9304 
G01 X-45.0046 Y35.7714 
G01 X-45.0046 Y35.3486 
G00 Z2.5400 
G00 X-44.5439 Y32.1192 
G01 Z-0.1000 F18.00 
G01 X-44.5112 Y32.1056 F24.00 
G01 X-44.5036 Y32.1044 
G01 X-44.4413 Y32.0767 
G01 X-44.3848 Y32.0533 
G01 X-44.4988 Y32.1114 
G01 X-44.6341 Y32.2096 
G01 X-44.7523 Y32.3279 
G01 X-44.8506 Y32.4632 
G01 X-44.9087 Y32.5772 
G01 X-44.8428 Y32.4181 
G01 X-44.5439 Y32.1192 
G00 Z2.5400 
G00 X-45.0046 Y32.8086 
G01 Z-0.1000 F18.00 
G01 X-44.9387 Y32.6495 F24.00 
G01 X-44.9782 Y32.7712 
G01 X-45.0044 Y32.9364 
G01 X-45.0044 Y33.1036 
G01 X-44.9782 Y33.2688 
G01 X-44.9387 Y33.3904 
G01 X-45.0046 Y33.2314 
G01 X-45.0046 Y32.8086 
G00 Z2.5400 
G00 X-41.8161 Y46.6208 
G01 Z-0.1000 F18.00 
G01 X-41.8488 Y46.6344 F24.00 
G01 X-41.8564 Y46.6356 
G01 X-41.9187 Y46.6633 
G01 X-41.9752 Y46.6867 
G01 X-41.8612 Y46.6286 
G01 X-41.7259 Y46.5304 
G01 X-41.6076 Y46.4121 
G01 X-41.5094 Y46.2768 
G01 X-41.4513 Y46.1628 
G01 X-41.5172 Y46.3219 
G01 X-41.8161 Y46.6208 
G00 Z2.5400 
G00 X-41.3554 Y45.9314 
G01 Z-0.1000 F18.00 
G01 X-41.4213 Y46.0905 F24.00 
G01 X-41.3818 Y45.9688 
G01 X-41.3556 Y45.8036 
G01 X-41.3556 Y45.6364 
G01 X-41.3818 Y45.4712 
G01 X-41.4213 Y45.3495 
G01 X-41.3554 Y45.5086 
G01 X-41.3554 Y45.9314 
G00 Z2.5400 
G00 X-44.3498 Y46.7046 
G01 Z-0.1000 F18.00 
G01 X-44.1908 Y46.7562 F24.00 
G01 X-44.0256 Y46.7824 
G01 X-42.3344 Y46.7824 
G01 X-42.1692 Y46.7562 
G01 X-42.0102 Y46.7046 
G01 X-41.9841 Y46.6913 
G01 X-41.9878 Y46.6941 
G01 X-41.9948 Y46.6972 
G01 X-42.0477 Y46.7401 
G01 X-42.1019 Y46.7817 
G01 X-42.1066 Y46.7877 
G01 X-42.1125 Y46.7926 
G01 X-42.1526 Y46.8477 
G01 X-42.1941 Y46.9019 
G01 X-42.1971 Y46.9089 
G01 X-42.2016 Y46.9151 
G01 X-42.2260 Y46.9788 
G01 X-42.2521 Y47.0418 
G01 X-42.2531 Y47.0494 
G01 X-42.2559 Y47.0566 
G01 X-42.2630 Y47.1244 
G01 X-42.2719 Y47.1920 
G01 X-42.2709 Y47.1996 
G01 X-42.2717 Y47.2072 
G01 X-42.3344 Y47.1976 
G01 X-44.0256 Y47.1976 
G01 X-44.0883 Y47.2075 
G01 X-44.0891 Y47.1996 
G01 X-44.0881 Y47.1920 
G01 X-44.0970 Y47.1244 
G01 X-44.1041 Y47.0566 
G01 X-44.1069 Y47.0494 
G01 X-44.1079 Y47.0418 
G01 X-44.1340 Y46.9788 
G01 X-44.1584 Y46.9151 
G01 X-44.1629 Y46.9089 
G01 X-44.1659 Y46.9019 
G01 X-44.2074 Y46.8477 
G01 X-44.2475 Y46.7926 
G01 X-44.2534 Y46.7877 
G01 X-44.2581 Y46.7817 
G01 X-44.3123 Y46.7401 
G01 X-44.3652 Y46.6972 
G01 X-44.3722 Y46.6941 
G01 X-44.3759 Y46.6913 
G01 X-44.3498 Y46.7046 
G00 Z2.5400 
G00 X-44.8506 Y46.2768 
G01 Z-0.1000 F18.00 
G01 X-44.7523 Y46.4121 F24.00 
G01 X-44.6341 Y46.5304 
G01 X-44.4988 Y46.6286 
G01 X-44.3848 Y46.6867 
G01 X-44.4413 Y46.6633 
G01 X-44.5036 Y46.6356 
G01 X-44.5112 Y46.6344 
G01 X-44.5439 Y46.6208 
G01 X-44.8428 Y46.3219 
G01 X-44.9087 Y46.1628 
G01 X-44.8506 Y46.2768 
G00 Z2.5400 
G00 X-44.9782 Y45.4712 
G01 Z-0.1000 F18.00 
G01 X-45.0044 Y45.6364 F24.00 
G01 X-45.0044 Y45.8036 
G01 X-44.9782 Y45.9688 
G01 X-44.9387 Y46.0904 
G01 X-45.0046 Y45.9314 
G01 X-45.0046 Y45.5086 
G01 X-44.9387 Y45.3495 
G01 X-44.9782 Y45.4712 
G00 Z2.5400 
G00 X-42.3344 Y44.6576 
G01 Z-0.1000 F18.00 
G01 X-44.0256 Y44.6576 F24.00 
G01 X-44.1908 Y44.6838 
G01 X-44.3498 Y44.7354 
G01 X-44.4988 Y44.8114 
G01 X-44.6341 Y44.9096 
G01 X-44.7523 Y45.0279 
G01 X-44.8506 Y45.1632 
G01 X-44.9087 Y45.2772 
G01 X-44.8428 Y45.1181 
G01 X-44.5280 Y44.8033 
G01 X-44.4546 Y44.6760 
G01 X-44.4523 Y44.6721 
G01 X-44.4131 Y44.5258 
G01 X-44.4131 Y44.3742 
G01 X-44.4523 Y44.2279 
G01 X-44.5264 Y44.0996 
G01 X-44.5280 Y44.0967 
G01 X-44.6352 Y43.9896 
G01 X-44.8428 Y43.7819 
G01 X-44.9087 Y43.6228 
G01 X-44.8506 Y43.7368 
G01 X-44.7523 Y43.8721 
G01 X-44.6341 Y43.9903 
G01 X-44.4988 Y44.0886 
G01 X-44.3498 Y44.1646 
G01 X-44.1908 Y44.2162 
G01 X-44.0256 Y44.2424 
G01 X-42.3344 Y44.2424 
G01 X-42.1692 Y44.2162 
G01 X-42.0102 Y44.1646 
G01 X-41.8612 Y44.0886 
G01 X-41.7259 Y43.9903 
G01 X-41.6076 Y43.8721 
G01 X-41.5094 Y43.7368 
G01 X-41.4513 Y43.6228 
G01 X-41.5172 Y43.7819 
G01 X-41.7248 Y43.9896 
G01 X-41.8250 Y44.0897 
G01 X-41.8319 Y44.0967 
G01 X-41.9077 Y44.2279 
G01 X-41.9469 Y44.3742 
G01 X-41.9469 Y44.5258 
G01 X-41.9094 Y44.6659 
G01 X-41.9077 Y44.6721 
G01 X-41.8320 Y44.8033 
G01 X-41.7248 Y44.9104 
G01 X-41.5172 Y45.1181 
G01 X-41.4513 Y45.2772 
G01 X-41.5094 Y45.1632 
G01 X-41.6076 Y45.0279 
G01 X-41.7259 Y44.9096 
G01 X-41.8612 Y44.8114 
G01 X-42.0102 Y44.7354 
G01 X-42.1692 Y44.6838 
G01 X-42.3344 Y44.6576 
G00 Z2.5400 
G00 X-45.0046 Y42.9686 
G01 Z-0.1000 F18.00 
G01 X-44.9387 Y42.8095 F24.00 
G01 X-44.9782 Y42.9312 
G01 X-45.0044 Y43.0964 
G01 X-45.0044 Y43.2636 
G01 X-44.9782 Y43.4288 
G01 X-44.9387 Y43.5504 
G01 X-45.0046 Y43.3914 
G01 X-45.0046 Y42.9686 
G00 Z2.5400 
G00 X-44.5439 Y42.2792 
G01 Z-0.1000 F18.00 
G01 X-44.3848 Y42.2133 F24.00 
G01 X-44.4988 Y42.2714 
G01 X-44.6341 Y42.3696 
G01 X-44.7523 Y42.4879 
G01 X-44.8506 Y42.6232 
G01 X-44.9087 Y42.7372 
G01 X-44.8428 Y42.5781 
G01 X-44.5439 Y42.2792 
G00 Z2.5400 
G00 X-42.2066 Y42.1174 
G01 Z-0.1000 F18.00 
G01 X-42.0475 Y42.1833 F24.00 
G01 X-42.1692 Y42.1438 
G01 X-42.3344 Y42.1176 
G01 X-44.0256 Y42.1176 
G01 X-44.1908 Y42.1438 
G01 X-44.3125 Y42.1833 
G01 X-44.1534 Y42.1174 
G01 X-42.2066 Y42.1174 
G00 Z2.5400 
G00 X-41.5172 Y42.5781 
G01 Z-0.1000 F18.00 
G01 X-41.4513 Y42.7372 F24.00 
G01 X-41.5094 Y42.6232 
G01 X-41.6076 Y42.4879 
G01 X-41.7259 Y42.3696 
G01 X-41.8612 Y42.2714 
G01 X-41.9752 Y42.2133 
G01 X-41.8161 Y42.2792 
G01 X-41.5172 Y42.5781 
G00 Z2.5400 
G00 X-41.3554 Y43.3914 
G01 Z-0.1000 F18.00 
G01 X-41.4213 Y43.5505 F24.00 
G01 X-41.3818 Y43.4288 
G01 X-41.3556 Y43.2636 
G01 X-41.3556 Y43.0964 
G01 X-41.3818 Y42.9312 
G01 X-41.4213 Y42.8095 
G01 X-41.3554 Y42.9686 
G01 X-41.3554 Y43.3914 
G00 Z2.5400 
G00 X-15.7946 Y36.6186 
G01 Z-0.1000 F18.00 
G01 X-15.7287 Y36.4596 F24.00 
G01 X-15.7682 Y36.5812 
G01 X-15.7944 Y36.7464 
G01 X-15.7944 Y36.9136 
G01 X-15.7682 Y37.0788 
G01 X-15.7287 Y37.2004 
G01 X-15.7946 Y37.0414 
G01 X-15.7946 Y36.6186 
G00 Z2.5400 
G00 X-15.6328 Y37.4319 
G01 Z-0.1000 F18.00 
G01 X-15.6987 Y37.2728 F24.00 
G01 X-15.6406 Y37.3868 
G01 X-15.5424 Y37.5221 
G01 X-15.4241 Y37.6404 
G01 X-15.2888 Y37.7386 
G01 X-15.1748 Y37.7967 
G01 X-15.3339 Y37.7308 
G01 X-15.6328 Y37.4319 
G00 Z2.5400 
G00 X-14.9434 Y37.8926 
G01 Z-0.1000 F18.00 
G01 X-15.1024 Y37.8267 F24.00 
G01 X-14.9808 Y37.8662 
G01 X-14.8156 Y37.8924 
G01 X-13.1244 Y37.8924 
G01 X-12.9592 Y37.8662 
G01 X-12.8375 Y37.8267 
G01 X-12.9966 Y37.8926 
G01 X-14.9434 Y37.8926 
G00 Z2.5400 
G00 X-12.6061 Y37.7308 
G01 Z-0.1000 F18.00 
G01 X-12.7652 Y37.7967 F24.00 
G01 X-12.6512 Y37.7386 
G01 X-12.5159 Y37.6404 
G01 X-12.3976 Y37.5221 
G01 X-12.2994 Y37.3868 
G01 X-12.2413 Y37.2728 
G01 X-12.3072 Y37.4319 
G01 X-12.6061 Y37.7308 
G00 Z2.5400 
G00 X-12.1454 Y37.0414 
G01 Z-0.1000 F18.00 
G01 X-12.2113 Y37.2005 F24.00 
G01 X-12.1718 Y37.0788 
G01 X-12.1456 Y36.9136 
G01 X-12.1456 Y36.7464 
G01 X-12.1718 Y36.5812 
G01 X-12.2113 Y36.4595 
G01 X-12.1454 Y36.6186 
G01 X-12.1454 Y37.0414 
G00 Z2.5400 
G00 X-13.1244 Y35.7676 
G01 Z-0.1000 F18.00 
G01 X-14.8156 Y35.7676 F24.00 
G01 X-14.9808 Y35.7938 
G01 X-15.1398 Y35.8454 
G01 X-15.2888 Y35.9214 
G01 X-15.4241 Y36.0196 
G01 X-15.5424 Y36.1379 
G01 X-15.6406 Y36.2732 
G01 X-15.6987 Y36.3872 
G01 X-15.6328 Y36.2281 
G01 X-15.3180 Y35.9133 
G01 X-15.2446 Y35.7860 
G01 X-15.2423 Y35.7821 
G01 X-15.2031 Y35.6358 
G01 X-15.2031 Y35.4842 
G01 X-15.2423 Y35.3379 
G01 X-15.3164 Y35.2096 
G01 X-15.3180 Y35.2067 
G01 X-15.4252 Y35.0996 
G01 X-15.6328 Y34.8919 
G01 X-15.6987 Y34.7328 
G01 X-15.6406 Y34.8468 
G01 X-15.5424 Y34.9821 
G01 X-15.4241 Y35.1003 
G01 X-15.2888 Y35.1986 
G01 X-15.1398 Y35.2746 
G01 X-14.9808 Y35.3262 
G01 X-14.8156 Y35.3524 
G01 X-13.1244 Y35.3524 
G01 X-12.9592 Y35.3262 
G01 X-12.8002 Y35.2746 
G01 X-12.6512 Y35.1986 
G01 X-12.5159 Y35.1003 
G01 X-12.3976 Y34.9821 
G01 X-12.2994 Y34.8468 
G01 X-12.2413 Y34.7328 
G01 X-12.3072 Y34.8919 
G01 X-12.5148 Y35.0996 
G01 X-12.6150 Y35.1997 
G01 X-12.6220 Y35.2067 
G01 X-12.6977 Y35.3379 
G01 X-12.7369 Y35.4842 
G01 X-12.7369 Y35.6358 
G01 X-12.6994 Y35.7759 
G01 X-12.6977 Y35.7821 
G01 X-12.6220 Y35.9133 
G01 X-12.5148 Y36.0204 
G01 X-12.3072 Y36.2281 
G01 X-12.2413 Y36.3872 
G01 X-12.2994 Y36.2732 
G01 X-12.3976 Y36.1379 
G01 X-12.5159 Y36.0196 
G01 X-12.6512 Y35.9214 
G01 X-12.8002 Y35.8454 
G01 X-12.9592 Y35.7938 
G01 X-13.1244 Y35.7676 
G00 Z2.5400 
G00 X-12.1718 Y34.5388 
G01 Z-0.1000 F18.00 
G01 X-12.1456 Y34.3736 F24.00 
G01 X-12.1456 Y34.2064 
G01 X-12.1718 Y34.0412 
G01 X-12.2113 Y33.9195 
G01 X-12.1454 Y34.0786 
G01 X-12.1454 Y34.5014 
G01 X-12.2113 Y34.6605 
G01 X-12.1718 Y34.5388 
G00 Z2.5400 
G00 X-12.2994 Y33.7332 
G01 Z-0.1000 F18.00 
G01 X-12.3976 Y33.5979 F24.00 
G01 X-12.5159 Y33.4796 
G01 X-12.6512 Y33.3814 
G01 X-12.7652 Y33.3233 
G01 X-12.6061 Y33.3892 
G01 X-12.3072 Y33.6881 
G01 X-12.2413 Y33.8472 
G01 X-12.2994 Y33.7332 
G00 Z2.5400 
G00 X-12.9592 Y33.2538 
G01 Z-0.1000 F18.00 
G01 X-13.1244 Y33.2276 F24.00 
G01 X-14.8156 Y33.2276 
G01 X-14.9808 Y33.2538 
G01 X-15.1025 Y33.2933 
G01 X-14.9434 Y33.2274 
G01 X-12.9966 Y33.2274 
G01 X-12.8375 Y33.2933 
G01 X-12.9592 Y33.2538 
G00 Z2.5400 
G00 X-12.1454 Y42.1214 
G01 Z-0.1000 F18.00 
G01 X-12.2113 Y42.2805 F24.00 
G01 X-12.1718 Y42.1588 
G01 X-12.1456 Y41.9936 
G01 X-12.1456 Y41.8264 
G01 X-12.1718 Y41.6612 
G01 X-12.2113 Y41.5395 
G01 X-12.1454 Y41.6986 
G01 X-12.1454 Y42.1214 
G00 Z2.5400 
G00 X-12.3072 Y41.3081 
G01 Z-0.1000 F18.00 
G01 X-12.2413 Y41.4672 F24.00 
G01 X-12.2994 Y41.3532 
G01 X-12.3976 Y41.2179 
G01 X-12.5159 Y41.0996 
G01 X-12.6512 Y41.0014 
G01 X-12.7652 Y40.9433 
G01 X-12.6061 Y41.0092 
G01 X-12.3072 Y41.3081 
G00 Z2.5400 
G00 X-12.9966 Y40.8474 
G01 Z-0.1000 F18.00 
G01 X-12.8375 Y40.9133 F24.00 
G01 X-12.9592 Y40.8738 
G01 X-13.1244 Y40.8476 
G01 X-14.8156 Y40.8476 
G01 X-14.9808 Y40.8738 
G01 X-15.1025 Y40.9133 
G01 X-14.9434 Y40.8474 
G01 X-12.9966 Y40.8474 
G00 Z2.5400 
G00 X-15.3339 Y41.0092 
G01 Z-0.1000 F18.00 
G01 X-15.1748 Y40.9433 F24.00 
G01 X-15.2888 Y41.0014 
G01 X-15.4241 Y41.0996 
G01 X-15.5424 Y41.2179 
G01 X-15.6406 Y41.3532 
G01 X-15.6987 Y41.4672 
G01 X-15.6328 Y41.3081 
G01 X-15.3339 Y41.0092 
G00 Z2.5400 
G00 X-15.7946 Y41.6986 
G01 Z-0.1000 F18.00 
G01 X-15.7287 Y41.5396 F24.00 
G01 X-15.7682 Y41.6612 
G01 X-15.7944 Y41.8264 
G01 X-15.7944 Y41.9936 
G01 X-15.7682 Y42.1588 
G01 X-15.7287 Y42.2804 
G01 X-15.7946 Y42.1214 
G01 X-15.7946 Y41.6986 
G00 Z2.5400 
G00 X-14.8156 Y42.9724 
G01 Z-0.1000 F18.00 
G01 X-13.1244 Y42.9724 F24.00 
G01 X-12.9592 Y42.9462 
G01 X-12.8002 Y42.8946 
G01 X-12.6512 Y42.8186 
G01 X-12.5159 Y42.7204 
G01 X-12.3976 Y42.6021 
G01 X-12.2994 Y42.4668 
G01 X-12.2413 Y42.3528 
G01 X-12.3072 Y42.5119 
G01 X-12.6220 Y42.8267 
G01 X-12.6954 Y42.9540 
G01 X-12.6977 Y42.9579 
G01 X-12.7369 Y43.1042 
G01 X-12.7369 Y43.2558 
G01 X-12.6977 Y43.4021 
G01 X-12.6236 Y43.5304 
G01 X-12.6220 Y43.5333 
G01 X-12.5148 Y43.6404 
G01 X-12.3072 Y43.8481 
G01 X-12.2413 Y44.0072 
G01 X-12.2994 Y43.8932 
G01 X-12.3976 Y43.7579 
G01 X-12.5159 Y43.6396 
G01 X-12.6512 Y43.5414 
G01 X-12.8002 Y43.4654 
G01 X-12.9592 Y43.4138 
G01 X-13.1244 Y43.3876 
G01 X-14.8156 Y43.3876 
G01 X-14.9808 Y43.4138 
G01 X-15.1398 Y43.4654 
G01 X-15.2888 Y43.5414 
G01 X-15.4241 Y43.6396 
G01 X-15.5424 Y43.7579 
G01 X-15.6406 Y43.8932 
G01 X-15.6987 Y44.0072 
G01 X-15.6328 Y43.8481 
G01 X-15.4252 Y43.6404 
G01 X-15.3250 Y43.5403 
G01 X-15.3180 Y43.5333 
G01 X-15.2423 Y43.4021 
G01 X-15.2031 Y43.2558 
G01 X-15.2031 Y43.1042 
G01 X-15.2406 Y42.9641 
G01 X-15.2423 Y42.9579 
G01 X-15.3180 Y42.8267 
G01 X-15.4252 Y42.7196 
G01 X-15.6328 Y42.5119 
G01 X-15.6987 Y42.3528 
G01 X-15.6406 Y42.4668 
G01 X-15.5424 Y42.6021 
G01 X-15.4241 Y42.7204 
G01 X-15.2888 Y42.8186 
G01 X-15.1398 Y42.8946 
G01 X-14.9808 Y42.9462 
G01 X-14.8156 Y42.9724 
G00 Z2.5400 
G00 X-15.7682 Y44.2012 
G01 Z-0.1000 F18.00 
G01 X-15.7944 Y44.3664 F24.00 
G01 X-15.7944 Y44.5336 
G01 X-15.7682 Y44.6988 
G01 X-15.7287 Y44.8204 
G01 X-15.7946 Y44.6614 
G01 X-15.7946 Y44.2386 
G01 X-15.7287 Y44.0796 
G01 X-15.7682 Y44.2012 
G00 Z2.5400 
G00 X-15.6406 Y45.0068 
G01 Z-0.1000 F18.00 
G01 X-15.5424 Y45.1421 F24.00 
G01 X-15.4241 Y45.2604 
G01 X-15.2888 Y45.3586 
G01 X-15.1748 Y45.4167 
G01 X-15.3339 Y45.3508 
G01 X-15.6328 Y45.0519 
G01 X-15.6987 Y44.8928 
G01 X-15.6406 Y45.0068 
G00 Z2.5400 
G00 X-14.9808 Y45.4862 
G01 Z-0.1000 F18.00 
G01 X-14.8156 Y45.5124 F24.00 
G01 X-13.1244 Y45.5124 
G01 X-12.9592 Y45.4862 
G01 X-12.8375 Y45.4467 
G01 X-12.9966 Y45.5126 
G01 X-14.9434 Y45.5126 
G01 X-15.1024 Y45.4467 
G01 X-14.9808 Y45.4862 
G00 Z2.5400 
G00 X-27.5708 Y6.4439 
G01 Z-0.1000 F18.00 
G01 X-27.5844 Y6.4112 F24.00 
G01 X-27.5856 Y6.4036 
G01 X-27.6133 Y6.3413 
G01 X-27.6367 Y6.2848 
G01 X-27.5786 Y6.3988 
G01 X-27.4804 Y6.5341 
G01 X-27.3621 Y6.6524 
G01 X-27.2268 Y6.7506 
G01 X-27.1128 Y6.8087 
G01 X-27.2719 Y6.7428 
G01 X-27.5708 Y6.4439 
G00 Z2.5400 
G00 X-26.8814 Y6.9046 
G01 Z-0.1000 F18.00 
G01 X-27.0404 Y6.8387 F24.00 
G01 X-26.9188 Y6.8782 
G01 X-26.7536 Y6.9044 
G01 X-26.5864 Y6.9044 
G01 X-26.4212 Y6.8782 
G01 X-26.2995 Y6.8387 
G01 X-26.4586 Y6.9046 
G01 X-26.8814 Y6.9046 
G00 Z2.5400 
G00 X-26.0681 Y6.7428 
G01 Z-0.1000 F18.00 
G01 X-26.2272 Y6.8087 F24.00 
G01 X-26.1132 Y6.7506 
G01 X-25.9779 Y6.6524 
G01 X-25.8596 Y6.5341 
G01 X-25.7614 Y6.3988 
G01 X-25.7033 Y6.2848 
G01 X-25.7692 Y6.4439 
G01 X-26.0681 Y6.7428 
G00 Z2.5400 
G00 X-27.6546 Y3.9102 
G01 Z-0.1000 F18.00 
G01 X-27.7062 Y4.0692 F24.00 
G01 X-27.7324 Y4.2344 
G01 X-27.7324 Y5.9256 
G01 X-27.7062 Y6.0908 
G01 X-27.6546 Y6.2498 
G01 X-27.6413 Y6.2759 
G01 X-27.6441 Y6.2722 
G01 X-27.6472 Y6.2652 
G01 X-27.6901 Y6.2123 
G01 X-27.7317 Y6.1581 
G01 X-27.7377 Y6.1534 
G01 X-27.7426 Y6.1475 
G01 X-27.7977 Y6.1074 
G01 X-27.8519 Y6.0659 
G01 X-27.8589 Y6.0629 
G01 X-27.8651 Y6.0584 
G01 X-27.9288 Y6.0340 
G01 X-27.9918 Y6.0079 
G01 X-27.9994 Y6.0069 
G01 X-28.0066 Y6.0041 
G01 X-28.0744 Y5.9970 
G01 X-28.1420 Y5.9881 
G01 X-28.1496 Y5.9891 
G01 X-28.1572 Y5.9883 
G01 X-28.1476 Y5.9256 
G01 X-28.1476 Y4.2344 
G01 X-28.1575 Y4.1717 
G01 X-28.1496 Y4.1709 
G01 X-28.1420 Y4.1719 
G01 X-28.0744 Y4.1630 
G01 X-28.0066 Y4.1559 
G01 X-27.9994 Y4.1531 
G01 X-27.9918 Y4.1521 
G01 X-27.9288 Y4.1260 
G01 X-27.8651 Y4.1016 
G01 X-27.8589 Y4.0971 
G01 X-27.8519 Y4.0941 
G01 X-27.7977 Y4.0526 
G01 X-27.7426 Y4.0125 
G01 X-27.7377 Y4.0066 
G01 X-27.7317 Y4.0019 
G01 X-27.6901 Y3.9477 
G01 X-27.6472 Y3.8948 
G01 X-27.6441 Y3.8878 
G01 X-27.6413 Y3.8841 
G01 X-27.6546 Y3.9102 
G00 Z2.5400 
G00 X-27.2268 Y3.4094 
G01 Z-0.1000 F18.00 
G01 X-27.3621 Y3.5076 F24.00 
G01 X-27.4804 Y3.6259 
G01 X-27.5786 Y3.7612 
G01 X-27.6367 Y3.8752 
G01 X-27.6133 Y3.8187 
G01 X-27.5856 Y3.7564 
G01 X-27.5844 Y3.7488 
G01 X-27.5708 Y3.7161 
G01 X-27.2719 Y3.4172 
G01 X-27.1128 Y3.3513 
G01 X-27.2268 Y3.4094 
G00 Z2.5400 
G00 X-26.4212 Y3.2818 
G01 Z-0.1000 F18.00 
G01 X-26.5864 Y3.2556 F24.00 
G01 X-26.7536 Y3.2556 
G01 X-26.9188 Y3.2818 
G01 X-27.0405 Y3.3213 
G01 X-26.8814 Y3.2554 
G01 X-26.4586 Y3.2554 
G01 X-26.2995 Y3.3213 
G01 X-26.4212 Y3.2818 
G00 Z2.5400 
G00 X-25.7614 Y3.7612 
G01 Z-0.1000 F18.00 
G01 X-25.8596 Y3.6259 F24.00 
G01 X-25.9779 Y3.5076 
G01 X-26.1132 Y3.4094 
G01 X-26.2272 Y3.3513 
G01 X-26.0681 Y3.4172 
G01 X-25.7692 Y3.7161 
G01 X-25.7033 Y3.8752 
G01 X-25.7614 Y3.7612 
G00 Z2.5400 
G00 X-25.6076 Y5.9256 
G01 Z-0.1000 F18.00 
G01 X-25.6076 Y4.2344 F24.00 
G01 X-25.6338 Y4.0692 
G01 X-25.6733 Y3.9475 
G01 X-25.6074 Y4.1066 
G01 X-25.6074 Y6.0534 
G01 X-25.6733 Y6.2125 
G01 X-25.6338 Y6.0908 
G01 X-25.6076 Y5.9256 
G00 Z2.5400 
G00 X-0.8002 Y55.2494 
G01 Z-0.1000 F18.00 
G01 X-0.6539 Y55.2102 F24.00 
G01 X-0.5227 Y55.1344 
G01 X-0.4156 Y55.0273 
G01 X-0.3398 Y54.8961 
G01 X-0.3006 Y54.7498 
G01 X-0.3006 Y0.8002 
G01 X-0.3398 Y0.6539 
G01 X-0.4156 Y0.5227 
G01 X-0.5227 Y0.4156 
G01 X-0.6539 Y0.3398 
G01 X-0.8002 Y0.3006 
G01 X-49.9798 Y0.3006 
G01 X-50.1261 Y0.3398 
G01 X-50.2573 Y0.4156 
G01 X-50.3644 Y0.5227 
G01 X-50.4402 Y0.6539 
G01 X-50.4794 Y0.8002 
G01 X-50.4794 Y54.7498 
G01 X-50.4402 Y54.8961 
G01 X-50.3644 Y55.0273 
G01 X-50.2573 Y55.1344 
G01 X-50.1261 Y55.2102 
G01 X-49.9798 Y55.2494 
G01 X-49.8282 Y55.2494 
G01 X-0.8002 Y55.2494 
G00 Z2.5400 
G00 Z2.540000
G00 X-36.8300 Y5.0800 
G01 Z-0.1000 F18.00 
G01 Z2.540000
(R2.5400  P1.000000)
(G00 Z2.540000)
G00 X-26.6700 Y5.0800 
G01 Z-1.600000
G01 Z2.540000
(G00 Z2.540000)
G00 X-29.2100 Y5.0800 
G01 Z-1.600000
G01 Z2.540000
(G00 Z2.540000)
G00 X-13.9700 Y44.4500 
G01 Z-1.600000
G01 Z2.540000
(G00 Z2.540000)
G00 X-13.9700 Y41.9100 
G01 Z-1.600000
G01 Z2.540000
(G00 Z2.540000)
G00 X-13.9700 Y34.2900 
G01 Z-1.600000
G01 Z2.540000
(G00 Z2.540000)
G00 X-13.9700 Y36.8300 
G01 Z-1.600000
G01 Z2.540000
(G00 Z2.540000)
G00 X-43.1800 Y43.1800 
G01 Z-1.600000
G01 Z2.540000
(G00 Z2.540000)
G00 X-43.1800 Y45.7200 
G01 Z-1.600000
G01 Z2.540000
(G00 Z2.540000)
G00 X-43.1800 Y48.2600 
G01 Z-1.600000
G01 Z2.540000
(G00 Z2.540000)
G00 X-43.1800 Y30.4800 
G01 Z-1.600000
G01 Z2.540000
(G00 Z2.540000)
G00 X-43.1800 Y33.0200 
G01 Z-1.600000
G01 Z2.540000
(G00 Z2.540000)
G00 X-43.1800 Y35.5600 
G01 Z-1.600000
G01 Z2.540000
(G00 Z2.540000)
G00 X-35.5600 Y48.2600 
G01 Z-1.600000
G01 Z2.540000
(G00 Z2.540000)
G00 X-35.5600 Y45.7200 
G01 Z-1.600000
G01 Z2.540000
(G00 Z2.540000)
G00 X-35.5600 Y43.1800 
G01 Z-1.600000
G01 Z2.540000
(G00 Z2.540000)
G00 X-35.5600 Y40.6400 
G01 Z-1.600000
G01 Z2.540000
(G00 Z2.540000)
G00 X-35.5600 Y38.1000 
G01 Z-1.600000
G01 Z2.540000
(G00 Z2.540000)
G00 X-35.5600 Y35.5600 
G01 Z-1.600000
G01 Z2.540000
(G00 Z2.540000)
G00 X-35.5600 Y33.0200 
G01 Z-1.600000
G01 Z2.540000
(G00 Z2.540000)
G00 X-35.5600 Y30.4800 
G01 Z-1.600000
G01 Z2.540000
(G00 Z2.540000)
G00 X-35.5600 Y27.9400 
G01 Z-1.600000
G01 Z2.540000
(G00 Z2.540000)
G00 X-35.5600 Y25.4000 
G01 Z-1.600000
G01 Z2.540000
(G00 Z2.540000)
G00 X-35.5600 Y22.8600 
G01 Z-1.600000
G01 Z2.540000
(G00 Z2.540000)
G00 X-35.5600 Y20.3200 
G01 Z-1.600000
G01 Z2.540000
(G00 Z2.540000)
G00 X-35.5600 Y17.7800 
G01 Z-1.600000
G01 Z2.540000
(G00 Z2.540000)
G00 X-35.5600 Y15.2400 
G01 Z-1.600000
G01 Z2.540000
(G00 Z2.540000)
G00 X-35.5600 Y12.7000 
G01 Z-1.600000
G01 Z2.540000
(G00 Z2.540000)
G00 X-20.3200 Y12.7000 
G01 Z-1.600000
G01 Z2.540000
(G00 Z2.540000)
G00 X-20.3200 Y15.2400 
G01 Z-1.600000
G01 Z2.540000
(G00 Z2.540000)
G00 X-20.3200 Y17.7800 
G01 Z-1.600000
G01 Z2.540000
(G00 Z2.540000)
G00 X-20.3200 Y20.3200 
G01 Z-1.600000
G01 Z2.540000
(G00 Z2.540000)
G00 X-20.3200 Y22.8600 
G01 Z-1.600000
G01 Z2.540000
(G00 Z2.540000)
G00 X-20.3200 Y25.4000 
G01 Z-1.600000
G01 Z2.540000
(G00 Z2.540000)
G00 X-20.3200 Y27.9400 
G01 Z-1.600000
G01 Z2.540000
(G00 Z2.540000)
G00 X-20.3200 Y30.4800 
G01 Z-1.600000
G01 Z2.540000
(G00 Z2.540000)
G00 X-20.3200 Y33.0200 
G01 Z-1.600000
G01 Z2.540000
(G00 Z2.540000)
G00 X-20.3200 Y35.5600 
G01 Z-1.600000
G01 Z2.540000
(G00 Z2.540000)
G00 X-20.3200 Y38.1000 
G01 Z-1.600000
G01 Z2.540000
(G00 Z2.540000)
G00 X-20.3200 Y40.6400 
G01 Z-1.600000
G01 Z2.540000
(G00 Z2.540000)
G00 X-20.3200 Y43.1800 
G01 Z-1.600000
G01 Z2.540000
(G00 Z2.540000)
G00 X-20.3200 Y45.7200 
G01 Z-1.600000
G01 Z2.540000
(G00 Z2.540000)
G00 X-20.3200 Y48.2600 
G01 Z-1.600000
G01 Z2.540000
G00 Z12.7000 
M05
M02
