(.../pcb-gcode-3_6_0_4/pcb-gcode.ulp)
(Copyright 2005 - 2012 by John Johnson)
(See readme.txt for licensing terms.)
(This file generated from the board:)
(.../AutoWatering/watering_board.brd)
(Current profile is .../pcb-gcode-3_6_0_4/profiles/generic.pp  )
(This file generated 4/8/22 3:53 PM)
(Settings from pcb-machine.h)
(  Tool Size)
(0.5500 )
(Z Axis Settings)
(  High     Up        Down     Drill)
(12.7000 	2.5400 	-0.1000 	-1.6000 )
(spindle on time = 3.0000)
(milling depth = -0.0800)
(text depth = -0.0400)
(tool change at 0.0000 0.0000 25.4000 )
(feed rate xy = F24.00 )
(feed rate z  = F18.00 )
(Settings from pcb-defaults.h)
(isolate min = 0.0254)
(isolate max = 0.5080)
(isolate step = 0.3000)
(Generated top outlines, top drill, bottom outlines, bottom drill, )
(Unit of measure: mm)
(Metric Mode)
G21
(Absolute Coordinates)
G90
G00 X0.0000 Y0.0000 
M03
G04 P3.000000
G00 Z2.5400 
G00 X4.2635 Y42.8456 
G01 Z-0.1000 F18.00 
G01 X4.3020 Y42.8297 F24.00 
G01 X4.2432 Y42.8454 
G01 X2.1576 Y42.8454 
G01 X2.0988 Y42.8297 
G01 X2.1373 Y42.8456 
G01 X4.2635 Y42.8456 
G00 Z2.5400 
G00 X2.0268 Y42.7998 
G01 Z-0.1000 F18.00 
G01 X2.0653 Y42.8158 F24.00 
G01 X2.0127 Y42.7854 
G01 X1.9567 Y42.7294 
G01 X1.9263 Y42.6768 
G01 X1.9423 Y42.7153 
G01 X2.0268 Y42.7998 
G00 Z2.5400 
G00 X1.8965 Y42.6048 
G01 Z-0.1000 F18.00 
G01 X1.9124 Y42.6433 F24.00 
G01 X1.8967 Y42.5845 
G01 X1.8967 Y38.6955 
G01 X1.9124 Y38.6367 
G01 X1.8965 Y38.6752 
G01 X1.8965 Y42.6048 
G00 Z2.5400 
G00 X1.9423 Y38.5647 
G01 Z-0.1000 F18.00 
G01 X1.9263 Y38.6032 F24.00 
G01 X1.9567 Y38.5506 
G01 X2.0127 Y38.4946 
G01 X2.0653 Y38.4642 
G01 X2.0268 Y38.4802 
G01 X1.9423 Y38.5647 
G00 Z2.5400 
G00 X2.1373 Y38.4344 
G01 Z-0.1000 F18.00 
G01 X2.0988 Y38.4503 F24.00 
G01 X2.1576 Y38.4346 
G01 X4.2432 Y38.4346 
G01 X4.3020 Y38.4503 
G01 X4.2635 Y38.4344 
G01 X2.1373 Y38.4344 
G00 Z2.5400 
G00 X26.4586 Y3.2554 
G01 Z-0.1000 F18.00 
G01 X26.2995 Y3.3213 F24.00 
G01 X26.4212 Y3.2818 
G01 X26.5864 Y3.2556 
G01 X26.7536 Y3.2556 
G01 X26.9188 Y3.2818 
G01 X27.0405 Y3.3213 
G01 X26.8814 Y3.2554 
G01 X26.4586 Y3.2554 
G00 Z2.5400 
G00 X25.7692 Y3.7161 
G01 Z-0.1000 F18.00 
G01 X25.7033 Y3.8752 F24.00 
G01 X25.7614 Y3.7612 
G01 X25.8596 Y3.6259 
G01 X25.9779 Y3.5076 
G01 X26.1132 Y3.4094 
G01 X26.2272 Y3.3513 
G01 X26.0681 Y3.4172 
G01 X25.7692 Y3.7161 
G00 Z2.5400 
G00 X10.5424 Y41.7151 
G01 Z-0.1000 F18.00 
G01 X8.4567 Y41.7151 F24.00 
G01 X8.3803 Y41.6946 
G01 X8.3118 Y41.6551 
G01 X8.2559 Y41.5991 
G01 X8.2164 Y41.5307 
G01 X8.1959 Y41.4542 
G01 X8.1959 Y39.8766 
G01 X8.2164 Y39.8001 
G01 X8.2559 Y39.7317 
G01 X8.3118 Y39.6757 
G01 X8.3803 Y39.6362 
G01 X8.4567 Y39.6157 
G01 X10.5424 Y39.6157 
G01 X10.6189 Y39.6362 
G01 X10.6873 Y39.6757 
G01 X10.7433 Y39.7317 
G01 X10.7828 Y39.8001 
G01 X10.8033 Y39.8766 
G01 X10.8033 Y40.0650 
G01 X11.1559 Y40.0650 
G01 X12.0996 Y39.1213 
G01 X12.0996 Y36.7709 
G01 X12.1227 Y36.6549 
G01 X12.1679 Y36.5456 
G01 X12.1979 Y36.5007 
G01 X12.2231 Y36.4234 
G01 X12.2107 Y36.4419 
G01 X12.0994 Y36.7105 
G01 X12.0994 Y38.8981 
G01 X12.0923 Y38.9339 
G01 X12.0722 Y39.0346 
G01 X12.0577 Y39.0697 
G01 X12.0190 Y39.1633 
G01 X11.9662 Y39.2421 
G01 X11.9416 Y39.2790 
G01 X11.9365 Y39.2841 
G01 X11.7123 Y39.5083 
G01 X11.6190 Y39.6016 
G01 X11.6139 Y39.6068 
G01 X11.4981 Y39.6841 
G01 X11.4243 Y39.7147 
G01 X11.3695 Y39.7374 
G01 X11.2329 Y39.7646 
G01 X11.0937 Y39.7646 
G01 X11.0617 Y39.7582 
G01 X10.9571 Y39.7374 
G01 X10.9168 Y39.7207 
G01 X10.8285 Y39.6841 
G01 X10.7527 Y39.6335 
G01 X10.7127 Y39.6068 
G01 X10.6143 Y39.5083 
G01 X10.5585 Y39.4248 
G01 X10.5424 Y39.4291 
G01 X8.4861 Y39.4291 
G01 X8.4623 Y39.4866 
G01 X8.3849 Y39.6024 
G01 X8.2865 Y39.7008 
G01 X8.2090 Y39.7783 
G01 X8.1818 Y39.8191 
G01 X8.1327 Y39.8681 
G01 X8.0833 Y39.9175 
G01 X8.0235 Y39.9575 
G01 X7.9676 Y39.9949 
G01 X7.9069 Y40.0200 
G01 X7.8390 Y40.0482 
G01 X7.7754 Y40.0608 
G01 X7.7024 Y40.0754 
G01 X7.6330 Y40.0754 
G01 X7.5632 Y40.0754 
G01 X7.5024 Y40.0633 
G01 X7.4266 Y40.0482 
G01 X7.3577 Y40.0197 
G01 X7.2980 Y39.9950 
G01 X7.2322 Y39.9510 
G01 X7.1822 Y39.9176 
G01 X7.1332 Y39.8686 
G01 X7.0837 Y39.8192 
G01 X7.0438 Y39.7594 
G01 X7.0064 Y39.7034 
G01 X6.9813 Y39.6428 
G01 X6.9531 Y39.5748 
G01 X6.9404 Y39.5113 
G01 X6.9259 Y39.4383 
G01 X6.9259 Y39.3689 
G01 X6.9259 Y39.2990 
G01 X6.9259 Y9.3866 
G01 X6.9531 Y9.2501 
G01 X7.0063 Y9.1214 
G01 X7.0837 Y9.0057 
G01 X7.1332 Y8.9562 
G01 X10.1525 Y5.9368 
G01 X10.2015 Y5.8879 
G01 X10.2510 Y5.8384 
G01 X10.3667 Y5.7610 
G01 X10.4954 Y5.7078 
G01 X10.6319 Y5.6806 
G01 X25.0503 Y5.6806 
G01 X25.1869 Y5.7078 
G01 X25.2941 Y5.7522 
G01 X25.3155 Y5.7610 
G01 X25.4313 Y5.8384 
G01 X25.4852 Y5.8923 
G01 X25.5297 Y5.9368 
G01 X25.6071 Y6.0526 
G01 X25.6733 Y6.2125 
G01 X25.6338 Y6.0908 
G01 X25.6076 Y5.9256 
G01 X25.6076 Y5.6804 
G01 X10.4087 Y5.6804 
G01 X6.9257 Y9.1634 
G01 X6.9257 Y41.5392 
G01 X7.7375 Y42.3510 
G01 X8.1959 Y42.3510 
G01 X8.1959 Y42.1626 
G01 X8.2164 Y42.0861 
G01 X8.2559 Y42.0177 
G01 X8.3118 Y41.9617 
G01 X8.3803 Y41.9222 
G01 X8.4567 Y41.9017 
G01 X10.5424 Y41.9017 
G01 X10.6189 Y41.9222 
G01 X10.6873 Y41.9617 
G01 X10.7433 Y42.0177 
G01 X10.7828 Y42.0861 
G01 X10.8033 Y42.1626 
G01 X10.8033 Y43.7402 
G01 X10.7876 Y43.7990 
G01 X10.8035 Y43.7605 
G01 X10.8035 Y42.5504 
G01 X10.8258 Y42.4384 
G01 X10.8307 Y42.4139 
G01 X10.8650 Y42.3309 
G01 X10.8839 Y42.2852 
G01 X10.9350 Y42.2089 
G01 X10.9613 Y42.1695 
G01 X11.0098 Y42.1210 
G01 X11.0597 Y42.0710 
G01 X11.1755 Y41.9937 
G01 X11.2181 Y41.9760 
G01 X11.3041 Y41.9404 
G01 X11.3305 Y41.9352 
G01 X11.4407 Y41.9132 
G01 X11.5799 Y41.9132 
G01 X11.6919 Y41.9355 
G01 X11.7165 Y41.9404 
G01 X11.7994 Y41.9748 
G01 X11.8451 Y41.9937 
G01 X11.9214 Y42.0447 
G01 X11.9609 Y42.0710 
G01 X12.0199 Y42.1300 
G01 X12.0593 Y42.1695 
G01 X12.0817 Y42.1918 
G01 X12.1901 Y42.3003 
G01 X12.2675 Y42.4161 
G01 X12.3072 Y42.5119 
G01 X12.5247 Y42.7294 
G01 X12.6020 Y42.8452 
G01 X12.6248 Y42.9000 
G01 X12.6553 Y42.9738 
G01 X12.6768 Y43.0817 
G01 X12.6825 Y43.1104 
G01 X12.6825 Y43.2496 
G01 X12.6553 Y43.3862 
G01 X12.6339 Y43.4379 
G01 X12.6020 Y43.5148 
G01 X12.5247 Y43.6306 
G01 X12.4262 Y43.7290 
G01 X12.3072 Y43.8481 
G01 X12.2413 Y44.0072 
G01 X12.2994 Y43.8932 
G01 X12.3976 Y43.7579 
G01 X12.5159 Y43.6396 
G01 X12.6512 Y43.5414 
G01 X12.8002 Y43.4654 
G01 X12.9592 Y43.4138 
G01 X13.1244 Y43.3876 
G01 X14.8156 Y43.3876 
G01 X14.9808 Y43.4138 
G01 X15.1398 Y43.4654 
G01 X15.2888 Y43.5414 
G01 X15.4241 Y43.6396 
G01 X15.5424 Y43.7579 
G01 X15.6406 Y43.8932 
G01 X15.7166 Y44.0422 
G01 X15.7682 Y44.2012 
G01 X15.7944 Y44.3664 
G01 X15.7944 Y44.5336 
G01 X15.7682 Y44.6988 
G01 X15.7166 Y44.8578 
G01 X15.6406 Y45.0068 
G01 X15.5424 Y45.1421 
G01 X15.4241 Y45.2604 
G01 X15.2888 Y45.3586 
G01 X15.1398 Y45.4346 
G01 X14.9808 Y45.4862 
G01 X14.8156 Y45.5124 
G01 X13.7567 Y45.5124 
G01 X13.3004 Y45.9687 
G01 X13.3004 Y48.0113 
G01 X14.0187 Y48.7296 
G01 X14.8795 Y48.7296 
G01 X14.9560 Y48.7501 
G01 X15.0244 Y48.7896 
G01 X15.0804 Y48.8456 
G01 X15.1199 Y48.9140 
G01 X15.1404 Y48.9905 
G01 X15.1404 Y50.0695 
G01 X15.1199 Y50.1459 
G01 X15.0804 Y50.2144 
G01 X15.0244 Y50.2704 
G01 X14.9560 Y50.3099 
G01 X14.8795 Y50.3304 
G01 X13.4005 Y50.3304 
G01 X13.3417 Y50.3147 
G01 X13.3802 Y50.3306 
G01 X15.0492 Y50.3306 
G01 X15.1858 Y50.3578 
G01 X15.3144 Y50.4110 
G01 X15.3396 Y50.4279 
G01 X15.3396 Y49.9405 
G01 X15.3601 Y49.8640 
G01 X15.3996 Y49.7956 
G01 X15.4556 Y49.7396 
G01 X15.5240 Y49.7001 
G01 X15.6005 Y49.6796 
G01 X17.0031 Y49.6796 
G01 X17.0090 Y49.6499 
G01 X17.0281 Y49.6038 
G01 X17.0623 Y49.5212 
G01 X17.0855 Y49.4865 
G01 X17.1396 Y49.4055 
G01 X17.2381 Y49.3070 
G01 X17.2948 Y49.2503 
G01 X17.3108 Y49.2118 
G01 X17.2804 Y49.2644 
G01 X17.2244 Y49.3204 
G01 X17.1560 Y49.3599 
G01 X17.0795 Y49.3804 
G01 X15.6005 Y49.3804 
G01 X15.5240 Y49.3599 
G01 X15.4556 Y49.3204 
G01 X15.3996 Y49.2644 
G01 X15.3601 Y49.1960 
G01 X15.3396 Y49.1195 
G01 X15.3396 Y48.0404 
G01 X15.3601 Y47.9640 
G01 X15.3996 Y47.8956 
G01 X15.4556 Y47.8396 
G01 X15.5240 Y47.8001 
G01 X15.6005 Y47.7796 
G01 X16.2296 Y47.7796 
G01 X16.2296 Y27.5609 
G01 X16.2527 Y27.4449 
G01 X16.2979 Y27.3356 
G01 X16.3636 Y27.2373 
G01 X16.4473 Y27.1536 
G01 X18.5808 Y25.0201 
G01 X18.5889 Y24.9953 
G01 X18.6642 Y24.8474 
G01 X18.7617 Y24.7131 
G01 X18.8791 Y24.5957 
G01 X19.0134 Y24.4982 
G01 X19.1613 Y24.4229 
G01 X19.3191 Y24.3716 
G01 X19.4830 Y24.3456 
G01 X21.1570 Y24.3456 
G01 X21.3209 Y24.3716 
G01 X21.4787 Y24.4229 
G01 X21.6266 Y24.4982 
G01 X21.7609 Y24.5957 
G01 X21.8783 Y24.7131 
G01 X21.9758 Y24.8474 
G01 X22.0335 Y24.9605 
G01 X21.9680 Y24.8026 
G01 X21.7460 Y24.5806 
G01 X21.6686 Y24.4648 
G01 X21.6459 Y24.4100 
G01 X21.6153 Y24.3362 
G01 X21.5939 Y24.2283 
G01 X21.5882 Y24.1996 
G01 X21.5882 Y24.0604 
G01 X21.6154 Y23.9238 
G01 X21.6368 Y23.8721 
G01 X21.6686 Y23.7952 
G01 X21.7460 Y23.6794 
G01 X21.8444 Y23.5810 
G01 X21.9680 Y23.4574 
G01 X21.9767 Y23.4364 
G01 X22.0017 Y23.3761 
G01 X22.0300 Y23.3078 
G01 X22.0590 Y23.2644 
G01 X22.1074 Y23.1920 
G01 X22.1535 Y23.1459 
G01 X22.2058 Y23.0936 
G01 X23.3692 Y21.9302 
G01 X23.4606 Y21.7095 
G01 X23.4606 Y11.3105 
G01 X23.3692 Y11.0898 
G01 X23.0516 Y10.7722 
G01 X21.9302 Y9.6508 
G01 X21.7095 Y9.5594 
G01 X18.9305 Y9.5594 
G01 X18.7098 Y9.6508 
G01 X18.3922 Y9.9684 
G01 X17.2708 Y11.0898 
G01 X17.1794 Y11.3105 
G01 X17.1794 Y14.9181 
G01 X17.1522 Y15.0546 
G01 X17.0990 Y15.1833 
G01 X17.0216 Y15.2990 
G01 X17.0127 Y15.3080 
G01 X16.5475 Y15.7732 
G01 X16.4580 Y15.8627 
G01 X16.4490 Y15.8716 
G01 X16.3333 Y15.9490 
G01 X16.2594 Y15.9795 
G01 X16.2046 Y16.0022 
G01 X16.0681 Y16.0294 
G01 X15.5802 Y16.0294 
G01 X15.5417 Y16.0453 
G01 X15.6005 Y16.0296 
G01 X16.2913 Y16.0296 
G01 X17.1796 Y15.1413 
G01 X17.1796 Y11.3709 
G01 X17.2027 Y11.2549 
G01 X17.2479 Y11.1456 
G01 X17.3136 Y11.0473 
G01 X18.5836 Y9.7773 
G01 X18.6673 Y9.6936 
G01 X18.7656 Y9.6279 
G01 X18.8749 Y9.5827 
G01 X18.9909 Y9.5596 
G01 X21.6491 Y9.5596 
G01 X21.7651 Y9.5827 
G01 X21.8744 Y9.6279 
G01 X21.9727 Y9.6936 
G01 X23.2427 Y10.9636 
G01 X23.3264 Y11.0473 
G01 X23.3921 Y11.1456 
G01 X23.4373 Y11.2549 
G01 X23.4604 Y11.3709 
G01 X23.4604 Y21.6491 
G01 X23.4373 Y21.7651 
G01 X23.3921 Y21.8744 
G01 X23.3264 Y21.9727 
G01 X22.0592 Y23.2399 
G01 X22.0511 Y23.2647 
G01 X21.9758 Y23.4126 
G01 X21.8783 Y23.5469 
G01 X21.7609 Y23.6643 
G01 X21.6266 Y23.7618 
G01 X21.4787 Y23.8371 
G01 X21.3209 Y23.8884 
G01 X21.1570 Y23.9144 
G01 X19.4830 Y23.9144 
G01 X19.3191 Y23.8884 
G01 X19.1613 Y23.8371 
G01 X19.0134 Y23.7618 
G01 X18.8791 Y23.6643 
G01 X18.7617 Y23.5469 
G01 X18.6642 Y23.4126 
G01 X18.6065 Y23.2994 
G01 X18.6719 Y23.4574 
G01 X18.7956 Y23.5810 
G01 X18.8911 Y23.6765 
G01 X18.8940 Y23.6794 
G01 X18.9714 Y23.7952 
G01 X19.0019 Y23.8690 
G01 X19.0246 Y23.9238 
G01 X19.0518 Y24.0604 
G01 X19.0518 Y24.1996 
G01 X19.0467 Y24.2252 
G01 X19.0246 Y24.3362 
G01 X18.9928 Y24.4130 
G01 X18.9714 Y24.4648 
G01 X18.8940 Y24.5806 
G01 X18.7971 Y24.6775 
G01 X18.6719 Y24.8026 
G01 X18.6633 Y24.8236 
G01 X18.6352 Y24.8914 
G01 X18.6100 Y24.9522 
G01 X18.5843 Y24.9907 
G01 X18.5326 Y25.0680 
G01 X18.4865 Y25.1141 
G01 X18.4342 Y25.1664 
G01 X16.6384 Y26.9622 
G01 X16.5400 Y27.0606 
G01 X16.3208 Y27.2798 
G01 X16.2294 Y27.5005 
G01 X16.2294 Y32.7719 
G01 X16.2038 Y32.9007 
G01 X16.2022 Y32.9085 
G01 X16.1490 Y33.0371 
G01 X16.0716 Y33.1529 
G01 X15.9732 Y33.2513 
G01 X15.8574 Y33.3287 
G01 X15.7288 Y33.3819 
G01 X15.5922 Y33.4091 
G01 X15.4530 Y33.4091 
G01 X15.3242 Y33.3835 
G01 X15.3164 Y33.3819 
G01 X15.1878 Y33.3287 
G01 X15.1748 Y33.3233 
G01 X15.2888 Y33.3814 
G01 X15.4241 Y33.4796 
G01 X15.5424 Y33.5979 
G01 X15.6406 Y33.7332 
G01 X15.7166 Y33.8822 
G01 X15.7682 Y34.0412 
G01 X15.7944 Y34.2064 
G01 X15.7944 Y34.3736 
G01 X15.7682 Y34.5388 
G01 X15.7166 Y34.6978 
G01 X15.6406 Y34.8468 
G01 X15.5424 Y34.9821 
G01 X15.4241 Y35.1003 
G01 X15.2888 Y35.1986 
G01 X15.1398 Y35.2746 
G01 X14.9808 Y35.3262 
G01 X14.8156 Y35.3524 
G01 X13.1244 Y35.3524 
G01 X12.9592 Y35.3262 
G01 X12.8002 Y35.2746 
G01 X12.6512 Y35.1986 
G01 X12.5159 Y35.1003 
G01 X12.3976 Y34.9821 
G01 X12.3310 Y34.8904 
G01 X11.3709 Y34.8904 
G01 X11.2549 Y34.8673 
G01 X11.1456 Y34.8221 
G01 X11.0473 Y34.7564 
G01 X10.9636 Y34.6727 
G01 X9.7773 Y33.4864 
G01 X9.6936 Y33.4027 
G01 X9.6279 Y33.3044 
G01 X9.5827 Y33.1951 
G01 X9.5596 Y33.0791 
G01 X9.5596 Y21.5309 
G01 X9.5827 Y21.4149 
G01 X9.6279 Y21.3056 
G01 X9.6936 Y21.2073 
G01 X13.1396 Y17.7613 
G01 X13.1396 Y17.2404 
G01 X13.1553 Y17.1817 
G01 X13.1394 Y17.2202 
G01 X13.1394 Y17.5381 
G01 X13.1122 Y17.6746 
G01 X13.0590 Y17.8033 
G01 X12.9816 Y17.9190 
G01 X12.8832 Y18.0175 
G01 X9.6508 Y21.2498 
G01 X9.5594 Y21.4705 
G01 X9.5594 Y33.1395 
G01 X9.6508 Y33.3602 
G01 X9.9684 Y33.6778 
G01 X10.8706 Y34.5800 
G01 X11.0898 Y34.7992 
G01 X11.3105 Y34.8906 
G01 X12.0079 Y34.8906 
G01 X12.1445 Y34.9178 
G01 X12.1962 Y34.9392 
G01 X12.2731 Y34.9710 
G01 X12.3889 Y35.0484 
G01 X12.4873 Y35.1468 
G01 X12.5119 Y35.1837 
G01 X12.5647 Y35.2626 
G01 X12.6034 Y35.3562 
G01 X12.6179 Y35.3912 
G01 X12.6380 Y35.4920 
G01 X12.6451 Y35.5278 
G01 X12.6451 Y35.6670 
G01 X12.6179 Y35.8036 
G01 X12.5965 Y35.8553 
G01 X12.5647 Y35.9322 
G01 X12.4873 Y36.0480 
G01 X12.3889 Y36.1464 
G01 X12.3072 Y36.2281 
G01 X12.2413 Y36.3872 
G01 X12.2994 Y36.2732 
G01 X12.3976 Y36.1379 
G01 X12.5159 Y36.0196 
G01 X12.6512 Y35.9214 
G01 X12.8002 Y35.8454 
G01 X12.9592 Y35.7938 
G01 X13.1244 Y35.7676 
G01 X14.8156 Y35.7676 
G01 X14.9808 Y35.7938 
G01 X15.1398 Y35.8454 
G01 X15.2888 Y35.9214 
G01 X15.4241 Y36.0196 
G01 X15.5424 Y36.1379 
G01 X15.6406 Y36.2732 
G01 X15.7166 Y36.4222 
G01 X15.7682 Y36.5812 
G01 X15.7944 Y36.7464 
G01 X15.7944 Y36.9136 
G01 X15.7682 Y37.0788 
G01 X15.7166 Y37.2378 
G01 X15.6406 Y37.3868 
G01 X15.5424 Y37.5221 
G01 X15.4241 Y37.6404 
G01 X15.2888 Y37.7386 
G01 X15.1398 Y37.8146 
G01 X14.9808 Y37.8662 
G01 X14.8156 Y37.8924 
G01 X13.3004 Y37.8924 
G01 X13.3004 Y39.4291 
G01 X13.2773 Y39.5451 
G01 X13.2321 Y39.6544 
G01 X13.1664 Y39.7527 
G01 X13.0827 Y39.8364 
G01 X12.2537 Y40.6654 
G01 X12.6155 Y41.0273 
G01 X12.6512 Y41.0014 
G01 X12.8002 Y40.9254 
G01 X12.9592 Y40.8738 
G01 X13.1244 Y40.8476 
G01 X14.8156 Y40.8476 
G01 X14.9808 Y40.8738 
G01 X15.1398 Y40.9254 
G01 X15.2888 Y41.0014 
G01 X15.4241 Y41.0996 
G01 X15.5424 Y41.2179 
G01 X15.6406 Y41.3532 
G01 X15.7166 Y41.5022 
G01 X15.7682 Y41.6612 
G01 X15.7944 Y41.8264 
G01 X15.7944 Y41.9936 
G01 X15.7682 Y42.1588 
G01 X15.7166 Y42.3178 
G01 X15.6406 Y42.4668 
G01 X15.5424 Y42.6021 
G01 X15.4241 Y42.7204 
G01 X15.2888 Y42.8186 
G01 X15.1398 Y42.8946 
G01 X14.9808 Y42.9462 
G01 X14.8156 Y42.9724 
G01 X13.1244 Y42.9724 
G01 X12.9592 Y42.9462 
G01 X12.8002 Y42.8946 
G01 X12.6512 Y42.8186 
G01 X12.5159 Y42.7204 
G01 X12.3976 Y42.6021 
G01 X12.2994 Y42.4668 
G01 X12.2395 Y42.3494 
G01 X12.2336 Y42.3435 
G01 X11.1559 Y41.2658 
G01 X10.8033 Y41.2658 
G01 X10.8033 Y41.4542 
G01 X10.7828 Y41.5307 
G01 X10.7433 Y41.5991 
G01 X10.6873 Y41.6551 
G01 X10.6189 Y41.6946 
G01 X10.5424 Y41.7151 
G00 Z2.5400 
G00 X12.0996 Y45.6609 
G01 Z-0.1000 F18.00 
G01 X12.1227 Y45.5449 F24.00 
G01 X12.1679 Y45.4356 
G01 X12.2336 Y45.3373 
G01 X12.3173 Y45.2536 
G01 X12.4132 Y45.1577 
G01 X12.3976 Y45.1421 
G01 X12.2994 Y45.0068 
G01 X12.2330 Y44.8765 
G01 X12.2449 Y44.9366 
G01 X12.2587 Y45.0058 
G01 X12.2587 Y45.1450 
G01 X12.2482 Y45.1978 
G01 X12.2315 Y45.2816 
G01 X12.1918 Y45.3774 
G01 X12.0994 Y45.6005 
G01 X12.0994 Y48.3795 
G01 X12.1908 Y48.6002 
G01 X12.9816 Y49.3910 
G01 X13.0590 Y49.5067 
G01 X13.1122 Y49.6354 
G01 X13.1394 Y49.7719 
G01 X13.1394 Y50.0898 
G01 X13.1553 Y50.1283 
G01 X13.1396 Y50.0695 
G01 X13.1396 Y49.5487 
G01 X12.2336 Y48.6427 
G01 X12.1679 Y48.5444 
G01 X12.1227 Y48.4351 
G01 X12.0996 Y48.3191 
G01 X12.0996 Y48.2009 
G01 X12.0996 Y45.6609 
G00 Z2.5400 
G00 X17.3404 Y49.1195 
G01 Z-0.1000 F18.00 
G01 X17.3247 Y49.1783 F24.00 
G01 X17.3406 Y49.1398 
G01 X17.3406 Y49.1269 
G01 X17.3551 Y49.0538 
G01 X17.3678 Y48.9903 
G01 X17.3979 Y48.9176 
G01 X17.4210 Y48.8617 
G01 X17.4694 Y48.7893 
G01 X17.4984 Y48.7460 
G01 X17.5635 Y48.6808 
G01 X17.5968 Y48.6475 
G01 X17.6538 Y48.6094 
G01 X17.7126 Y48.5702 
G01 X17.7577 Y48.5515 
G01 X17.8412 Y48.5169 
G01 X17.8959 Y48.5060 
G01 X17.9778 Y48.4897 
G01 X18.0467 Y48.4897 
G01 X18.1170 Y48.4897 
G01 X18.1901 Y48.5043 
G01 X18.2536 Y48.5169 
G01 X18.3263 Y48.5470 
G01 X18.3822 Y48.5702 
G01 X18.4546 Y48.6185 
G01 X18.4980 Y48.6475 
G01 X18.5631 Y48.7127 
G01 X18.5964 Y48.7460 
G01 X18.6345 Y48.8029 
G01 X18.6686 Y48.8541 
G01 X18.9686 Y49.1540 
G01 X19.1266 Y49.2195 
G01 X19.0134 Y49.1618 
G01 X18.8791 Y49.0643 
G01 X18.7617 Y48.9469 
G01 X18.6642 Y48.8126 
G01 X18.5889 Y48.6647 
G01 X18.5376 Y48.5069 
G01 X18.5116 Y48.3430 
G01 X18.5116 Y48.1770 
G01 X18.5376 Y48.0131 
G01 X18.5889 Y47.8553 
G01 X18.6642 Y47.7074 
G01 X18.7617 Y47.5731 
G01 X18.8791 Y47.4557 
G01 X19.0134 Y47.3582 
G01 X19.1613 Y47.2829 
G01 X19.3191 Y47.2316 
G01 X19.4830 Y47.2056 
G01 X21.1570 Y47.2056 
G01 X21.3209 Y47.2316 
G01 X21.4787 Y47.2829 
G01 X21.6266 Y47.3582 
G01 X21.7609 Y47.4557 
G01 X21.8783 Y47.5731 
G01 X21.9758 Y47.7074 
G01 X22.0335 Y47.8205 
G01 X21.9680 Y47.6626 
G01 X21.7460 Y47.4406 
G01 X21.6686 Y47.3248 
G01 X21.6459 Y47.2700 
G01 X21.6153 Y47.1962 
G01 X21.5939 Y47.0883 
G01 X21.5882 Y47.0596 
G01 X21.5882 Y46.9204 
G01 X21.6154 Y46.7838 
G01 X21.6368 Y46.7321 
G01 X21.6686 Y46.6552 
G01 X21.7460 Y46.5394 
G01 X21.8444 Y46.4410 
G01 X21.9680 Y46.3174 
G01 X22.0335 Y46.1595 
G01 X21.9758 Y46.2726 
G01 X21.8783 Y46.4069 
G01 X21.7609 Y46.5243 
G01 X21.6266 Y46.6218 
G01 X21.4787 Y46.6971 
G01 X21.3209 Y46.7484 
G01 X21.1570 Y46.7744 
G01 X19.4830 Y46.7744 
G01 X19.3191 Y46.7484 
G01 X19.1613 Y46.6971 
G01 X19.0134 Y46.6218 
G01 X18.8791 Y46.5243 
G01 X18.7617 Y46.4069 
G01 X18.6642 Y46.2726 
G01 X18.5889 Y46.1247 
G01 X18.5376 Y45.9669 
G01 X18.5116 Y45.8030 
G01 X18.5116 Y45.6370 
G01 X18.5376 Y45.4731 
G01 X18.5889 Y45.3152 
G01 X18.6642 Y45.1674 
G01 X18.7617 Y45.0331 
G01 X18.8791 Y44.9157 
G01 X19.0134 Y44.8182 
G01 X19.1613 Y44.7429 
G01 X19.3191 Y44.6916 
G01 X19.4830 Y44.6656 
G01 X21.1570 Y44.6656 
G01 X21.3209 Y44.6916 
G01 X21.4787 Y44.7429 
G01 X21.6266 Y44.8182 
G01 X21.7609 Y44.9157 
G01 X21.8783 Y45.0331 
G01 X21.9758 Y45.1674 
G01 X22.0335 Y45.2805 
G01 X21.9680 Y45.1226 
G01 X21.7460 Y44.9006 
G01 X21.6686 Y44.7848 
G01 X21.6459 Y44.7300 
G01 X21.6153 Y44.6562 
G01 X21.5939 Y44.5483 
G01 X21.5882 Y44.5196 
G01 X21.5882 Y44.3804 
G01 X21.6154 Y44.2438 
G01 X21.6368 Y44.1921 
G01 X21.6686 Y44.1152 
G01 X21.7460 Y43.9994 
G01 X21.8444 Y43.9010 
G01 X21.9680 Y43.7774 
G01 X22.0335 Y43.6195 
G01 X21.9758 Y43.7326 
G01 X21.8783 Y43.8669 
G01 X21.7609 Y43.9843 
G01 X21.6266 Y44.0818 
G01 X21.4787 Y44.1571 
G01 X21.3209 Y44.2084 
G01 X21.1570 Y44.2344 
G01 X19.4830 Y44.2344 
G01 X19.3191 Y44.2084 
G01 X19.1613 Y44.1571 
G01 X19.0134 Y44.0818 
G01 X18.8791 Y43.9843 
G01 X18.7617 Y43.8669 
G01 X18.6642 Y43.7326 
G01 X18.5889 Y43.5847 
G01 X18.5376 Y43.4269 
G01 X18.5116 Y43.2630 
G01 X18.5116 Y43.0970 
G01 X18.5376 Y42.9331 
G01 X18.5889 Y42.7752 
G01 X18.6642 Y42.6274 
G01 X18.7617 Y42.4931 
G01 X18.8791 Y42.3757 
G01 X19.0134 Y42.2782 
G01 X19.1613 Y42.2029 
G01 X19.3191 Y42.1516 
G01 X19.4830 Y42.1256 
G01 X21.1570 Y42.1256 
G01 X21.3209 Y42.1516 
G01 X21.4787 Y42.2029 
G01 X21.6266 Y42.2782 
G01 X21.7609 Y42.3757 
G01 X21.8783 Y42.4931 
G01 X21.9758 Y42.6274 
G01 X22.0335 Y42.7405 
G01 X21.9680 Y42.5826 
G01 X21.7460 Y42.3606 
G01 X21.6686 Y42.2448 
G01 X21.6459 Y42.1900 
G01 X21.6153 Y42.1162 
G01 X21.5939 Y42.0083 
G01 X21.5882 Y41.9796 
G01 X21.5882 Y41.8404 
G01 X21.6154 Y41.7038 
G01 X21.6368 Y41.6521 
G01 X21.6686 Y41.5752 
G01 X21.7460 Y41.4594 
G01 X21.8444 Y41.3610 
G01 X21.9680 Y41.2374 
G01 X22.0335 Y41.0795 
G01 X21.9758 Y41.1926 
G01 X21.8783 Y41.3269 
G01 X21.7609 Y41.4443 
G01 X21.6266 Y41.5418 
G01 X21.4787 Y41.6171 
G01 X21.3209 Y41.6684 
G01 X21.1570 Y41.6944 
G01 X19.4830 Y41.6944 
G01 X19.3191 Y41.6684 
G01 X19.1613 Y41.6171 
G01 X19.0134 Y41.5418 
G01 X18.8791 Y41.4443 
G01 X18.7617 Y41.3269 
G01 X18.6642 Y41.1926 
G01 X18.5889 Y41.0447 
G01 X18.5376 Y40.8869 
G01 X18.5116 Y40.7230 
G01 X18.5116 Y40.5570 
G01 X18.5376 Y40.3931 
G01 X18.5889 Y40.2353 
G01 X18.6642 Y40.0874 
G01 X18.7617 Y39.9531 
G01 X18.8791 Y39.8357 
G01 X19.0134 Y39.7382 
G01 X19.1613 Y39.6628 
G01 X19.3191 Y39.6116 
G01 X19.4830 Y39.5856 
G01 X21.1570 Y39.5856 
G01 X21.3209 Y39.6116 
G01 X21.4787 Y39.6628 
G01 X21.6266 Y39.7382 
G01 X21.7609 Y39.8357 
G01 X21.8783 Y39.9531 
G01 X21.9758 Y40.0874 
G01 X22.0335 Y40.2005 
G01 X21.9680 Y40.0426 
G01 X21.7460 Y39.8206 
G01 X21.6686 Y39.7048 
G01 X21.6459 Y39.6500 
G01 X21.6153 Y39.5762 
G01 X21.5939 Y39.4683 
G01 X21.5882 Y39.4396 
G01 X21.5882 Y39.3004 
G01 X21.6154 Y39.1638 
G01 X21.6368 Y39.1121 
G01 X21.6686 Y39.0352 
G01 X21.7460 Y38.9194 
G01 X21.8444 Y38.8210 
G01 X21.9680 Y38.6974 
G01 X22.0335 Y38.5395 
G01 X21.9758 Y38.6526 
G01 X21.8783 Y38.7869 
G01 X21.7609 Y38.9043 
G01 X21.6266 Y39.0018 
G01 X21.4787 Y39.0771 
G01 X21.3209 Y39.1284 
G01 X21.1570 Y39.1544 
G01 X19.4830 Y39.1544 
G01 X19.3191 Y39.1284 
G01 X19.1613 Y39.0771 
G01 X19.0134 Y39.0018 
G01 X18.8791 Y38.9043 
G01 X18.7617 Y38.7869 
G01 X18.6642 Y38.6526 
G01 X18.5889 Y38.5047 
G01 X18.5376 Y38.3469 
G01 X18.5116 Y38.1830 
G01 X18.5116 Y38.0170 
G01 X18.5376 Y37.8531 
G01 X18.5889 Y37.6953 
G01 X18.6642 Y37.5474 
G01 X18.7617 Y37.4131 
G01 X18.8791 Y37.2957 
G01 X19.0134 Y37.1982 
G01 X19.1613 Y37.1228 
G01 X19.3191 Y37.0716 
G01 X19.4830 Y37.0456 
G01 X21.1570 Y37.0456 
G01 X21.3209 Y37.0716 
G01 X21.4787 Y37.1228 
G01 X21.6266 Y37.1982 
G01 X21.7609 Y37.2957 
G01 X21.8783 Y37.4131 
G01 X21.9758 Y37.5474 
G01 X22.0335 Y37.6605 
G01 X21.9680 Y37.5026 
G01 X21.7460 Y37.2806 
G01 X21.6686 Y37.1648 
G01 X21.6459 Y37.1100 
G01 X21.6153 Y37.0362 
G01 X21.5939 Y36.9283 
G01 X21.5882 Y36.8996 
G01 X21.5882 Y36.7604 
G01 X21.6154 Y36.6238 
G01 X21.6368 Y36.5721 
G01 X21.6686 Y36.4952 
G01 X21.7460 Y36.3794 
G01 X21.8444 Y36.2810 
G01 X21.9680 Y36.1574 
G01 X22.0335 Y35.9995 
G01 X21.9758 Y36.1126 
G01 X21.8783 Y36.2469 
G01 X21.7609 Y36.3642 
G01 X21.6266 Y36.4618 
G01 X21.4787 Y36.5371 
G01 X21.3209 Y36.5884 
G01 X21.1570 Y36.6144 
G01 X19.4830 Y36.6144 
G01 X19.3191 Y36.5884 
G01 X19.1613 Y36.5371 
G01 X19.0134 Y36.4618 
G01 X18.8791 Y36.3642 
G01 X18.7617 Y36.2469 
G01 X18.6642 Y36.1126 
G01 X18.5889 Y35.9647 
G01 X18.5376 Y35.8069 
G01 X18.5116 Y35.6430 
G01 X18.5116 Y35.4770 
G01 X18.5376 Y35.3131 
G01 X18.5889 Y35.1553 
G01 X18.6642 Y35.0074 
G01 X18.7617 Y34.8731 
G01 X18.8791 Y34.7557 
G01 X19.0134 Y34.6582 
G01 X19.1613 Y34.5829 
G01 X19.3191 Y34.5316 
G01 X19.4830 Y34.5056 
G01 X21.1570 Y34.5056 
G01 X21.3209 Y34.5316 
G01 X21.4787 Y34.5829 
G01 X21.6266 Y34.6582 
G01 X21.7609 Y34.7557 
G01 X21.8783 Y34.8731 
G01 X21.9758 Y35.0074 
G01 X22.0335 Y35.1206 
G01 X21.9680 Y34.9626 
G01 X21.7460 Y34.7406 
G01 X21.6686 Y34.6248 
G01 X21.6459 Y34.5700 
G01 X21.6153 Y34.4962 
G01 X21.5939 Y34.3883 
G01 X21.5882 Y34.3596 
G01 X21.5882 Y34.2204 
G01 X21.6154 Y34.0838 
G01 X21.6368 Y34.0321 
G01 X21.6686 Y33.9552 
G01 X21.7460 Y33.8394 
G01 X21.8444 Y33.7410 
G01 X21.9680 Y33.6174 
G01 X22.0335 Y33.4595 
G01 X21.9758 Y33.5726 
G01 X21.8783 Y33.7069 
G01 X21.7609 Y33.8242 
G01 X21.6266 Y33.9218 
G01 X21.4787 Y33.9971 
G01 X21.3209 Y34.0484 
G01 X21.1570 Y34.0744 
G01 X19.4830 Y34.0744 
G01 X19.3191 Y34.0484 
G01 X19.1613 Y33.9971 
G01 X19.0134 Y33.9218 
G01 X18.8791 Y33.8242 
G01 X18.7617 Y33.7069 
G01 X18.6642 Y33.5726 
G01 X18.5889 Y33.4247 
G01 X18.5376 Y33.2669 
G01 X18.5116 Y33.1030 
G01 X18.5116 Y32.9370 
G01 X18.5376 Y32.7731 
G01 X18.5889 Y32.6153 
G01 X18.6642 Y32.4674 
G01 X18.7617 Y32.3331 
G01 X18.8791 Y32.2157 
G01 X19.0134 Y32.1182 
G01 X19.1613 Y32.0429 
G01 X19.3191 Y31.9916 
G01 X19.4830 Y31.9656 
G01 X21.1570 Y31.9656 
G01 X21.3209 Y31.9916 
G01 X21.4787 Y32.0429 
G01 X21.6266 Y32.1182 
G01 X21.7609 Y32.2157 
G01 X21.8783 Y32.3331 
G01 X21.9758 Y32.4674 
G01 X22.0335 Y32.5806 
G01 X21.9680 Y32.4226 
G01 X21.8444 Y32.2990 
G01 X21.7489 Y32.2035 
G01 X21.7460 Y32.2006 
G01 X21.6686 Y32.0848 
G01 X21.6381 Y32.0110 
G01 X21.6154 Y31.9562 
G01 X21.5882 Y31.8196 
G01 X21.5882 Y31.6804 
G01 X21.5933 Y31.6548 
G01 X21.6153 Y31.5438 
G01 X21.6472 Y31.4669 
G01 X21.6686 Y31.4152 
G01 X21.7460 Y31.2994 
G01 X21.8429 Y31.2025 
G01 X21.9680 Y31.0774 
G01 X22.0335 Y30.9195 
G01 X21.9758 Y31.0326 
G01 X21.8783 Y31.1669 
G01 X21.7609 Y31.2843 
G01 X21.6266 Y31.3818 
G01 X21.4787 Y31.4571 
G01 X21.3209 Y31.5084 
G01 X21.1570 Y31.5344 
G01 X19.4830 Y31.5344 
G01 X19.3191 Y31.5084 
G01 X19.1613 Y31.4571 
G01 X19.0134 Y31.3818 
G01 X18.8791 Y31.2843 
G01 X18.7617 Y31.1669 
G01 X18.6642 Y31.0326 
G01 X18.5889 Y30.8847 
G01 X18.5376 Y30.7269 
G01 X18.5116 Y30.5630 
G01 X18.5116 Y30.3970 
G01 X18.5376 Y30.2331 
G01 X18.5889 Y30.0753 
G01 X18.6642 Y29.9274 
G01 X18.7617 Y29.7931 
G01 X18.8791 Y29.6757 
G01 X19.0134 Y29.5782 
G01 X19.1613 Y29.5029 
G01 X19.3191 Y29.4516 
G01 X19.4830 Y29.4256 
G01 X21.1570 Y29.4256 
G01 X21.3209 Y29.4516 
G01 X21.4787 Y29.5029 
G01 X21.6266 Y29.5782 
G01 X21.7609 Y29.6757 
G01 X21.8783 Y29.7931 
G01 X21.9758 Y29.9274 
G01 X22.0335 Y30.0405 
G01 X21.9680 Y29.8826 
G01 X21.7460 Y29.6606 
G01 X21.6686 Y29.5448 
G01 X21.6459 Y29.4900 
G01 X21.6153 Y29.4162 
G01 X21.5939 Y29.3083 
G01 X21.5882 Y29.2796 
G01 X21.5882 Y29.1404 
G01 X21.6154 Y29.0038 
G01 X21.6368 Y28.9521 
G01 X21.6686 Y28.8752 
G01 X21.7460 Y28.7594 
G01 X21.8444 Y28.6610 
G01 X21.9680 Y28.5374 
G01 X22.0335 Y28.3795 
G01 X21.9758 Y28.4926 
G01 X21.8783 Y28.6269 
G01 X21.7609 Y28.7443 
G01 X21.6266 Y28.8418 
G01 X21.4787 Y28.9171 
G01 X21.3209 Y28.9684 
G01 X21.1570 Y28.9944 
G01 X19.4830 Y28.9944 
G01 X19.3191 Y28.9684 
G01 X19.1613 Y28.9171 
G01 X19.0134 Y28.8418 
G01 X18.8791 Y28.7443 
G01 X18.7617 Y28.6269 
G01 X18.6642 Y28.4926 
G01 X18.5889 Y28.3447 
G01 X18.5376 Y28.1869 
G01 X18.5116 Y28.0230 
G01 X18.5116 Y27.8570 
G01 X18.5376 Y27.6931 
G01 X18.5889 Y27.5353 
G01 X18.6642 Y27.3874 
G01 X18.7617 Y27.2531 
G01 X18.8791 Y27.1357 
G01 X19.0134 Y27.0382 
G01 X19.1613 Y26.9628 
G01 X19.3191 Y26.9116 
G01 X19.4830 Y26.8856 
G01 X21.1570 Y26.8856 
G01 X21.3209 Y26.9116 
G01 X21.4787 Y26.9628 
G01 X21.6266 Y27.0382 
G01 X21.7609 Y27.1357 
G01 X21.8783 Y27.2531 
G01 X21.9758 Y27.3874 
G01 X22.0335 Y27.5005 
G01 X21.9680 Y27.3426 
G01 X21.7460 Y27.1206 
G01 X21.6686 Y27.0048 
G01 X21.6459 Y26.9500 
G01 X21.6153 Y26.8762 
G01 X21.5939 Y26.7683 
G01 X21.5882 Y26.7396 
G01 X21.5882 Y26.6004 
G01 X21.6154 Y26.4638 
G01 X21.6368 Y26.4121 
G01 X21.6686 Y26.3352 
G01 X21.7460 Y26.2194 
G01 X21.8444 Y26.1210 
G01 X21.9680 Y25.9974 
G01 X22.0335 Y25.8395 
G01 X21.9758 Y25.9526 
G01 X21.8783 Y26.0869 
G01 X21.7609 Y26.2043 
G01 X21.6266 Y26.3018 
G01 X21.4787 Y26.3771 
G01 X21.3209 Y26.4284 
G01 X21.1570 Y26.4544 
G01 X19.4830 Y26.4544 
G01 X19.3191 Y26.4284 
G01 X19.1613 Y26.3771 
G01 X19.0134 Y26.3018 
G01 X19.0041 Y26.2950 
G01 X17.4304 Y27.8687 
G01 X17.4304 Y48.1491 
G01 X17.4073 Y48.2651 
G01 X17.3621 Y48.3744 
G01 X17.3404 Y48.4068 
G01 X17.3404 Y49.1195 
G00 Z2.5400 
G00 X25.6076 Y4.2344 
G01 Z-0.1000 F18.00 
G01 X25.6338 Y4.0692 F24.00 
G01 X25.6733 Y3.9475 
G01 X25.6604 Y3.9788 
G01 X25.6071 Y4.1074 
G01 X25.5297 Y4.2232 
G01 X25.4328 Y4.3201 
G01 X25.3155 Y4.3990 
G01 X25.2417 Y4.4295 
G01 X25.1869 Y4.4522 
G01 X25.0503 Y4.4794 
G01 X10.0405 Y4.4794 
G01 X9.8198 Y4.5708 
G01 X9.6007 Y4.7900 
G01 X9.5022 Y4.8884 
G01 X5.8161 Y8.5745 
G01 X5.7247 Y8.7952 
G01 X5.7247 Y38.1941 
G01 X5.6975 Y38.3307 
G01 X5.6761 Y38.3824 
G01 X5.6443 Y38.4593 
G01 X5.5669 Y38.5751 
G01 X5.4685 Y38.6735 
G01 X5.4316 Y38.6982 
G01 X5.3527 Y38.7509 
G01 X5.2591 Y38.7896 
G01 X5.2241 Y38.8042 
G01 X5.1233 Y38.8242 
G01 X5.0875 Y38.8313 
G01 X4.9483 Y38.8313 
G01 X4.8117 Y38.8042 
G01 X4.7600 Y38.7827 
G01 X4.6831 Y38.7509 
G01 X4.5673 Y38.6735 
G01 X4.4689 Y38.5751 
G01 X4.3740 Y38.4802 
G01 X4.3355 Y38.4642 
G01 X4.3881 Y38.4946 
G01 X4.4441 Y38.5506 
G01 X4.4836 Y38.6190 
G01 X4.5041 Y38.6955 
G01 X4.5041 Y42.5845 
G01 X4.4884 Y42.6433 
G01 X4.5043 Y42.6048 
G01 X4.5043 Y42.5839 
G01 X4.5043 Y42.5147 
G01 X4.5043 Y42.4448 
G01 X4.5198 Y42.3669 
G01 X4.5315 Y42.3082 
G01 X4.5583 Y42.2435 
G01 X4.5847 Y42.1796 
G01 X4.6237 Y42.1212 
G01 X4.6621 Y42.0638 
G01 X4.7182 Y42.0077 
G01 X4.7605 Y41.9654 
G01 X4.8241 Y41.9229 
G01 X4.8763 Y41.8880 
G01 X4.9530 Y41.8563 
G01 X5.0049 Y41.8347 
G01 X5.0758 Y41.8206 
G01 X5.1415 Y41.8076 
G01 X5.2108 Y41.8076 
G01 X5.2807 Y41.8076 
G01 X5.3586 Y41.8231 
G01 X5.4173 Y41.8347 
G01 X5.4820 Y41.8615 
G01 X5.5459 Y41.8880 
G01 X5.6042 Y41.9270 
G01 X5.6617 Y41.9654 
G01 X5.7177 Y42.0215 
G01 X5.7601 Y42.0638 
G01 X5.7768 Y42.0888 
G01 X7.1486 Y43.4606 
G01 X7.3693 Y43.5520 
G01 X7.7067 Y43.5520 
G01 X7.7960 Y43.5698 
G01 X7.8432 Y43.5792 
G01 X7.8729 Y43.5915 
G01 X7.9719 Y43.6324 
G01 X8.0876 Y43.7098 
G01 X8.1845 Y43.8067 
G01 X8.2009 Y43.8304 
G01 X8.3260 Y43.9555 
G01 X8.3645 Y43.9715 
G01 X8.3118 Y43.9411 
G01 X8.2559 Y43.8851 
G01 X8.2164 Y43.8167 
G01 X8.1959 Y43.7402 
G01 X8.1959 Y43.5518 
G01 X7.4297 Y43.5518 
G01 X7.3137 Y43.5287 
G01 X7.2044 Y43.4835 
G01 X7.1061 Y43.4178 
G01 X5.9426 Y42.2543 
G01 X5.8589 Y42.1706 
G01 X5.7932 Y42.0723 
G01 X5.7480 Y41.9630 
G01 X5.7249 Y41.8470 
G01 X5.7249 Y8.8556 
G01 X5.7480 Y8.7396 
G01 X5.7932 Y8.6303 
G01 X5.8589 Y8.5320 
G01 X9.6936 Y4.6973 
G01 X9.7773 Y4.6136 
G01 X9.8756 Y4.5479 
G01 X9.9849 Y4.5027 
G01 X10.1009 Y4.4796 
G01 X25.6076 Y4.4796 
G01 X25.6076 Y4.2344 
G00 Z2.5400 
G00 X22.1286 Y48.0502 
G01 Z-0.1000 F18.00 
G01 X22.0632 Y47.8923 F24.00 
G01 X22.1024 Y48.0131 
G01 X22.1284 Y48.1770 
G01 X22.1284 Y48.3430 
G01 X22.1024 Y48.5069 
G01 X22.0632 Y48.6277 
G01 X22.1286 Y48.4698 
G01 X22.1286 Y48.0502 
G00 Z2.5400 
G00 X21.9680 Y48.8574 
G01 Z-0.1000 F18.00 
G01 X22.0335 Y48.6995 F24.00 
G01 X21.9758 Y48.8126 
G01 X21.8783 Y48.9469 
G01 X21.7609 Y49.0643 
G01 X21.6266 Y49.1618 
G01 X21.5135 Y49.2195 
G01 X21.6714 Y49.1540 
G01 X21.9680 Y48.8574 
G00 Z2.5400 
G00 X21.2838 Y49.3146 
G01 Z-0.1000 F18.00 
G01 X21.4417 Y49.2492 F24.00 
G01 X21.3209 Y49.2884 
G01 X21.1570 Y49.3144 
G01 X19.4830 Y49.3144 
G01 X19.3191 Y49.2884 
G01 X19.1983 Y49.2492 
G01 X19.3562 Y49.3146 
G01 X21.2838 Y49.3146 
G00 Z2.5400 
G00 X22.1286 Y45.5102 
G01 Z-0.1000 F18.00 
G01 X22.0632 Y45.3523 F24.00 
G01 X22.1024 Y45.4731 
G01 X22.1284 Y45.6370 
G01 X22.1284 Y45.8030 
G01 X22.1024 Y45.9669 
G01 X22.0632 Y46.0877 
G01 X22.1286 Y45.9298 
G01 X22.1286 Y45.5102 
G00 Z2.5400 
G00 X22.1286 Y42.9702 
G01 Z-0.1000 F18.00 
G01 X22.0632 Y42.8123 F24.00 
G01 X22.1024 Y42.9331 
G01 X22.1284 Y43.0970 
G01 X22.1284 Y43.2630 
G01 X22.1024 Y43.4269 
G01 X22.0632 Y43.5477 
G01 X22.1286 Y43.3898 
G01 X22.1286 Y42.9702 
G00 Z2.5400 
G00 X22.1286 Y40.4302 
G01 Z-0.1000 F18.00 
G01 X22.0632 Y40.2723 F24.00 
G01 X22.1024 Y40.3931 
G01 X22.1284 Y40.5570 
G01 X22.1284 Y40.7230 
G01 X22.1024 Y40.8869 
G01 X22.0632 Y41.0077 
G01 X22.1286 Y40.8498 
G01 X22.1286 Y40.4302 
G00 Z2.5400 
G00 X22.1286 Y37.8902 
G01 Z-0.1000 F18.00 
G01 X22.0632 Y37.7323 F24.00 
G01 X22.1024 Y37.8531 
G01 X22.1284 Y38.0170 
G01 X22.1284 Y38.1830 
G01 X22.1024 Y38.3469 
G01 X22.0632 Y38.4677 
G01 X22.1286 Y38.3098 
G01 X22.1286 Y37.8902 
G00 Z2.5400 
G00 X22.1286 Y35.3502 
G01 Z-0.1000 F18.00 
G01 X22.0632 Y35.1923 F24.00 
G01 X22.1024 Y35.3131 
G01 X22.1284 Y35.4770 
G01 X22.1284 Y35.6430 
G01 X22.1024 Y35.8069 
G01 X22.0632 Y35.9277 
G01 X22.1286 Y35.7698 
G01 X22.1286 Y35.3502 
G00 Z2.5400 
G00 X22.1286 Y32.8102 
G01 Z-0.1000 F18.00 
G01 X22.0632 Y32.6523 F24.00 
G01 X22.1024 Y32.7731 
G01 X22.1284 Y32.9370 
G01 X22.1284 Y33.1030 
G01 X22.1024 Y33.2669 
G01 X22.0632 Y33.3877 
G01 X22.1286 Y33.2298 
G01 X22.1286 Y32.8102 
G00 Z2.5400 
G00 X22.1286 Y30.2702 
G01 Z-0.1000 F18.00 
G01 X22.0632 Y30.1123 F24.00 
G01 X22.1024 Y30.2331 
G01 X22.1284 Y30.3970 
G01 X22.1284 Y30.5630 
G01 X22.1024 Y30.7269 
G01 X22.0632 Y30.8477 
G01 X22.1286 Y30.6898 
G01 X22.1286 Y30.2702 
G00 Z2.5400 
G00 X22.1286 Y27.7302 
G01 Z-0.1000 F18.00 
G01 X22.0632 Y27.5723 F24.00 
G01 X22.1024 Y27.6931 
G01 X22.1284 Y27.8570 
G01 X22.1284 Y28.0230 
G01 X22.1024 Y28.1869 
G01 X22.0632 Y28.3077 
G01 X22.1286 Y28.1498 
G01 X22.1286 Y27.7302 
G00 Z2.5400 
G00 X22.1286 Y25.1902 
G01 Z-0.1000 F18.00 
G01 X22.0632 Y25.0323 F24.00 
G01 X22.1024 Y25.1531 
G01 X22.1284 Y25.3170 
G01 X22.1284 Y25.4830 
G01 X22.1024 Y25.6469 
G01 X22.0632 Y25.7677 
G01 X22.1286 Y25.6098 
G01 X22.1286 Y25.1902 
G00 Z2.5400 
G00 X12.9592 Y33.2538 
G01 Z-0.1000 F18.00 
G01 X13.1244 Y33.2276 F24.00 
G01 X14.8156 Y33.2276 
G01 X14.9808 Y33.2538 
G01 X15.1025 Y33.2933 
G01 X14.9434 Y33.2274 
G01 X12.9966 Y33.2274 
G01 X12.8375 Y33.2933 
G01 X12.9592 Y33.2538 
G00 Z2.5400 
G00 X37.3686 Y17.5702 
G01 Z-0.1000 F18.00 
G01 X37.3032 Y17.4123 F24.00 
G01 X37.3424 Y17.5331 
G01 X37.3684 Y17.6970 
G01 X37.3684 Y17.8630 
G01 X37.3424 Y18.0269 
G01 X37.3032 Y18.1477 
G01 X37.3686 Y17.9898 
G01 X37.3686 Y17.5702 
G00 Z2.5400 
G00 X33.7514 Y23.0698 
G01 Z-0.1000 F18.00 
G01 X33.8168 Y23.2277 F24.00 
G01 X33.7776 Y23.1069 
G01 X33.7516 Y22.9430 
G01 X33.7516 Y22.7770 
G01 X33.7776 Y22.6131 
G01 X33.8168 Y22.4923 
G01 X33.7514 Y22.6502 
G01 X33.7514 Y23.0698 
G00 Z2.5400 
G00 X34.7230 Y24.3456 
G01 Z-0.1000 F18.00 
G01 X36.3970 Y24.3456 F24.00 
G01 X36.5609 Y24.3716 
G01 X36.7187 Y24.4229 
G01 X36.8666 Y24.4982 
G01 X37.0009 Y24.5957 
G01 X37.1183 Y24.7131 
G01 X37.2158 Y24.8474 
G01 X37.2911 Y24.9953 
G01 X37.3424 Y25.1531 
G01 X37.3684 Y25.3170 
G01 X37.3684 Y25.4830 
G01 X37.3424 Y25.6469 
G01 X37.2911 Y25.8047 
G01 X37.2158 Y25.9526 
G01 X37.1183 Y26.0869 
G01 X37.0009 Y26.2043 
G01 X36.8666 Y26.3018 
G01 X36.7187 Y26.3771 
G01 X36.5609 Y26.4284 
G01 X36.3970 Y26.4544 
G01 X34.7230 Y26.4544 
G01 X34.5591 Y26.4284 
G01 X34.4013 Y26.3771 
G01 X34.2534 Y26.3018 
G01 X34.1191 Y26.2043 
G01 X34.0017 Y26.0869 
G01 X33.9042 Y25.9526 
G01 X33.8465 Y25.8394 
G01 X33.9120 Y25.9974 
G01 X34.1340 Y26.2194 
G01 X34.2114 Y26.3352 
G01 X34.2341 Y26.3900 
G01 X34.2646 Y26.4638 
G01 X34.2861 Y26.5717 
G01 X34.2918 Y26.6004 
G01 X34.2918 Y26.7396 
G01 X34.2646 Y26.8762 
G01 X34.2432 Y26.9279 
G01 X34.2114 Y27.0048 
G01 X34.1340 Y27.1206 
G01 X34.0356 Y27.2190 
G01 X33.9120 Y27.3426 
G01 X33.8465 Y27.5006 
G01 X33.9042 Y27.3874 
G01 X34.0017 Y27.2531 
G01 X34.1191 Y27.1357 
G01 X34.2534 Y27.0382 
G01 X34.4013 Y26.9628 
G01 X34.5591 Y26.9116 
G01 X34.7230 Y26.8856 
G01 X36.3970 Y26.8856 
G01 X36.5609 Y26.9116 
G01 X36.7187 Y26.9628 
G01 X36.8666 Y27.0382 
G01 X37.0009 Y27.1357 
G01 X37.1183 Y27.2531 
G01 X37.2158 Y27.3874 
G01 X37.2911 Y27.5353 
G01 X37.3424 Y27.6931 
G01 X37.3684 Y27.8570 
G01 X37.3684 Y28.0230 
G01 X37.3424 Y28.1869 
G01 X37.2911 Y28.3447 
G01 X37.2158 Y28.4926 
G01 X37.1183 Y28.6269 
G01 X37.0009 Y28.7443 
G01 X36.8666 Y28.8418 
G01 X36.7187 Y28.9171 
G01 X36.5609 Y28.9684 
G01 X36.3970 Y28.9944 
G01 X34.7230 Y28.9944 
G01 X34.5591 Y28.9684 
G01 X34.4013 Y28.9171 
G01 X34.2534 Y28.8418 
G01 X34.1191 Y28.7443 
G01 X34.0017 Y28.6269 
G01 X33.9042 Y28.4926 
G01 X33.8465 Y28.3794 
G01 X33.9119 Y28.5374 
G01 X34.1340 Y28.7594 
G01 X34.2114 Y28.8752 
G01 X34.2341 Y28.9300 
G01 X34.2646 Y29.0038 
G01 X34.2861 Y29.1117 
G01 X34.2918 Y29.1404 
G01 X34.2918 Y29.2796 
G01 X34.2646 Y29.4162 
G01 X34.2432 Y29.4679 
G01 X34.2114 Y29.5448 
G01 X34.1340 Y29.6606 
G01 X34.0356 Y29.7590 
G01 X33.9120 Y29.8826 
G01 X33.8465 Y30.0406 
G01 X33.9042 Y29.9274 
G01 X34.0017 Y29.7931 
G01 X34.1191 Y29.6757 
G01 X34.2534 Y29.5782 
G01 X34.4013 Y29.5029 
G01 X34.5591 Y29.4516 
G01 X34.7230 Y29.4256 
G01 X36.3970 Y29.4256 
G01 X36.5609 Y29.4516 
G01 X36.7187 Y29.5029 
G01 X36.8666 Y29.5782 
G01 X37.0009 Y29.6757 
G01 X37.1183 Y29.7931 
G01 X37.2158 Y29.9274 
G01 X37.2911 Y30.0753 
G01 X37.3424 Y30.2331 
G01 X37.3684 Y30.3970 
G01 X37.3684 Y30.5630 
G01 X37.3424 Y30.7269 
G01 X37.2911 Y30.8847 
G01 X37.2158 Y31.0326 
G01 X37.1183 Y31.1669 
G01 X37.0009 Y31.2843 
G01 X36.8666 Y31.3818 
G01 X36.7187 Y31.4571 
G01 X36.5609 Y31.5084 
G01 X36.3970 Y31.5344 
G01 X34.7230 Y31.5344 
G01 X34.5591 Y31.5084 
G01 X34.4013 Y31.4571 
G01 X34.2534 Y31.3818 
G01 X34.1191 Y31.2843 
G01 X34.0017 Y31.1669 
G01 X33.9042 Y31.0326 
G01 X33.8465 Y30.9194 
G01 X33.9119 Y31.0774 
G01 X34.1340 Y31.2994 
G01 X34.2114 Y31.4152 
G01 X34.2341 Y31.4700 
G01 X34.2646 Y31.5438 
G01 X34.2861 Y31.6517 
G01 X34.2918 Y31.6804 
G01 X34.2918 Y31.8196 
G01 X34.2646 Y31.9562 
G01 X34.2432 Y32.0079 
G01 X34.2114 Y32.0848 
G01 X34.1340 Y32.2006 
G01 X34.0356 Y32.2990 
G01 X33.9120 Y32.4226 
G01 X33.8465 Y32.5806 
G01 X33.9042 Y32.4674 
G01 X34.0017 Y32.3331 
G01 X34.1191 Y32.2157 
G01 X34.2534 Y32.1182 
G01 X34.4013 Y32.0429 
G01 X34.5591 Y31.9916 
G01 X34.7230 Y31.9656 
G01 X36.3970 Y31.9656 
G01 X36.5609 Y31.9916 
G01 X36.7187 Y32.0429 
G01 X36.8666 Y32.1182 
G01 X37.0009 Y32.2157 
G01 X37.1183 Y32.3331 
G01 X37.2158 Y32.4674 
G01 X37.2911 Y32.6153 
G01 X37.3424 Y32.7731 
G01 X37.3684 Y32.9370 
G01 X37.3684 Y33.1030 
G01 X37.3424 Y33.2669 
G01 X37.2911 Y33.4247 
G01 X37.2158 Y33.5726 
G01 X37.1183 Y33.7069 
G01 X37.0009 Y33.8242 
G01 X36.8666 Y33.9218 
G01 X36.7187 Y33.9971 
G01 X36.5609 Y34.0484 
G01 X36.3970 Y34.0744 
G01 X34.7230 Y34.0744 
G01 X34.5591 Y34.0484 
G01 X34.4013 Y33.9971 
G01 X34.2534 Y33.9218 
G01 X34.1191 Y33.8242 
G01 X34.0017 Y33.7069 
G01 X33.9042 Y33.5726 
G01 X33.8465 Y33.4594 
G01 X33.9119 Y33.6174 
G01 X34.1340 Y33.8394 
G01 X34.2114 Y33.9552 
G01 X34.2341 Y34.0100 
G01 X34.2646 Y34.0838 
G01 X34.2861 Y34.1917 
G01 X34.2918 Y34.2204 
G01 X34.2918 Y34.3596 
G01 X34.2646 Y34.4962 
G01 X34.2432 Y34.5479 
G01 X34.2114 Y34.6248 
G01 X34.1340 Y34.7406 
G01 X34.0356 Y34.8390 
G01 X33.9119 Y34.9626 
G01 X33.8465 Y35.1206 
G01 X33.9042 Y35.0074 
G01 X34.0017 Y34.8731 
G01 X34.1191 Y34.7557 
G01 X34.2534 Y34.6582 
G01 X34.4013 Y34.5829 
G01 X34.5591 Y34.5316 
G01 X34.7230 Y34.5056 
G01 X36.3970 Y34.5056 
G01 X36.5609 Y34.5316 
G01 X36.7187 Y34.5829 
G01 X36.8666 Y34.6582 
G01 X37.0009 Y34.7557 
G01 X37.1183 Y34.8731 
G01 X37.2158 Y35.0074 
G01 X37.2911 Y35.1553 
G01 X37.3424 Y35.3131 
G01 X37.3684 Y35.4770 
G01 X37.3684 Y35.6430 
G01 X37.3424 Y35.8069 
G01 X37.2911 Y35.9647 
G01 X37.2158 Y36.1126 
G01 X37.1183 Y36.2469 
G01 X37.0009 Y36.3642 
G01 X36.8666 Y36.4618 
G01 X36.7187 Y36.5371 
G01 X36.5609 Y36.5884 
G01 X36.3970 Y36.6144 
G01 X34.7230 Y36.6144 
G01 X34.5591 Y36.5884 
G01 X34.4013 Y36.5371 
G01 X34.2534 Y36.4618 
G01 X34.1191 Y36.3642 
G01 X34.0017 Y36.2469 
G01 X33.9042 Y36.1126 
G01 X33.8465 Y35.9994 
G01 X33.9119 Y36.1574 
G01 X34.1340 Y36.3794 
G01 X34.2114 Y36.4952 
G01 X34.2341 Y36.5500 
G01 X34.2646 Y36.6238 
G01 X34.2861 Y36.7317 
G01 X34.2918 Y36.7604 
G01 X34.2918 Y36.8996 
G01 X34.2646 Y37.0362 
G01 X34.2432 Y37.0879 
G01 X34.2114 Y37.1648 
G01 X34.1340 Y37.2806 
G01 X34.0356 Y37.3790 
G01 X33.9119 Y37.5026 
G01 X33.8465 Y37.6606 
G01 X33.9042 Y37.5474 
G01 X34.0017 Y37.4131 
G01 X34.1191 Y37.2957 
G01 X34.2534 Y37.1982 
G01 X34.4013 Y37.1228 
G01 X34.5591 Y37.0716 
G01 X34.7230 Y37.0456 
G01 X36.3970 Y37.0456 
G01 X36.5609 Y37.0716 
G01 X36.7187 Y37.1228 
G01 X36.8666 Y37.1982 
G01 X36.8759 Y37.2050 
G01 X38.9036 Y35.1773 
G01 X38.9873 Y35.0936 
G01 X39.0856 Y35.0279 
G01 X39.1949 Y34.9827 
G01 X39.3109 Y34.9596 
G01 X41.5410 Y34.9596 
G01 X41.6076 Y34.8679 
G01 X41.7259 Y34.7496 
G01 X41.8612 Y34.6514 
G01 X42.0102 Y34.5754 
G01 X42.1692 Y34.5238 
G01 X42.3344 Y34.4976 
G01 X44.0256 Y34.4976 
G01 X44.1908 Y34.5238 
G01 X44.3498 Y34.5754 
G01 X44.4988 Y34.6514 
G01 X44.6341 Y34.7496 
G01 X44.7523 Y34.8679 
G01 X44.8506 Y35.0032 
G01 X44.9266 Y35.1522 
G01 X44.9782 Y35.3112 
G01 X45.0044 Y35.4764 
G01 X45.0044 Y35.6436 
G01 X44.9782 Y35.8088 
G01 X44.9266 Y35.9678 
G01 X44.8506 Y36.1168 
G01 X44.7523 Y36.2521 
G01 X44.6341 Y36.3704 
G01 X44.4988 Y36.4686 
G01 X44.3498 Y36.5446 
G01 X44.1908 Y36.5962 
G01 X44.0256 Y36.6224 
G01 X42.3344 Y36.6224 
G01 X42.1692 Y36.5962 
G01 X42.0102 Y36.5446 
G01 X41.8612 Y36.4686 
G01 X41.7259 Y36.3704 
G01 X41.6076 Y36.2521 
G01 X41.5410 Y36.1604 
G01 X39.6187 Y36.1604 
G01 X37.2992 Y38.4799 
G01 X37.2911 Y38.5047 
G01 X37.2158 Y38.6526 
G01 X37.1183 Y38.7869 
G01 X37.0009 Y38.9043 
G01 X36.8666 Y39.0018 
G01 X36.7187 Y39.0771 
G01 X36.5609 Y39.1284 
G01 X36.3970 Y39.1544 
G01 X34.7230 Y39.1544 
G01 X34.5591 Y39.1284 
G01 X34.4013 Y39.0771 
G01 X34.2534 Y39.0018 
G01 X34.1191 Y38.9043 
G01 X34.0017 Y38.7869 
G01 X33.9042 Y38.6526 
G01 X33.8465 Y38.5394 
G01 X33.9119 Y38.6974 
G01 X34.1340 Y38.9194 
G01 X34.2114 Y39.0352 
G01 X34.2341 Y39.0900 
G01 X34.2646 Y39.1638 
G01 X34.2861 Y39.2717 
G01 X34.2918 Y39.3004 
G01 X34.2918 Y39.4396 
G01 X34.2646 Y39.5762 
G01 X34.2432 Y39.6279 
G01 X34.2114 Y39.7048 
G01 X34.1340 Y39.8206 
G01 X34.0356 Y39.9190 
G01 X33.9120 Y40.0426 
G01 X33.8465 Y40.2006 
G01 X33.9042 Y40.0874 
G01 X34.0017 Y39.9531 
G01 X34.1191 Y39.8357 
G01 X34.2534 Y39.7382 
G01 X34.4013 Y39.6628 
G01 X34.5591 Y39.6116 
G01 X34.7230 Y39.5856 
G01 X36.3970 Y39.5856 
G01 X36.5609 Y39.6116 
G01 X36.7187 Y39.6628 
G01 X36.8666 Y39.7382 
G01 X37.0009 Y39.8357 
G01 X37.1183 Y39.9531 
G01 X37.2158 Y40.0874 
G01 X37.2911 Y40.2353 
G01 X37.2992 Y40.2601 
G01 X39.6187 Y42.5796 
G01 X41.5410 Y42.5796 
G01 X41.6076 Y42.4879 
G01 X41.7259 Y42.3696 
G01 X41.8612 Y42.2714 
G01 X42.0102 Y42.1954 
G01 X42.1692 Y42.1438 
G01 X42.3344 Y42.1176 
G01 X44.0256 Y42.1176 
G01 X44.1908 Y42.1438 
G01 X44.3498 Y42.1954 
G01 X44.4988 Y42.2714 
G01 X44.6341 Y42.3696 
G01 X44.7523 Y42.4879 
G01 X44.8506 Y42.6232 
G01 X44.9266 Y42.7722 
G01 X44.9782 Y42.9312 
G01 X45.0044 Y43.0964 
G01 X45.0044 Y43.2636 
G01 X44.9782 Y43.4288 
G01 X44.9266 Y43.5878 
G01 X44.8506 Y43.7368 
G01 X44.7523 Y43.8721 
G01 X44.6341 Y43.9903 
G01 X44.4988 Y44.0886 
G01 X44.3498 Y44.1646 
G01 X44.1908 Y44.2162 
G01 X44.0256 Y44.2424 
G01 X42.3344 Y44.2424 
G01 X42.1692 Y44.2162 
G01 X42.0102 Y44.1646 
G01 X41.8612 Y44.0886 
G01 X41.7259 Y43.9903 
G01 X41.6076 Y43.8721 
G01 X41.5410 Y43.7804 
G01 X39.3109 Y43.7804 
G01 X39.1949 Y43.7573 
G01 X39.0856 Y43.7121 
G01 X38.9873 Y43.6464 
G01 X38.9036 Y43.5627 
G01 X36.8759 Y41.5350 
G01 X36.8666 Y41.5418 
G01 X36.7187 Y41.6171 
G01 X36.5609 Y41.6684 
G01 X36.3970 Y41.6944 
G01 X34.7230 Y41.6944 
G01 X34.5591 Y41.6684 
G01 X34.4013 Y41.6171 
G01 X34.2534 Y41.5418 
G01 X34.1191 Y41.4443 
G01 X34.0017 Y41.3269 
G01 X33.9042 Y41.1926 
G01 X33.8465 Y41.0794 
G01 X33.9120 Y41.2374 
G01 X34.1340 Y41.4594 
G01 X34.2114 Y41.5752 
G01 X34.2341 Y41.6300 
G01 X34.2646 Y41.7038 
G01 X34.2861 Y41.8117 
G01 X34.2918 Y41.8404 
G01 X34.2918 Y41.9796 
G01 X34.2646 Y42.1162 
G01 X34.2432 Y42.1679 
G01 X34.2114 Y42.2448 
G01 X34.1340 Y42.3606 
G01 X34.0356 Y42.4590 
G01 X33.9120 Y42.5826 
G01 X33.8465 Y42.7406 
G01 X33.9042 Y42.6274 
G01 X34.0017 Y42.4931 
G01 X34.1191 Y42.3757 
G01 X34.2534 Y42.2782 
G01 X34.4013 Y42.2029 
G01 X34.5591 Y42.1516 
G01 X34.7230 Y42.1256 
G01 X36.3970 Y42.1256 
G01 X36.5609 Y42.1516 
G01 X36.7187 Y42.2029 
G01 X36.8666 Y42.2782 
G01 X37.0009 Y42.3757 
G01 X37.1183 Y42.4931 
G01 X37.2158 Y42.6274 
G01 X37.2911 Y42.7752 
G01 X37.3424 Y42.9331 
G01 X37.3684 Y43.0970 
G01 X37.3684 Y43.2630 
G01 X37.3424 Y43.4269 
G01 X37.3032 Y43.5477 
G01 X37.3360 Y43.4684 
G01 X37.3739 Y43.3770 
G01 X37.3893 Y43.3398 
G01 X37.4666 Y43.2240 
G01 X37.5636 Y43.1271 
G01 X37.6404 Y43.0753 
G01 X37.6809 Y43.0482 
G01 X37.7304 Y43.0277 
G01 X37.8095 Y42.9950 
G01 X37.8763 Y42.9817 
G01 X37.9460 Y42.9678 
G01 X38.0853 Y42.9678 
G01 X38.1519 Y42.9811 
G01 X38.2218 Y42.9950 
G01 X38.3504 Y43.0482 
G01 X38.4662 Y43.1256 
G01 X38.5416 Y43.2009 
G01 X38.5647 Y43.2240 
G01 X38.8107 Y43.4700 
G01 X39.0298 Y43.6892 
G01 X39.2505 Y43.7806 
G01 X41.2179 Y43.7806 
G01 X41.3545 Y43.8078 
G01 X41.4062 Y43.8292 
G01 X41.4831 Y43.8610 
G01 X41.5988 Y43.9384 
G01 X41.6973 Y44.0368 
G01 X41.7219 Y44.0737 
G01 X41.7747 Y44.1526 
G01 X41.8134 Y44.2462 
G01 X41.8279 Y44.2812 
G01 X41.8480 Y44.3820 
G01 X41.8551 Y44.4178 
G01 X41.8551 Y44.5570 
G01 X41.8279 Y44.6936 
G01 X41.8065 Y44.7453 
G01 X41.7747 Y44.8222 
G01 X41.6973 Y44.9380 
G01 X41.5988 Y45.0364 
G01 X41.5172 Y45.1181 
G01 X41.4513 Y45.2772 
G01 X41.5094 Y45.1632 
G01 X41.6076 Y45.0279 
G01 X41.7259 Y44.9096 
G01 X41.8612 Y44.8114 
G01 X42.0102 Y44.7354 
G01 X42.1692 Y44.6838 
G01 X42.3344 Y44.6576 
G01 X44.0256 Y44.6576 
G01 X44.1908 Y44.6838 
G01 X44.3498 Y44.7354 
G01 X44.4988 Y44.8114 
G01 X44.5050 Y44.8159 
G01 X45.1196 Y44.2013 
G01 X45.1196 Y34.5387 
G01 X44.5050 Y33.9241 
G01 X44.4988 Y33.9286 
G01 X44.3498 Y34.0046 
G01 X44.1908 Y34.0562 
G01 X44.0256 Y34.0824 
G01 X42.3344 Y34.0824 
G01 X42.1692 Y34.0562 
G01 X42.0102 Y34.0046 
G01 X41.8612 Y33.9286 
G01 X41.7259 Y33.8304 
G01 X41.6076 Y33.7121 
G01 X41.5410 Y33.6204 
G01 X39.3109 Y33.6204 
G01 X39.1949 Y33.5973 
G01 X39.0856 Y33.5521 
G01 X38.9873 Y33.4864 
G01 X38.9036 Y33.4027 
G01 X37.7173 Y32.2164 
G01 X37.6336 Y32.1327 
G01 X37.5679 Y32.0344 
G01 X37.5227 Y31.9251 
G01 X37.4996 Y31.8091 
G01 X37.4996 Y21.8387 
G01 X36.8759 Y21.2150 
G01 X36.8666 Y21.2218 
G01 X36.7187 Y21.2971 
G01 X36.5609 Y21.3484 
G01 X36.3970 Y21.3744 
G01 X34.7230 Y21.3744 
G01 X34.5591 Y21.3484 
G01 X34.4013 Y21.2971 
G01 X34.2534 Y21.2218 
G01 X34.1191 Y21.1242 
G01 X34.0017 Y21.0069 
G01 X33.9042 Y20.8726 
G01 X33.8465 Y20.7594 
G01 X33.9119 Y20.9174 
G01 X34.0356 Y21.0410 
G01 X34.0894 Y21.0949 
G01 X34.1340 Y21.1394 
G01 X34.2114 Y21.2552 
G01 X34.2646 Y21.3838 
G01 X34.2918 Y21.5204 
G01 X34.2918 Y21.6596 
G01 X34.2646 Y21.7962 
G01 X34.2203 Y21.9033 
G01 X34.2114 Y21.9248 
G01 X34.1340 Y22.0406 
G01 X33.9120 Y22.2626 
G01 X33.8465 Y22.4206 
G01 X33.9042 Y22.3074 
G01 X34.0017 Y22.1731 
G01 X34.1191 Y22.0557 
G01 X34.2534 Y21.9582 
G01 X34.4013 Y21.8829 
G01 X34.5591 Y21.8316 
G01 X34.7230 Y21.8056 
G01 X36.3970 Y21.8056 
G01 X36.5609 Y21.8316 
G01 X36.7187 Y21.8829 
G01 X36.8666 Y21.9582 
G01 X37.0009 Y22.0557 
G01 X37.1183 Y22.1731 
G01 X37.2158 Y22.3074 
G01 X37.2911 Y22.4552 
G01 X37.3424 Y22.6131 
G01 X37.3684 Y22.7770 
G01 X37.3684 Y22.9430 
G01 X37.3424 Y23.1069 
G01 X37.2911 Y23.2647 
G01 X37.2158 Y23.4126 
G01 X37.1183 Y23.5469 
G01 X37.0009 Y23.6643 
G01 X36.8666 Y23.7618 
G01 X36.7187 Y23.8371 
G01 X36.5609 Y23.8884 
G01 X36.3970 Y23.9144 
G01 X34.7230 Y23.9144 
G01 X34.5591 Y23.8884 
G01 X34.4013 Y23.8371 
G01 X34.2534 Y23.7618 
G01 X34.1191 Y23.6643 
G01 X34.0017 Y23.5469 
G01 X33.9042 Y23.4126 
G01 X33.8465 Y23.2994 
G01 X33.9120 Y23.4574 
G01 X34.1340 Y23.6794 
G01 X34.2114 Y23.7952 
G01 X34.2341 Y23.8500 
G01 X34.2646 Y23.9238 
G01 X34.2861 Y24.0317 
G01 X34.2918 Y24.0604 
G01 X34.2918 Y24.1996 
G01 X34.2646 Y24.3362 
G01 X34.2432 Y24.3879 
G01 X34.2114 Y24.4648 
G01 X34.1340 Y24.5806 
G01 X34.0356 Y24.6790 
G01 X33.9120 Y24.8026 
G01 X33.8465 Y24.9606 
G01 X33.9042 Y24.8474 
G01 X34.0017 Y24.7131 
G01 X34.1191 Y24.5957 
G01 X34.2534 Y24.4982 
G01 X34.4013 Y24.4229 
G01 X34.5591 Y24.3716 
G01 X34.7230 Y24.3456 
G00 Z2.5400 
G00 X33.7776 Y20.5669 
G01 Z-0.1000 F18.00 
G01 X33.7516 Y20.4030 F24.00 
G01 X33.7516 Y20.2370 
G01 X33.7776 Y20.0731 
G01 X33.8168 Y19.9523 
G01 X33.7514 Y20.1102 
G01 X33.7514 Y20.5298 
G01 X33.8168 Y20.6877 
G01 X33.7776 Y20.5669 
G00 Z2.5400 
G00 X33.9042 Y17.2274 
G01 Z-0.1000 F18.00 
G01 X34.0017 Y17.0931 F24.00 
G01 X34.1191 Y16.9757 
G01 X34.2534 Y16.8782 
G01 X34.4013 Y16.8028 
G01 X34.5591 Y16.7516 
G01 X34.7230 Y16.7256 
G01 X36.3970 Y16.7256 
G01 X36.5609 Y16.7516 
G01 X36.7187 Y16.8028 
G01 X36.8666 Y16.8782 
G01 X37.0009 Y16.9757 
G01 X37.1183 Y17.0931 
G01 X37.2158 Y17.2274 
G01 X37.2735 Y17.3405 
G01 X37.2080 Y17.1826 
G01 X36.8851 Y16.8597 
G01 X36.8587 Y16.8421 
G01 X36.8299 Y16.8228 
G01 X36.7565 Y16.7494 
G01 X36.7315 Y16.7244 
G01 X36.6903 Y16.6628 
G01 X36.6541 Y16.6086 
G01 X36.6270 Y16.5432 
G01 X36.6008 Y16.4800 
G01 X36.5872 Y16.4116 
G01 X36.5737 Y16.3434 
G01 X36.5737 Y16.2643 
G01 X36.5609 Y16.2684 
G01 X36.3970 Y16.2944 
G01 X34.7230 Y16.2944 
G01 X34.5591 Y16.2684 
G01 X34.5463 Y16.2643 
G01 X34.5463 Y16.3434 
G01 X34.5330 Y16.4106 
G01 X34.5192 Y16.4800 
G01 X34.4936 Y16.5416 
G01 X34.4659 Y16.6086 
G01 X34.4301 Y16.6621 
G01 X34.3886 Y16.7243 
G01 X34.3643 Y16.7486 
G01 X34.2901 Y16.8228 
G01 X34.2624 Y16.8413 
G01 X34.2348 Y16.8597 
G01 X33.9119 Y17.1826 
G01 X33.8465 Y17.3406 
G01 X33.9042 Y17.2274 
G00 Z2.5400 
G00 X30.7287 Y12.0996 
G01 Z-0.1000 F18.00 
G01 X33.9389 Y12.0996 F24.00 
G01 X34.0017 Y12.0131 
G01 X34.1191 Y11.8957 
G01 X34.2534 Y11.7982 
G01 X34.3666 Y11.7405 
G01 X34.2086 Y11.8060 
G01 X34.0730 Y11.9416 
G01 X33.9572 Y12.0190 
G01 X33.8286 Y12.0722 
G01 X33.6920 Y12.0994 
G01 X30.9519 Y12.0994 
G01 X30.8154 Y12.0722 
G01 X30.6867 Y12.0190 
G01 X30.5710 Y11.9416 
G01 X30.4725 Y11.8432 
G01 X27.4284 Y8.7990 
G01 X27.3510 Y8.6833 
G01 X27.2978 Y8.5546 
G01 X27.2706 Y8.4181 
G01 X27.2706 Y6.9673 
G01 X27.2978 Y6.8307 
G01 X27.3413 Y6.7257 
G01 X27.3510 Y6.7021 
G01 X27.3760 Y6.6647 
G01 X27.4284 Y6.5863 
G01 X27.5268 Y6.4879 
G01 X27.6044 Y6.4103 
G01 X27.6300 Y6.3721 
G01 X27.6789 Y6.3231 
G01 X27.7284 Y6.2736 
G01 X27.7855 Y6.2355 
G01 X27.8442 Y6.1963 
G01 X27.9109 Y6.1686 
G01 X27.9728 Y6.1430 
G01 X28.0414 Y6.1293 
G01 X28.1093 Y6.1158 
G01 X28.1819 Y6.1158 
G01 X28.1738 Y6.0908 
G01 X28.1476 Y5.9256 
G01 X28.1476 Y4.2344 
G01 X28.1738 Y4.0692 
G01 X28.1819 Y4.0442 
G01 X28.1094 Y4.0442 
G01 X28.0420 Y4.0308 
G01 X27.9729 Y4.0171 
G01 X27.9116 Y3.9917 
G01 X27.8442 Y3.9638 
G01 X27.7860 Y3.9249 
G01 X27.7285 Y3.8864 
G01 X27.6794 Y3.8374 
G01 X27.6300 Y3.7880 
G01 X27.6044 Y3.7496 
G01 X27.2719 Y3.4172 
G01 X27.1128 Y3.3513 
G01 X27.2268 Y3.4094 
G01 X27.3621 Y3.5076 
G01 X27.4804 Y3.6259 
G01 X27.5786 Y3.7612 
G01 X27.6546 Y3.9102 
G01 X27.7062 Y4.0692 
G01 X27.7324 Y4.2344 
G01 X27.7324 Y5.9256 
G01 X27.7062 Y6.0908 
G01 X27.6546 Y6.2498 
G01 X27.5786 Y6.3988 
G01 X27.4804 Y6.5341 
G01 X27.3621 Y6.6524 
G01 X27.2704 Y6.7190 
G01 X27.2704 Y8.6413 
G01 X30.7287 Y12.0996 
G00 Z2.5400 
G00 X34.5591 Y14.2116 
G01 Z-0.1000 F18.00 
G01 X34.7230 Y14.1856 F24.00 
G01 X36.3970 Y14.1856 
G01 X36.5609 Y14.2116 
G01 X36.5737 Y14.2157 
G01 X36.5737 Y14.1366 
G01 X36.5870 Y14.0694 
G01 X36.6008 Y14.0000 
G01 X36.6264 Y13.9384 
G01 X36.6541 Y13.8714 
G01 X36.6899 Y13.8179 
G01 X36.7314 Y13.7556 
G01 X36.7557 Y13.7314 
G01 X36.8299 Y13.6572 
G01 X36.8576 Y13.6387 
G01 X36.8851 Y13.6203 
G01 X37.2080 Y13.2974 
G01 X37.2735 Y13.1395 
G01 X37.2158 Y13.2526 
G01 X37.1183 Y13.3869 
G01 X37.0009 Y13.5043 
G01 X36.8666 Y13.6018 
G01 X36.7187 Y13.6771 
G01 X36.5609 Y13.7284 
G01 X36.3970 Y13.7544 
G01 X34.7230 Y13.7544 
G01 X34.5591 Y13.7284 
G01 X34.4013 Y13.6771 
G01 X34.2534 Y13.6018 
G01 X34.1191 Y13.5043 
G01 X34.0017 Y13.3869 
G01 X33.9389 Y13.3004 
G01 X30.4209 Y13.3004 
G01 X30.3049 Y13.2773 
G01 X30.1956 Y13.2321 
G01 X30.0973 Y13.1664 
G01 X26.2873 Y9.3564 
G01 X26.2036 Y9.2727 
G01 X26.1379 Y9.1744 
G01 X26.0927 Y9.0651 
G01 X26.0696 Y8.9491 
G01 X26.0696 Y6.7190 
G01 X25.9779 Y6.6524 
G01 X25.8596 Y6.5341 
G01 X25.7614 Y6.3988 
G01 X25.7033 Y6.2848 
G01 X25.7692 Y6.4439 
G01 X25.8132 Y6.4879 
G01 X25.9070 Y6.5818 
G01 X25.9116 Y6.5863 
G01 X25.9619 Y6.6616 
G01 X25.9890 Y6.7021 
G01 X25.9975 Y6.7226 
G01 X26.0422 Y6.8307 
G01 X26.0694 Y6.9673 
G01 X26.0694 Y9.0095 
G01 X26.1608 Y9.2302 
G01 X26.4784 Y9.5478 
G01 X30.1398 Y13.2092 
G01 X30.3605 Y13.3006 
G01 X33.6920 Y13.3006 
G01 X33.8286 Y13.3278 
G01 X33.9572 Y13.3810 
G01 X34.0730 Y13.4584 
G01 X34.1714 Y13.5568 
G01 X34.2349 Y13.6203 
G01 X34.2613 Y13.6379 
G01 X34.2901 Y13.6572 
G01 X34.3635 Y13.7306 
G01 X34.3885 Y13.7556 
G01 X34.4296 Y13.8172 
G01 X34.4659 Y13.8714 
G01 X34.4930 Y13.9368 
G01 X34.5192 Y14.0000 
G01 X34.5328 Y14.0684 
G01 X34.5463 Y14.1366 
G01 X34.5463 Y14.2157 
G01 X34.5591 Y14.2116 
G00 Z2.5400 
G00 X33.7776 Y18.0269 
G01 Z-0.1000 F18.00 
G01 X33.7516 Y17.8630 F24.00 
G01 X33.7516 Y17.6970 
G01 X33.7776 Y17.5331 
G01 X33.8168 Y17.4123 
G01 X33.7514 Y17.5702 
G01 X33.7514 Y17.9898 
G01 X33.8168 Y18.1477 
G01 X33.7776 Y18.0269 
G00 Z2.5400 
G00 X33.9042 Y19.7674 
G01 Z-0.1000 F18.00 
G01 X34.0017 Y19.6331 F24.00 
G01 X34.1191 Y19.5157 
G01 X34.2534 Y19.4182 
G01 X34.4013 Y19.3429 
G01 X34.5591 Y19.2916 
G01 X34.7230 Y19.2656 
G01 X36.3970 Y19.2656 
G01 X36.5609 Y19.2916 
G01 X36.7187 Y19.3429 
G01 X36.8666 Y19.4182 
G01 X37.0009 Y19.5157 
G01 X37.1183 Y19.6331 
G01 X37.2158 Y19.7674 
G01 X37.2911 Y19.9153 
G01 X37.2992 Y19.9401 
G01 X38.4827 Y21.1236 
G01 X38.5664 Y21.2073 
G01 X38.6321 Y21.3056 
G01 X38.6773 Y21.4149 
G01 X38.7004 Y21.5309 
G01 X38.7004 Y31.5013 
G01 X39.6187 Y32.4196 
G01 X41.5410 Y32.4196 
G01 X41.6076 Y32.3279 
G01 X41.7259 Y32.2096 
G01 X41.8612 Y32.1114 
G01 X42.0102 Y32.0354 
G01 X42.1692 Y31.9838 
G01 X42.3344 Y31.9576 
G01 X44.0256 Y31.9576 
G01 X44.1908 Y31.9838 
G01 X44.3498 Y32.0354 
G01 X44.4988 Y32.1114 
G01 X44.6341 Y32.2096 
G01 X44.7523 Y32.3279 
G01 X44.8506 Y32.4632 
G01 X44.9087 Y32.5771 
G01 X44.8911 Y32.5345 
G01 X44.8652 Y32.4721 
G01 X44.8428 Y32.4181 
G01 X44.5103 Y32.0856 
G01 X44.4721 Y32.0600 
G01 X44.4231 Y32.0111 
G01 X44.3736 Y31.9616 
G01 X44.3355 Y31.9045 
G01 X44.2963 Y31.8458 
G01 X44.2686 Y31.7791 
G01 X44.2430 Y31.7172 
G01 X44.2293 Y31.6486 
G01 X44.2158 Y31.5807 
G01 X44.2158 Y31.5081 
G01 X44.1908 Y31.5162 
G01 X44.0256 Y31.5424 
G01 X42.3344 Y31.5424 
G01 X42.1692 Y31.5162 
G01 X42.1442 Y31.5081 
G01 X42.1442 Y31.5806 
G01 X42.1308 Y31.6480 
G01 X42.1171 Y31.7171 
G01 X42.0917 Y31.7784 
G01 X42.0638 Y31.8458 
G01 X42.0249 Y31.9040 
G01 X41.9864 Y31.9615 
G01 X41.9374 Y32.0106 
G01 X41.8880 Y32.0600 
G01 X41.8497 Y32.0856 
G01 X41.7721 Y32.1632 
G01 X41.6782 Y32.2570 
G01 X41.6737 Y32.2616 
G01 X41.5984 Y32.3119 
G01 X41.5579 Y32.3390 
G01 X41.5374 Y32.3475 
G01 X41.4293 Y32.3922 
G01 X41.2927 Y32.4194 
G01 X39.8419 Y32.4194 
G01 X39.7054 Y32.3922 
G01 X39.5767 Y32.3390 
G01 X39.4610 Y32.2616 
G01 X39.3625 Y32.1632 
G01 X38.8584 Y31.6590 
G01 X38.7810 Y31.5433 
G01 X38.7278 Y31.4146 
G01 X38.7006 Y31.2781 
G01 X38.7006 Y21.4705 
G01 X38.6092 Y21.2498 
G01 X38.2916 Y20.9322 
G01 X37.4458 Y20.0864 
G01 X37.3474 Y19.9880 
G01 X37.2862 Y19.8965 
G01 X37.2700 Y19.8722 
G01 X37.2080 Y19.7226 
G01 X37.0844 Y19.5990 
G01 X36.9889 Y19.5035 
G01 X36.9860 Y19.5006 
G01 X36.9086 Y19.3848 
G01 X36.8781 Y19.3110 
G01 X36.8554 Y19.2562 
G01 X36.8282 Y19.1196 
G01 X36.8282 Y18.9804 
G01 X36.8333 Y18.9548 
G01 X36.8554 Y18.8438 
G01 X36.8872 Y18.7669 
G01 X36.9086 Y18.7152 
G01 X36.9860 Y18.5994 
G01 X37.0829 Y18.5025 
G01 X37.2080 Y18.3774 
G01 X37.2735 Y18.2195 
G01 X37.2158 Y18.3326 
G01 X37.1183 Y18.4669 
G01 X37.0009 Y18.5843 
G01 X36.8666 Y18.6818 
G01 X36.7187 Y18.7571 
G01 X36.5609 Y18.8084 
G01 X36.3970 Y18.8344 
G01 X34.7230 Y18.8344 
G01 X34.5591 Y18.8084 
G01 X34.4013 Y18.7571 
G01 X34.2534 Y18.6818 
G01 X34.1191 Y18.5843 
G01 X34.0017 Y18.4669 
G01 X33.9042 Y18.3326 
G01 X33.8465 Y18.2194 
G01 X33.9119 Y18.3774 
G01 X34.1340 Y18.5994 
G01 X34.2114 Y18.7152 
G01 X34.2341 Y18.7700 
G01 X34.2646 Y18.8438 
G01 X34.2861 Y18.9517 
G01 X34.2918 Y18.9804 
G01 X34.2918 Y19.1196 
G01 X34.2646 Y19.2562 
G01 X34.2432 Y19.3079 
G01 X34.2114 Y19.3848 
G01 X34.1340 Y19.5006 
G01 X34.0356 Y19.5990 
G01 X33.9119 Y19.7226 
G01 X33.8465 Y19.8806 
G01 X33.9042 Y19.7674 
G00 Z2.5400 
G00 X33.7514 Y25.6098 
G01 Z-0.1000 F18.00 
G01 X33.8168 Y25.7677 F24.00 
G01 X33.7776 Y25.6469 
G01 X33.7516 Y25.4830 
G01 X33.7516 Y25.3170 
G01 X33.7776 Y25.1531 
G01 X33.8168 Y25.0323 
G01 X33.7514 Y25.1902 
G01 X33.7514 Y25.6098 
G00 Z2.5400 
G00 X33.7514 Y28.1498 
G01 Z-0.1000 F18.00 
G01 X33.8168 Y28.3077 F24.00 
G01 X33.7776 Y28.1869 
G01 X33.7516 Y28.0230 
G01 X33.7516 Y27.8570 
G01 X33.7776 Y27.6931 
G01 X33.8168 Y27.5723 
G01 X33.7514 Y27.7302 
G01 X33.7514 Y28.1498 
G00 Z2.5400 
G00 X33.7514 Y30.6898 
G01 Z-0.1000 F18.00 
G01 X33.8168 Y30.8477 F24.00 
G01 X33.7776 Y30.7269 
G01 X33.7516 Y30.5630 
G01 X33.7516 Y30.3970 
G01 X33.7776 Y30.2331 
G01 X33.8168 Y30.1123 
G01 X33.7514 Y30.2702 
G01 X33.7514 Y30.6898 
G00 Z2.5400 
G00 X33.7514 Y33.2298 
G01 Z-0.1000 F18.00 
G01 X33.8168 Y33.3877 F24.00 
G01 X33.7776 Y33.2669 
G01 X33.7516 Y33.1030 
G01 X33.7516 Y32.9370 
G01 X33.7776 Y32.7731 
G01 X33.8168 Y32.6523 
G01 X33.7514 Y32.8102 
G01 X33.7514 Y33.2298 
G00 Z2.5400 
G00 X33.7514 Y35.7698 
G01 Z-0.1000 F18.00 
G01 X33.8168 Y35.9277 F24.00 
G01 X33.7776 Y35.8069 
G01 X33.7516 Y35.6430 
G01 X33.7516 Y35.4770 
G01 X33.7776 Y35.3131 
G01 X33.8168 Y35.1923 
G01 X33.7514 Y35.3502 
G01 X33.7514 Y35.7698 
G00 Z2.5400 
G00 X33.7514 Y40.8498 
G01 Z-0.1000 F18.00 
G01 X33.8168 Y41.0077 F24.00 
G01 X33.7776 Y40.8869 
G01 X33.7516 Y40.7230 
G01 X33.7516 Y40.5570 
G01 X33.7776 Y40.3931 
G01 X33.8168 Y40.2723 
G01 X33.7514 Y40.4302 
G01 X33.7514 Y40.8498 
G00 Z2.5400 
G00 X37.3686 Y45.5102 
G01 Z-0.1000 F18.00 
G01 X37.3032 Y45.3523 F24.00 
G01 X37.3424 Y45.4731 
G01 X37.3684 Y45.6370 
G01 X37.3684 Y45.8030 
G01 X37.3424 Y45.9669 
G01 X37.3032 Y46.0877 
G01 X37.3686 Y45.9298 
G01 X37.3686 Y45.5102 
G00 Z2.5400 
G00 X37.3686 Y48.0502 
G01 Z-0.1000 F18.00 
G01 X37.3032 Y47.8923 F24.00 
G01 X37.3424 Y48.0131 
G01 X37.3684 Y48.1770 
G01 X37.3684 Y48.3430 
G01 X37.3424 Y48.5069 
G01 X37.3032 Y48.6277 
G01 X37.3686 Y48.4698 
G01 X37.3686 Y48.0502 
G00 Z2.5400 
G00 X37.2080 Y48.8574 
G01 Z-0.1000 F18.00 
G01 X37.2735 Y48.6995 F24.00 
G01 X37.2158 Y48.8126 
G01 X37.1183 Y48.9469 
G01 X37.0009 Y49.0643 
G01 X36.8666 Y49.1618 
G01 X36.7535 Y49.2195 
G01 X36.9114 Y49.1540 
G01 X37.2080 Y48.8574 
G00 Z2.5400 
G00 X36.5238 Y49.3146 
G01 Z-0.1000 F18.00 
G01 X36.6817 Y49.2492 F24.00 
G01 X36.5609 Y49.2884 
G01 X36.3970 Y49.3144 
G01 X34.7230 Y49.3144 
G01 X34.5591 Y49.2884 
G01 X34.4383 Y49.2492 
G01 X34.5962 Y49.3146 
G01 X36.5238 Y49.3146 
G00 Z2.5400 
G00 X34.2086 Y49.1540 
G01 Z-0.1000 F18.00 
G01 X34.3665 Y49.2195 F24.00 
G01 X34.2534 Y49.1618 
G01 X34.1191 Y49.0643 
G01 X34.0017 Y48.9469 
G01 X33.9042 Y48.8126 
G01 X33.8465 Y48.6994 
G01 X33.9119 Y48.8574 
G01 X34.2086 Y49.1540 
G00 Z2.5400 
G00 X33.7514 Y48.4698 
G01 Z-0.1000 F18.00 
G01 X33.8168 Y48.6277 F24.00 
G01 X33.7776 Y48.5069 
G01 X33.7516 Y48.3430 
G01 X33.7516 Y48.1770 
G01 X33.7776 Y48.0131 
G01 X33.8168 Y47.8923 
G01 X33.7514 Y48.0502 
G01 X33.7514 Y48.4698 
G00 Z2.5400 
G00 X34.7230 Y47.2056 
G01 Z-0.1000 F18.00 
G01 X36.3970 Y47.2056 F24.00 
G01 X36.5609 Y47.2316 
G01 X36.7187 Y47.2829 
G01 X36.8666 Y47.3582 
G01 X37.0009 Y47.4557 
G01 X37.1183 Y47.5731 
G01 X37.2158 Y47.7074 
G01 X37.2735 Y47.8205 
G01 X37.2080 Y47.6626 
G01 X37.0844 Y47.5390 
G01 X36.9889 Y47.4435 
G01 X36.9860 Y47.4406 
G01 X36.9086 Y47.3248 
G01 X36.8781 Y47.2510 
G01 X36.8554 Y47.1962 
G01 X36.8282 Y47.0596 
G01 X36.8282 Y46.9204 
G01 X36.8333 Y46.8948 
G01 X36.8554 Y46.7838 
G01 X36.8872 Y46.7069 
G01 X36.9086 Y46.6552 
G01 X36.9860 Y46.5394 
G01 X37.0829 Y46.4425 
G01 X37.2080 Y46.3174 
G01 X37.2735 Y46.1595 
G01 X37.2158 Y46.2726 
G01 X37.1183 Y46.4069 
G01 X37.0009 Y46.5243 
G01 X36.8666 Y46.6218 
G01 X36.7187 Y46.6971 
G01 X36.5609 Y46.7484 
G01 X36.3970 Y46.7744 
G01 X34.7230 Y46.7744 
G01 X34.5591 Y46.7484 
G01 X34.4013 Y46.6971 
G01 X34.2534 Y46.6218 
G01 X34.1191 Y46.5243 
G01 X34.0017 Y46.4069 
G01 X33.9042 Y46.2726 
G01 X33.8465 Y46.1594 
G01 X33.9119 Y46.3174 
G01 X34.1340 Y46.5394 
G01 X34.2114 Y46.6552 
G01 X34.2341 Y46.7100 
G01 X34.2646 Y46.7838 
G01 X34.2861 Y46.8917 
G01 X34.2918 Y46.9204 
G01 X34.2918 Y47.0596 
G01 X34.2646 Y47.1962 
G01 X34.2432 Y47.2479 
G01 X34.2114 Y47.3248 
G01 X34.1340 Y47.4406 
G01 X34.0356 Y47.5390 
G01 X33.9120 Y47.6626 
G01 X33.8465 Y47.8206 
G01 X33.9042 Y47.7074 
G01 X34.0017 Y47.5731 
G01 X34.1191 Y47.4557 
G01 X34.2534 Y47.3582 
G01 X34.4013 Y47.2829 
G01 X34.5591 Y47.2316 
G01 X34.7230 Y47.2056 
G00 Z2.5400 
G00 X33.7776 Y45.9669 
G01 Z-0.1000 F18.00 
G01 X33.7516 Y45.8030 F24.00 
G01 X33.7516 Y45.6370 
G01 X33.7776 Y45.4731 
G01 X33.8168 Y45.3523 
G01 X33.7514 Y45.5102 
G01 X33.7514 Y45.9298 
G01 X33.8168 Y46.0877 
G01 X33.7776 Y45.9669 
G00 Z2.5400 
G00 X33.7776 Y43.4269 
G01 Z-0.1000 F18.00 
G01 X33.7516 Y43.2630 F24.00 
G01 X33.7516 Y43.0970 
G01 X33.7776 Y42.9331 
G01 X33.8168 Y42.8123 
G01 X33.7514 Y42.9702 
G01 X33.7514 Y43.3898 
G01 X33.8168 Y43.5477 
G01 X33.7776 Y43.4269 
G00 Z2.5400 
G00 X33.9042 Y45.1674 
G01 Z-0.1000 F18.00 
G01 X34.0017 Y45.0331 F24.00 
G01 X34.1191 Y44.9157 
G01 X34.2534 Y44.8182 
G01 X34.4013 Y44.7429 
G01 X34.5591 Y44.6916 
G01 X34.7230 Y44.6656 
G01 X36.3970 Y44.6656 
G01 X36.5609 Y44.6916 
G01 X36.7187 Y44.7429 
G01 X36.8666 Y44.8182 
G01 X37.0009 Y44.9157 
G01 X37.1183 Y45.0331 
G01 X37.2158 Y45.1674 
G01 X37.2735 Y45.2805 
G01 X37.2080 Y45.1226 
G01 X37.0844 Y44.9990 
G01 X36.9889 Y44.9035 
G01 X36.9860 Y44.9006 
G01 X36.9086 Y44.7848 
G01 X36.8781 Y44.7110 
G01 X36.8554 Y44.6562 
G01 X36.8282 Y44.5196 
G01 X36.8282 Y44.3804 
G01 X36.8333 Y44.3548 
G01 X36.8554 Y44.2438 
G01 X36.8872 Y44.1669 
G01 X36.9086 Y44.1152 
G01 X36.9860 Y43.9994 
G01 X37.0829 Y43.9025 
G01 X37.2080 Y43.7774 
G01 X37.2734 Y43.6195 
G01 X37.2158 Y43.7326 
G01 X37.1183 Y43.8669 
G01 X37.0009 Y43.9843 
G01 X36.8666 Y44.0818 
G01 X36.7187 Y44.1571 
G01 X36.5609 Y44.2084 
G01 X36.3970 Y44.2344 
G01 X34.7230 Y44.2344 
G01 X34.5591 Y44.2084 
G01 X34.4013 Y44.1571 
G01 X34.2534 Y44.0818 
G01 X34.1191 Y43.9843 
G01 X34.0017 Y43.8669 
G01 X33.9042 Y43.7326 
G01 X33.8465 Y43.6194 
G01 X33.9120 Y43.7774 
G01 X34.1340 Y43.9994 
G01 X34.2114 Y44.1152 
G01 X34.2341 Y44.1700 
G01 X34.2646 Y44.2438 
G01 X34.2861 Y44.3517 
G01 X34.2918 Y44.3804 
G01 X34.2918 Y44.5196 
G01 X34.2646 Y44.6562 
G01 X34.2432 Y44.7079 
G01 X34.2114 Y44.7848 
G01 X34.1340 Y44.9006 
G01 X34.0356 Y44.9990 
G01 X33.9120 Y45.1226 
G01 X33.8465 Y45.2806 
G01 X33.9042 Y45.1674 
G00 Z2.5400 
G00 X33.7514 Y38.3098 
G01 Z-0.1000 F18.00 
G01 X33.8168 Y38.4677 F24.00 
G01 X33.7776 Y38.3469 
G01 X33.7516 Y38.1830 
G01 X33.7516 Y38.0170 
G01 X33.7776 Y37.8531 
G01 X33.8168 Y37.7323 
G01 X33.7514 Y37.8902 
G01 X33.7514 Y38.3098 
G00 Z2.5400 
G00 X46.2292 Y44.7902 
G01 Z-0.1000 F18.00 
G01 X46.3206 Y44.5695 F24.00 
G01 X46.3206 Y34.1705 
G01 X46.2292 Y33.9498 
G01 X45.0943 Y32.8149 
G01 X45.0451 Y32.7657 
G01 X44.9959 Y32.7165 
G01 X44.9535 Y32.6531 
G01 X44.9270 Y32.6134 
G01 X44.9435 Y32.6645 
G01 X46.1864 Y33.9073 
G01 X46.2521 Y34.0056 
G01 X46.2973 Y34.1149 
G01 X46.3204 Y34.2309 
G01 X46.3204 Y44.5091 
G01 X46.2973 Y44.6251 
G01 X46.2521 Y44.7344 
G01 X46.1864 Y44.8327 
G01 X46.1027 Y44.9164 
G01 X44.9435 Y46.0755 
G01 X44.9270 Y46.1266 
G01 X44.9691 Y46.0635 
G01 X44.9958 Y46.0236 
G01 X45.0943 Y45.9251 
G01 X46.0100 Y45.0093 
G01 X46.2292 Y44.7902 
G00 Z2.5400 
G00 X41.3818 Y45.9688 
G01 Z-0.1000 F18.00 
G01 X41.3556 Y45.8036 F24.00 
G01 X41.3556 Y45.6364 
G01 X41.3818 Y45.4712 
G01 X41.4213 Y45.3495 
G01 X41.3554 Y45.5086 
G01 X41.3554 Y45.9314 
G01 X41.4213 Y46.0905 
G01 X41.3818 Y45.9688 
G00 Z2.5400 
G00 X42.3344 Y47.1976 
G01 Z-0.1000 F18.00 
G01 X44.0256 Y47.1976 F24.00 
G01 X44.1908 Y47.2238 
G01 X44.2158 Y47.2319 
G01 X44.2158 Y47.1594 
G01 X44.2334 Y47.0706 
G01 X44.2429 Y47.0228 
G01 X44.2717 Y46.9535 
G01 X44.2962 Y46.8942 
G01 X44.3219 Y46.8558 
G01 X44.3736 Y46.7784 
G01 X44.4220 Y46.7300 
G01 X44.4720 Y46.6800 
G01 X44.5103 Y46.6544 
G01 X44.8428 Y46.3219 
G01 X44.8713 Y46.2533 
G01 X44.9087 Y46.1629 
G01 X44.8506 Y46.2768 
G01 X44.7523 Y46.4121 
G01 X44.6341 Y46.5304 
G01 X44.4988 Y46.6286 
G01 X44.3498 Y46.7046 
G01 X44.1908 Y46.7562 
G01 X44.0256 Y46.7824 
G01 X42.3344 Y46.7824 
G01 X42.1692 Y46.7562 
G01 X42.0102 Y46.7046 
G01 X41.8612 Y46.6286 
G01 X41.7259 Y46.5304 
G01 X41.6076 Y46.4121 
G01 X41.5094 Y46.2768 
G01 X41.4513 Y46.1628 
G01 X41.5172 Y46.3219 
G01 X41.8497 Y46.6544 
G01 X41.8880 Y46.6800 
G01 X41.9364 Y46.7284 
G01 X41.9864 Y46.7784 
G01 X42.0370 Y46.8542 
G01 X42.0638 Y46.8942 
G01 X42.0878 Y46.9522 
G01 X42.1170 Y47.0228 
G01 X42.1260 Y47.0681 
G01 X42.1442 Y47.1594 
G01 X42.1442 Y47.2319 
G01 X42.1692 Y47.2238 
G01 X42.3344 Y47.1976 
G00 Z2.5400 
G00 X15.3852 Y16.1597 
G01 Z-0.1000 F18.00 
G01 X15.3692 Y16.1982 F24.00 
G01 X15.3996 Y16.1456 
G01 X15.4556 Y16.0896 
G01 X15.5082 Y16.0592 
G01 X15.4697 Y16.0752 
G01 X15.3852 Y16.1597 
G00 Z2.5400 
G00 X13.1852 Y17.1097 
G01 Z-0.1000 F18.00 
G01 X13.1692 Y17.1482 F24.00 
G01 X13.1996 Y17.0955 
G01 X13.2556 Y17.0396 
G01 X13.3082 Y17.0092 
G01 X13.2697 Y17.0252 
G01 X13.1852 Y17.1097 
G00 Z2.5400 
G00 X13.2697 Y50.2848 
G01 Z-0.1000 F18.00 
G01 X13.3082 Y50.3008 F24.00 
G01 X13.2556 Y50.2704 
G01 X13.1996 Y50.2144 
G01 X13.1692 Y50.1618 
G01 X13.1852 Y50.2003 
G01 X13.2697 Y50.2848 
G00 Z2.5400 
G00 X10.7577 Y43.8710 
G01 Z-0.1000 F18.00 
G01 X10.7737 Y43.8325 F24.00 
G01 X10.7433 Y43.8851 
G01 X10.6873 Y43.9411 
G01 X10.6347 Y43.9715 
G01 X10.6732 Y43.9555 
G01 X10.7577 Y43.8710 
G00 Z2.5400 
G00 X10.5627 Y44.0013 
G01 Z-0.1000 F18.00 
G01 X10.6012 Y43.9854 F24.00 
G01 X10.5424 Y44.0011 
G01 X8.4567 Y44.0011 
G01 X8.3980 Y43.9854 
G01 X8.4365 Y44.0013 
G01 X10.5627 Y44.0013 
G00 Z2.5400 
G00 X4.4585 Y42.7153 
G01 Z-0.1000 F18.00 
G01 X4.4745 Y42.6768 F24.00 
G01 X4.4441 Y42.7294 
G01 X4.3881 Y42.7854 
G01 X4.3355 Y42.8158 
G01 X4.3740 Y42.7998 
G01 X4.4585 Y42.7153 
G00 Z2.5400 
G00 X12.1454 Y44.6614 
G01 Z-0.1000 F18.00 
G01 X12.1869 Y44.7615 F24.00 
G01 X12.2113 Y44.8205 
G01 X12.1718 Y44.6988 
G01 X12.1456 Y44.5336 
G01 X12.1456 Y44.3664 
G01 X12.1718 Y44.2012 
G01 X12.2113 Y44.0795 
G01 X12.1454 Y44.2386 
G01 X12.1454 Y44.6614 
G00 Z2.5400 
G00 X34.5962 Y11.6454 
G01 Z-0.1000 F18.00 
G01 X34.4383 Y11.7108 F24.00 
G01 X34.5591 Y11.6716 
G01 X34.7230 Y11.6456 
G01 X36.3970 Y11.6456 
G01 X36.5609 Y11.6716 
G01 X36.6817 Y11.7108 
G01 X36.5238 Y11.6454 
G01 X34.5962 Y11.6454 
G00 Z2.5400 
G00 X36.9114 Y11.8060 
G01 Z-0.1000 F18.00 
G01 X36.7535 Y11.7405 F24.00 
G01 X36.8666 Y11.7982 
G01 X37.0009 Y11.8957 
G01 X37.1183 Y12.0131 
G01 X37.2158 Y12.1474 
G01 X37.2735 Y12.2605 
G01 X37.2080 Y12.1026 
G01 X36.9114 Y11.8060 
G00 Z2.5400 
G00 X37.3686 Y12.4902 
G01 Z-0.1000 F18.00 
G01 X37.3032 Y12.3323 F24.00 
G01 X37.3424 Y12.4531 
G01 X37.3684 Y12.6170 
G01 X37.3684 Y12.7830 
G01 X37.3424 Y12.9469 
G01 X37.3032 Y13.0677 
G01 X37.3686 Y12.9098 
G01 X37.3686 Y12.4902 
G00 Z2.5400 
G00 X18.5114 Y23.0698 
G01 Z-0.1000 F18.00 
G01 X18.5768 Y23.2277 F24.00 
G01 X18.5376 Y23.1069 
G01 X18.5116 Y22.9430 
G01 X18.5116 Y22.7770 
G01 X18.5376 Y22.6131 
G01 X18.5768 Y22.4923 
G01 X18.5114 Y22.6502 
G01 X18.5114 Y23.0698 
G00 Z2.5400 
G00 X11.6787 Y33.6896 
G01 Z-0.1000 F18.00 
G01 X12.3310 Y33.6896 F24.00 
G01 X12.3976 Y33.5979 
G01 X12.5159 Y33.4796 
G01 X12.6512 Y33.3814 
G01 X12.7652 Y33.3233 
G01 X12.6061 Y33.3892 
G01 X12.4636 Y33.5316 
G01 X12.3479 Y33.6090 
G01 X12.2193 Y33.6622 
G01 X12.0827 Y33.6894 
G01 X11.9019 Y33.6894 
G01 X11.7654 Y33.6622 
G01 X11.6367 Y33.6090 
G01 X11.5210 Y33.5316 
G01 X11.4225 Y33.4332 
G01 X10.9184 Y32.9290 
G01 X10.8410 Y32.8133 
G01 X10.7878 Y32.6846 
G01 X10.7606 Y32.5481 
G01 X10.7606 Y22.0619 
G01 X10.7878 Y21.9254 
G01 X10.8410 Y21.7967 
G01 X10.9184 Y21.6810 
G01 X11.0168 Y21.5825 
G01 X13.8610 Y18.7384 
G01 X13.9767 Y18.6610 
G01 X14.1054 Y18.6078 
G01 X14.2419 Y18.5806 
G01 X15.0492 Y18.5806 
G01 X15.1858 Y18.6078 
G01 X15.3144 Y18.6610 
G01 X15.3396 Y18.6779 
G01 X15.3396 Y18.1905 
G01 X15.3601 Y18.1140 
G01 X15.3996 Y18.0456 
G01 X15.4556 Y17.9896 
G01 X15.5240 Y17.9501 
G01 X15.6005 Y17.9296 
G01 X17.0031 Y17.9296 
G01 X17.0090 Y17.8999 
G01 X17.0204 Y17.8724 
G01 X17.0623 Y17.7712 
G01 X17.0931 Y17.7252 
G01 X17.1396 Y17.6555 
G01 X17.1881 Y17.6070 
G01 X17.2381 Y17.5570 
G01 X17.3540 Y17.4411 
G01 X17.4698 Y17.3637 
G01 X17.5984 Y17.3104 
G01 X17.7350 Y17.2833 
G01 X17.8742 Y17.2833 
G01 X18.0108 Y17.3104 
G01 X18.1394 Y17.3637 
G01 X18.2552 Y17.4411 
G01 X18.3536 Y17.5395 
G01 X18.4310 Y17.6553 
G01 X18.4842 Y17.7839 
G01 X18.5114 Y17.9205 
G01 X18.5114 Y17.9898 
G01 X18.5768 Y18.1477 
G01 X18.5376 Y18.0269 
G01 X18.5116 Y17.8630 
G01 X18.5116 Y17.6970 
G01 X18.5376 Y17.5331 
G01 X18.5889 Y17.3753 
G01 X18.6642 Y17.2274 
G01 X18.7617 Y17.0931 
G01 X18.8791 Y16.9757 
G01 X19.0134 Y16.8782 
G01 X19.1613 Y16.8028 
G01 X19.3191 Y16.7516 
G01 X19.4830 Y16.7256 
G01 X21.1570 Y16.7256 
G01 X21.3209 Y16.7516 
G01 X21.4787 Y16.8028 
G01 X21.6266 Y16.8782 
G01 X21.7609 Y16.9757 
G01 X21.8783 Y17.0931 
G01 X21.9758 Y17.2274 
G01 X22.0511 Y17.3753 
G01 X22.1024 Y17.5331 
G01 X22.1284 Y17.6970 
G01 X22.1284 Y17.8630 
G01 X22.1024 Y18.0269 
G01 X22.0511 Y18.1847 
G01 X21.9758 Y18.3326 
G01 X21.8783 Y18.4669 
G01 X21.7609 Y18.5843 
G01 X21.6266 Y18.6818 
G01 X21.4787 Y18.7571 
G01 X21.3209 Y18.8084 
G01 X21.1570 Y18.8344 
G01 X19.4830 Y18.8344 
G01 X19.3191 Y18.8084 
G01 X19.1613 Y18.7571 
G01 X19.0134 Y18.6818 
G01 X18.8791 Y18.5843 
G01 X18.7617 Y18.4669 
G01 X18.6642 Y18.3326 
G01 X18.6065 Y18.2194 
G01 X18.6720 Y18.3774 
G01 X18.9948 Y18.7003 
G01 X19.0213 Y18.7179 
G01 X19.0501 Y18.7372 
G01 X19.1235 Y18.8106 
G01 X19.1485 Y18.8356 
G01 X19.1896 Y18.8972 
G01 X19.2259 Y18.9514 
G01 X19.2530 Y19.0168 
G01 X19.2792 Y19.0800 
G01 X19.2928 Y19.1484 
G01 X19.3063 Y19.2166 
G01 X19.3063 Y19.2957 
G01 X19.3191 Y19.2916 
G01 X19.4830 Y19.2656 
G01 X21.1570 Y19.2656 
G01 X21.3209 Y19.2916 
G01 X21.4787 Y19.3429 
G01 X21.6266 Y19.4182 
G01 X21.7609 Y19.5157 
G01 X21.8783 Y19.6331 
G01 X21.9758 Y19.7674 
G01 X22.0511 Y19.9153 
G01 X22.1024 Y20.0731 
G01 X22.1284 Y20.2370 
G01 X22.1284 Y20.4030 
G01 X22.1024 Y20.5669 
G01 X22.0511 Y20.7247 
G01 X21.9758 Y20.8726 
G01 X21.8783 Y21.0069 
G01 X21.7609 Y21.1242 
G01 X21.6266 Y21.2218 
G01 X21.4787 Y21.2971 
G01 X21.3209 Y21.3484 
G01 X21.1570 Y21.3744 
G01 X19.4830 Y21.3744 
G01 X19.3191 Y21.3484 
G01 X19.3063 Y21.3443 
G01 X19.3063 Y21.4234 
G01 X19.2930 Y21.4906 
G01 X19.2792 Y21.5600 
G01 X19.2536 Y21.6216 
G01 X19.2259 Y21.6886 
G01 X19.1901 Y21.7421 
G01 X19.1486 Y21.8043 
G01 X19.1243 Y21.8286 
G01 X19.0501 Y21.9028 
G01 X19.0224 Y21.9213 
G01 X18.9948 Y21.9397 
G01 X18.6719 Y22.2626 
G01 X18.6065 Y22.4206 
G01 X18.6642 Y22.3074 
G01 X18.7617 Y22.1731 
G01 X18.8791 Y22.0557 
G01 X19.0134 Y21.9582 
G01 X19.1613 Y21.8829 
G01 X19.3191 Y21.8316 
G01 X19.4830 Y21.8056 
G01 X21.1570 Y21.8056 
G01 X21.3209 Y21.8316 
G01 X21.4787 Y21.8829 
G01 X21.6266 Y21.9582 
G01 X21.6359 Y21.9650 
G01 X22.2596 Y21.3413 
G01 X22.2596 Y11.6787 
G01 X21.3413 Y10.7604 
G01 X19.2987 Y10.7604 
G01 X18.3804 Y11.6787 
G01 X18.3804 Y15.4491 
G01 X18.3573 Y15.5651 
G01 X18.3121 Y15.6744 
G01 X18.2464 Y15.7727 
G01 X18.1627 Y15.8564 
G01 X17.3404 Y16.6787 
G01 X17.3404 Y17.3695 
G01 X17.3199 Y17.4459 
G01 X17.2804 Y17.5144 
G01 X17.2244 Y17.5704 
G01 X17.1560 Y17.6099 
G01 X17.0795 Y17.6304 
G01 X15.6005 Y17.6304 
G01 X15.5240 Y17.6099 
G01 X15.4556 Y17.5704 
G01 X15.3996 Y17.5144 
G01 X15.3601 Y17.4459 
G01 X15.3396 Y17.3695 
G01 X15.3396 Y16.2904 
G01 X15.3553 Y16.2317 
G01 X15.3394 Y16.2702 
G01 X15.3394 Y16.3422 
G01 X15.3122 Y16.4788 
G01 X15.2590 Y16.6074 
G01 X15.1816 Y16.7232 
G01 X15.0832 Y16.8216 
G01 X14.9674 Y16.8990 
G01 X14.8388 Y16.9522 
G01 X14.7022 Y16.9794 
G01 X13.3802 Y16.9794 
G01 X13.3417 Y16.9953 
G01 X13.4005 Y16.9796 
G01 X14.8795 Y16.9796 
G01 X14.9560 Y17.0001 
G01 X15.0244 Y17.0396 
G01 X15.0804 Y17.0955 
G01 X15.1199 Y17.1640 
G01 X15.1404 Y17.2404 
G01 X15.1404 Y18.3195 
G01 X15.1199 Y18.3959 
G01 X15.0804 Y18.4644 
G01 X15.0244 Y18.5204 
G01 X14.9560 Y18.5599 
G01 X14.8795 Y18.5804 
G01 X14.0187 Y18.5804 
G01 X10.7604 Y21.8387 
G01 X10.7604 Y32.7713 
G01 X11.6787 Y33.6896 
G00 Z2.5400 
G00 X19.4830 Y11.6456 
G01 Z-0.1000 F18.00 
G01 X21.1570 Y11.6456 F24.00 
G01 X21.3209 Y11.6716 
G01 X21.4787 Y11.7229 
G01 X21.6266 Y11.7982 
G01 X21.7609 Y11.8957 
G01 X21.8783 Y12.0131 
G01 X21.9758 Y12.1474 
G01 X22.0511 Y12.2953 
G01 X22.1024 Y12.4531 
G01 X22.1284 Y12.6170 
G01 X22.1284 Y12.7830 
G01 X22.1024 Y12.9469 
G01 X22.0511 Y13.1047 
G01 X21.9758 Y13.2526 
G01 X21.8783 Y13.3869 
G01 X21.7609 Y13.5043 
G01 X21.6266 Y13.6018 
G01 X21.4787 Y13.6771 
G01 X21.3209 Y13.7284 
G01 X21.1570 Y13.7544 
G01 X19.4830 Y13.7544 
G01 X19.3191 Y13.7284 
G01 X19.1613 Y13.6771 
G01 X19.0134 Y13.6018 
G01 X18.8791 Y13.5043 
G01 X18.7617 Y13.3869 
G01 X18.6642 Y13.2526 
G01 X18.5889 Y13.1047 
G01 X18.5376 Y12.9469 
G01 X18.5116 Y12.7830 
G01 X18.5116 Y12.6170 
G01 X18.5376 Y12.4531 
G01 X18.5889 Y12.2953 
G01 X18.6642 Y12.1474 
G01 X18.7617 Y12.0131 
G01 X18.8791 Y11.8957 
G01 X19.0134 Y11.7982 
G01 X19.1613 Y11.7229 
G01 X19.3191 Y11.6716 
G01 X19.4830 Y11.6456 
G00 Z2.5400 
G00 X19.4830 Y14.1856 
G01 Z-0.1000 F18.00 
G01 X21.1570 Y14.1856 F24.00 
G01 X21.3209 Y14.2116 
G01 X21.4787 Y14.2629 
G01 X21.6266 Y14.3382 
G01 X21.7609 Y14.4357 
G01 X21.8783 Y14.5531 
G01 X21.9758 Y14.6874 
G01 X22.0511 Y14.8353 
G01 X22.1024 Y14.9931 
G01 X22.1284 Y15.1570 
G01 X22.1284 Y15.3230 
G01 X22.1024 Y15.4869 
G01 X22.0511 Y15.6447 
G01 X21.9758 Y15.7926 
G01 X21.8783 Y15.9269 
G01 X21.7609 Y16.0443 
G01 X21.6266 Y16.1418 
G01 X21.4787 Y16.2171 
G01 X21.3209 Y16.2684 
G01 X21.1570 Y16.2944 
G01 X19.4830 Y16.2944 
G01 X19.3191 Y16.2684 
G01 X19.1613 Y16.2171 
G01 X19.0134 Y16.1418 
G01 X18.8791 Y16.0443 
G01 X18.7617 Y15.9269 
G01 X18.6642 Y15.7926 
G01 X18.5889 Y15.6447 
G01 X18.5376 Y15.4869 
G01 X18.5116 Y15.3230 
G01 X18.5116 Y15.1570 
G01 X18.5376 Y14.9931 
G01 X18.5889 Y14.8353 
G01 X18.6642 Y14.6874 
G01 X18.7617 Y14.5531 
G01 X18.8791 Y14.4357 
G01 X19.0134 Y14.3382 
G01 X19.1613 Y14.2629 
G01 X19.3191 Y14.2116 
G01 X19.4830 Y14.1856 
G00 Z2.5400 
G00 X0.9378 Y55.2494 
G01 Z-0.1000 F18.00 
G01 X0.8012 Y55.2222 F24.00 
G01 X0.6726 Y55.1690 
G01 X0.5568 Y55.0916 
G01 X0.4584 Y54.9932 
G01 X0.3810 Y54.8774 
G01 X0.3278 Y54.7488 
G01 X0.3006 Y54.6122 
G01 X0.3006 Y0.9378 
G01 X0.3278 Y0.8012 
G01 X0.3810 Y0.6726 
G01 X0.4584 Y0.5568 
G01 X0.5568 Y0.4584 
G01 X0.6726 Y0.3810 
G01 X0.8012 Y0.3278 
G01 X0.9378 Y0.3006 
G01 X49.8422 Y0.3006 
G01 X49.9788 Y0.3278 
G01 X50.1074 Y0.3810 
G01 X50.2232 Y0.4584 
G01 X50.3216 Y0.5568 
G01 X50.3990 Y0.6726 
G01 X50.4522 Y0.8012 
G01 X50.4794 Y0.9378 
G01 X50.4794 Y54.6122 
G01 X50.4522 Y54.7488 
G01 X50.3990 Y54.8774 
G01 X50.3216 Y54.9932 
G01 X50.2232 Y55.0916 
G01 X50.1074 Y55.1690 
G01 X49.9788 Y55.2222 
G01 X49.8422 Y55.2494 
G01 X49.7030 Y55.2494 
G01 X0.9378 Y55.2494 
G00 Z2.5400 
G00 Z2.540000
G00 X36.8300 Y5.0800 
G01 Z-0.1000 F18.00 
G01 Z2.540000
(R2.5400  P1.000000)
(G00 Z2.540000)
G00 X26.6700 Y5.0800 
G01 Z-1.600000
G01 Z2.540000
(G00 Z2.540000)
G00 X29.2100 Y5.0800 
G01 Z-1.600000
G01 Z2.540000
(G00 Z2.540000)
G00 X13.9700 Y44.4500 
G01 Z-1.600000
G01 Z2.540000
(G00 Z2.540000)
G00 X13.9700 Y41.9100 
G01 Z-1.600000
G01 Z2.540000
(G00 Z2.540000)
G00 X13.9700 Y34.2900 
G01 Z-1.600000
G01 Z2.540000
(G00 Z2.540000)
G00 X13.9700 Y36.8300 
G01 Z-1.600000
G01 Z2.540000
(G00 Z2.540000)
G00 X43.1800 Y43.1800 
G01 Z-1.600000
G01 Z2.540000
(G00 Z2.540000)
G00 X43.1800 Y45.7200 
G01 Z-1.600000
G01 Z2.540000
(G00 Z2.540000)
G00 X43.1800 Y48.2600 
G01 Z-1.600000
G01 Z2.540000
(G00 Z2.540000)
G00 X43.1800 Y30.4800 
G01 Z-1.600000
G01 Z2.540000
(G00 Z2.540000)
G00 X43.1800 Y33.0200 
G01 Z-1.600000
G01 Z2.540000
(G00 Z2.540000)
G00 X43.1800 Y35.5600 
G01 Z-1.600000
G01 Z2.540000
(G00 Z2.540000)
G00 X35.5600 Y48.2600 
G01 Z-1.600000
G01 Z2.540000
(G00 Z2.540000)
G00 X35.5600 Y45.7200 
G01 Z-1.600000
G01 Z2.540000
(G00 Z2.540000)
G00 X35.5600 Y43.1800 
G01 Z-1.600000
G01 Z2.540000
(G00 Z2.540000)
G00 X35.5600 Y40.6400 
G01 Z-1.600000
G01 Z2.540000
(G00 Z2.540000)
G00 X35.5600 Y38.1000 
G01 Z-1.600000
G01 Z2.540000
(G00 Z2.540000)
G00 X35.5600 Y35.5600 
G01 Z-1.600000
G01 Z2.540000
(G00 Z2.540000)
G00 X35.5600 Y33.0200 
G01 Z-1.600000
G01 Z2.540000
(G00 Z2.540000)
G00 X35.5600 Y30.4800 
G01 Z-1.600000
G01 Z2.540000
(G00 Z2.540000)
G00 X35.5600 Y27.9400 
G01 Z-1.600000
G01 Z2.540000
(G00 Z2.540000)
G00 X35.5600 Y25.4000 
G01 Z-1.600000
G01 Z2.540000
(G00 Z2.540000)
G00 X35.5600 Y22.8600 
G01 Z-1.600000
G01 Z2.540000
(G00 Z2.540000)
G00 X35.5600 Y20.3200 
G01 Z-1.600000
G01 Z2.540000
(G00 Z2.540000)
G00 X35.5600 Y17.7800 
G01 Z-1.600000
G01 Z2.540000
(G00 Z2.540000)
G00 X35.5600 Y15.2400 
G01 Z-1.600000
G01 Z2.540000
(G00 Z2.540000)
G00 X35.5600 Y12.7000 
G01 Z-1.600000
G01 Z2.540000
(G00 Z2.540000)
G00 X20.3200 Y12.7000 
G01 Z-1.600000
G01 Z2.540000
(G00 Z2.540000)
G00 X20.3200 Y15.2400 
G01 Z-1.600000
G01 Z2.540000
(G00 Z2.540000)
G00 X20.3200 Y17.7800 
G01 Z-1.600000
G01 Z2.540000
(G00 Z2.540000)
G00 X20.3200 Y20.3200 
G01 Z-1.600000
G01 Z2.540000
(G00 Z2.540000)
G00 X20.3200 Y22.8600 
G01 Z-1.600000
G01 Z2.540000
(G00 Z2.540000)
G00 X20.3200 Y25.4000 
G01 Z-1.600000
G01 Z2.540000
(G00 Z2.540000)
G00 X20.3200 Y27.9400 
G01 Z-1.600000
G01 Z2.540000
(G00 Z2.540000)
G00 X20.3200 Y30.4800 
G01 Z-1.600000
G01 Z2.540000
(G00 Z2.540000)
G00 X20.3200 Y33.0200 
G01 Z-1.600000
G01 Z2.540000
(G00 Z2.540000)
G00 X20.3200 Y35.5600 
G01 Z-1.600000
G01 Z2.540000
(G00 Z2.540000)
G00 X20.3200 Y38.1000 
G01 Z-1.600000
G01 Z2.540000
(G00 Z2.540000)
G00 X20.3200 Y40.6400 
G01 Z-1.600000
G01 Z2.540000
(G00 Z2.540000)
G00 X20.3200 Y43.1800 
G01 Z-1.600000
G01 Z2.540000
(G00 Z2.540000)
G00 X20.3200 Y45.7200 
G01 Z-1.600000
G01 Z2.540000
(G00 Z2.540000)
G00 X20.3200 Y48.2600 
G01 Z-1.600000
G01 Z2.540000
G00 Z12.7000 
M05
M02
