(.../pcb-gcode-3_6_0_4/pcb-gcode.ulp)
(Copyright 2005 - 2012 by John Johnson)
(See readme.txt for licensing terms.)
(This file generated from the board:)
(.../AutoWatering/watering_board.brd)
(Current profile is .../pcb-gcode-3_6_0_4/profiles/generic.pp  )
(This file generated 4/8/22 4:25 PM)
(Settings from pcb-machine.h)
(  Tool Size)
(0.5500 )
(Z Axis Settings)
(  High     Up        Down     Drill)
(12.7000 	2.5400 	-0.1000 	-1.6000 )
(spindle on time = 3.0000)
(milling depth = -0.0800)
(text depth = -0.0400)
(tool change at 0.0000 0.0000 25.4000 )
(feed rate xy = F24.00 )
(feed rate z  = F18.00 )
(Settings from pcb-defaults.h)
(isolate min = 0.0254)
(isolate max = 0.5080)
(isolate step = 0.3000)
(Generated top outlines, top drill, bottom outlines, bottom drill, )
(Unit of measure: mm)
(Metric Mode)
G21
(Absolute Coordinates)
G90
G00 X0.0000 Y0.0000 
M03
G04 P3.000000
G00 Z2.5400 
G00 X16.0330 Y36.4234 
G01 Z-0.1000 F18.00 
G01 X15.9642 Y36.5264 F24.00 
G01 X15.8708 Y36.6199 
G01 X15.8657 Y36.6249 
G01 X13.4608 Y39.0298 
G01 X13.3694 Y39.2505 
G01 X13.3694 Y45.3471 
G01 X13.3438 Y45.4759 
G01 X13.3422 Y45.4836 
G01 X13.2890 Y45.6123 
G01 X13.2116 Y45.7280 
G01 X13.1132 Y45.8265 
G01 X12.9974 Y45.9038 
G01 X12.9641 Y45.9176 
G01 X13.0228 Y45.9019 
G01 X13.3696 Y45.9019 
G01 X13.3696 Y39.3109 
G01 X13.3927 Y39.1949 
G01 X13.4379 Y39.0856 
G01 X13.5036 Y38.9873 
G01 X16.0165 Y36.4745 
G01 X16.0330 Y36.4234 
G00 Z2.5400 
G00 X25.8611 Y23.2647 
G01 Z-0.1000 F18.00 
G01 X25.7858 Y23.4126 F24.00 
G01 X25.6883 Y23.5469 
G01 X25.5709 Y23.6643 
G01 X25.4366 Y23.7618 
G01 X25.2887 Y23.8371 
G01 X25.1309 Y23.8884 
G01 X24.9670 Y23.9144 
G01 X23.2930 Y23.9144 
G01 X23.1291 Y23.8884 
G01 X22.9713 Y23.8371 
G01 X22.8234 Y23.7618 
G01 X22.6891 Y23.6643 
G01 X22.5717 Y23.5469 
G01 X22.4742 Y23.4126 
G01 X22.4165 Y23.2994 
G01 X22.4820 Y23.4574 
G01 X22.6056 Y23.5810 
G01 X22.7011 Y23.6765 
G01 X22.7040 Y23.6794 
G01 X22.7814 Y23.7952 
G01 X22.8119 Y23.8690 
G01 X22.8346 Y23.9238 
G01 X22.8618 Y24.0604 
G01 X22.8618 Y24.1996 
G01 X22.8567 Y24.2252 
G01 X22.8346 Y24.3362 
G01 X22.8028 Y24.4130 
G01 X22.7814 Y24.4648 
G01 X22.7040 Y24.5806 
G01 X22.6071 Y24.6775 
G01 X22.4820 Y24.8026 
G01 X22.4733 Y24.8236 
G01 X22.4483 Y24.8839 
G01 X22.4200 Y24.9522 
G01 X22.3910 Y24.9956 
G01 X22.3426 Y25.0680 
G01 X22.2965 Y25.1141 
G01 X22.2442 Y25.1664 
G01 X20.3500 Y27.0606 
G01 X20.1308 Y27.2798 
G01 X20.0394 Y27.5005 
G01 X20.0394 Y32.7719 
G01 X20.0138 Y32.9007 
G01 X20.0122 Y32.9085 
G01 X19.9590 Y33.0371 
G01 X19.8816 Y33.1529 
G01 X19.7832 Y33.2513 
G01 X19.6674 Y33.3287 
G01 X19.5388 Y33.3819 
G01 X19.4022 Y33.4091 
G01 X19.2630 Y33.4091 
G01 X19.1342 Y33.3835 
G01 X19.1264 Y33.3819 
G01 X18.9978 Y33.3287 
G01 X18.9848 Y33.3233 
G01 X19.0988 Y33.3814 
G01 X19.2341 Y33.4796 
G01 X19.3524 Y33.5979 
G01 X19.4506 Y33.7332 
G01 X19.5266 Y33.8822 
G01 X19.5782 Y34.0412 
G01 X19.6044 Y34.2064 
G01 X19.6044 Y34.3736 
G01 X19.5782 Y34.5388 
G01 X19.5266 Y34.6978 
G01 X19.4506 Y34.8468 
G01 X19.3524 Y34.9821 
G01 X19.2341 Y35.1003 
G01 X19.0988 Y35.1986 
G01 X18.9498 Y35.2746 
G01 X18.7908 Y35.3262 
G01 X18.6256 Y35.3524 
G01 X16.9344 Y35.3524 
G01 X16.7692 Y35.3262 
G01 X16.6102 Y35.2746 
G01 X16.4612 Y35.1986 
G01 X16.3259 Y35.1003 
G01 X16.2076 Y34.9821 
G01 X16.1410 Y34.8904 
G01 X15.1809 Y34.8904 
G01 X15.0649 Y34.8673 
G01 X14.9556 Y34.8221 
G01 X14.8573 Y34.7564 
G01 X14.7736 Y34.6727 
G01 X13.5873 Y33.4864 
G01 X13.5036 Y33.4027 
G01 X13.4379 Y33.3044 
G01 X13.3927 Y33.1951 
G01 X13.3696 Y33.0791 
G01 X13.3696 Y21.5309 
G01 X13.3927 Y21.4149 
G01 X13.4379 Y21.3056 
G01 X13.5036 Y21.2073 
G01 X16.9496 Y17.7613 
G01 X16.9496 Y17.2404 
G01 X16.9653 Y17.1817 
G01 X16.9494 Y17.2202 
G01 X16.9494 Y17.5381 
G01 X16.9222 Y17.6746 
G01 X16.8690 Y17.8033 
G01 X16.7916 Y17.9190 
G01 X16.6932 Y18.0175 
G01 X13.4608 Y21.2498 
G01 X13.3694 Y21.4705 
G01 X13.3694 Y33.1395 
G01 X13.4608 Y33.3602 
G01 X13.7784 Y33.6778 
G01 X14.6806 Y34.5800 
G01 X14.8998 Y34.7992 
G01 X15.1205 Y34.8906 
G01 X15.8179 Y34.8906 
G01 X15.9545 Y34.9178 
G01 X16.0062 Y34.9392 
G01 X16.0831 Y34.9710 
G01 X16.1989 Y35.0484 
G01 X16.2973 Y35.1468 
G01 X16.3219 Y35.1837 
G01 X16.3746 Y35.2626 
G01 X16.4134 Y35.3562 
G01 X16.4279 Y35.3912 
G01 X16.4480 Y35.4920 
G01 X16.4551 Y35.5278 
G01 X16.4551 Y35.6670 
G01 X16.4279 Y35.8036 
G01 X16.4065 Y35.8553 
G01 X16.3746 Y35.9322 
G01 X16.2973 Y36.0480 
G01 X16.1989 Y36.1464 
G01 X16.1172 Y36.2281 
G01 X16.0887 Y36.2967 
G01 X16.0513 Y36.3872 
G01 X16.1094 Y36.2732 
G01 X16.2076 Y36.1379 
G01 X16.3259 Y36.0196 
G01 X16.4612 Y35.9214 
G01 X16.6102 Y35.8454 
G01 X16.7692 Y35.7938 
G01 X16.9344 Y35.7676 
G01 X18.6256 Y35.7676 
G01 X18.7908 Y35.7938 
G01 X18.9498 Y35.8454 
G01 X19.0988 Y35.9214 
G01 X19.2341 Y36.0196 
G01 X19.3524 Y36.1379 
G01 X19.4506 Y36.2732 
G01 X19.5266 Y36.4222 
G01 X19.5782 Y36.5812 
G01 X19.6044 Y36.7464 
G01 X19.6044 Y36.9136 
G01 X19.5782 Y37.0788 
G01 X19.5266 Y37.2378 
G01 X19.4506 Y37.3868 
G01 X19.3524 Y37.5221 
G01 X19.2341 Y37.6404 
G01 X19.0988 Y37.7386 
G01 X18.9498 Y37.8146 
G01 X18.7908 Y37.8662 
G01 X18.6256 Y37.8924 
G01 X16.9344 Y37.8924 
G01 X16.7692 Y37.8662 
G01 X16.6102 Y37.8146 
G01 X16.4612 Y37.7386 
G01 X16.4550 Y37.7341 
G01 X14.5704 Y39.6187 
G01 X14.5704 Y43.0005 
G01 X16.0165 Y41.5545 
G01 X16.0334 Y41.5022 
G01 X16.1094 Y41.3532 
G01 X16.2076 Y41.2179 
G01 X16.3259 Y41.0996 
G01 X16.4612 Y41.0014 
G01 X16.6102 Y40.9254 
G01 X16.7692 Y40.8738 
G01 X16.9344 Y40.8476 
G01 X18.6256 Y40.8476 
G01 X18.7908 Y40.8738 
G01 X18.9498 Y40.9254 
G01 X19.0988 Y41.0014 
G01 X19.2341 Y41.0996 
G01 X19.3524 Y41.2179 
G01 X19.4506 Y41.3532 
G01 X19.5266 Y41.5022 
G01 X19.5782 Y41.6612 
G01 X19.6044 Y41.8264 
G01 X19.6044 Y41.9936 
G01 X19.5782 Y42.1588 
G01 X19.5266 Y42.3178 
G01 X19.4506 Y42.4668 
G01 X19.3524 Y42.6021 
G01 X19.2341 Y42.7204 
G01 X19.0988 Y42.8186 
G01 X18.9498 Y42.8946 
G01 X18.7908 Y42.9462 
G01 X18.6256 Y42.9724 
G01 X16.9344 Y42.9724 
G01 X16.7692 Y42.9462 
G01 X16.6102 Y42.8946 
G01 X16.4612 Y42.8186 
G01 X16.4550 Y42.8141 
G01 X14.5704 Y44.6987 
G01 X14.5704 Y45.9019 
G01 X14.9172 Y45.9019 
G01 X14.9936 Y45.9224 
G01 X15.0621 Y45.9619 
G01 X15.1180 Y46.0179 
G01 X15.1576 Y46.0863 
G01 X15.1780 Y46.1628 
G01 X15.1780 Y47.4064 
G01 X15.1576 Y47.4828 
G01 X15.1180 Y47.5513 
G01 X15.0621 Y47.6073 
G01 X15.0020 Y47.6419 
G01 X15.1330 Y47.6159 
G01 X15.2722 Y47.6159 
G01 X15.4088 Y47.6431 
G01 X15.5374 Y47.6963 
G01 X15.6532 Y47.7737 
G01 X15.7516 Y47.8721 
G01 X15.8279 Y47.9864 
G01 X15.8822 Y48.1165 
G01 X15.9094 Y48.2531 
G01 X15.9094 Y48.3795 
G01 X15.9143 Y48.3912 
G01 X15.9279 Y48.4596 
G01 X15.9414 Y48.5277 
G01 X15.9414 Y48.5565 
G01 X15.9886 Y48.5880 
G01 X16.0871 Y48.6864 
G01 X16.7916 Y49.3910 
G01 X16.8690 Y49.5067 
G01 X16.8705 Y49.5105 
G01 X16.9222 Y49.6354 
G01 X16.9479 Y49.7642 
G01 X16.9494 Y49.7719 
G01 X16.9494 Y50.0898 
G01 X16.9653 Y50.1283 
G01 X16.9496 Y50.0695 
G01 X16.9496 Y49.5487 
G01 X16.0436 Y48.6427 
G01 X15.9779 Y48.5444 
G01 X15.9327 Y48.4351 
G01 X15.9096 Y48.3191 
G01 X15.9096 Y45.6609 
G01 X15.9327 Y45.5449 
G01 X15.9779 Y45.4356 
G01 X16.0436 Y45.3373 
G01 X16.1273 Y45.2536 
G01 X16.2232 Y45.1577 
G01 X16.2076 Y45.1421 
G01 X16.1094 Y45.0068 
G01 X16.0334 Y44.8578 
G01 X15.9818 Y44.6988 
G01 X15.9556 Y44.5336 
G01 X15.9556 Y44.3664 
G01 X15.9818 Y44.2012 
G01 X16.0334 Y44.0422 
G01 X16.1094 Y43.8932 
G01 X16.2076 Y43.7579 
G01 X16.3259 Y43.6396 
G01 X16.4612 Y43.5414 
G01 X16.6102 Y43.4654 
G01 X16.7692 Y43.4138 
G01 X16.9344 Y43.3876 
G01 X18.6256 Y43.3876 
G01 X18.7908 Y43.4138 
G01 X18.9498 Y43.4654 
G01 X19.0988 Y43.5414 
G01 X19.2341 Y43.6396 
G01 X19.3524 Y43.7579 
G01 X19.4506 Y43.8932 
G01 X19.5266 Y44.0422 
G01 X19.5782 Y44.2012 
G01 X19.6044 Y44.3664 
G01 X19.6044 Y44.5336 
G01 X19.5782 Y44.6988 
G01 X19.5266 Y44.8578 
G01 X19.4506 Y45.0068 
G01 X19.3524 Y45.1421 
G01 X19.2341 Y45.2604 
G01 X19.0988 Y45.3586 
G01 X18.9498 Y45.4346 
G01 X18.7908 Y45.4862 
G01 X18.6256 Y45.5124 
G01 X17.5667 Y45.5124 
G01 X17.1104 Y45.9687 
G01 X17.1104 Y48.0113 
G01 X17.8287 Y48.7296 
G01 X18.6895 Y48.7296 
G01 X18.7660 Y48.7501 
G01 X18.8344 Y48.7896 
G01 X18.8904 Y48.8456 
G01 X18.9299 Y48.9140 
G01 X18.9504 Y48.9905 
G01 X18.9504 Y50.0695 
G01 X18.9299 Y50.1459 
G01 X18.8904 Y50.2144 
G01 X18.8344 Y50.2704 
G01 X18.7660 Y50.3099 
G01 X18.6895 Y50.3304 
G01 X17.2105 Y50.3304 
G01 X17.1517 Y50.3147 
G01 X17.1902 Y50.3306 
G01 X18.8592 Y50.3306 
G01 X18.9958 Y50.3578 
G01 X19.1244 Y50.4110 
G01 X19.1496 Y50.4279 
G01 X19.1496 Y49.9405 
G01 X19.1701 Y49.8640 
G01 X19.2096 Y49.7956 
G01 X19.2656 Y49.7396 
G01 X19.3340 Y49.7001 
G01 X19.4105 Y49.6796 
G01 X20.8131 Y49.6796 
G01 X20.8190 Y49.6499 
G01 X20.8381 Y49.6038 
G01 X20.8723 Y49.5212 
G01 X20.8955 Y49.4865 
G01 X20.9496 Y49.4055 
G01 X21.0481 Y49.3070 
G01 X21.1048 Y49.2503 
G01 X21.1208 Y49.2118 
G01 X21.0904 Y49.2644 
G01 X21.0344 Y49.3204 
G01 X20.9659 Y49.3599 
G01 X20.8895 Y49.3804 
G01 X19.4105 Y49.3804 
G01 X19.3340 Y49.3599 
G01 X19.2656 Y49.3204 
G01 X19.2096 Y49.2644 
G01 X19.1701 Y49.1960 
G01 X19.1496 Y49.1195 
G01 X19.1496 Y48.0404 
G01 X19.1701 Y47.9640 
G01 X19.2096 Y47.8956 
G01 X19.2656 Y47.8396 
G01 X19.3340 Y47.8001 
G01 X19.4105 Y47.7796 
G01 X20.0396 Y47.7796 
G01 X20.0396 Y27.5609 
G01 X20.0627 Y27.4449 
G01 X20.1079 Y27.3356 
G01 X20.1736 Y27.2373 
G01 X20.2573 Y27.1536 
G01 X22.3908 Y25.0201 
G01 X22.3988 Y24.9953 
G01 X22.4742 Y24.8474 
G01 X22.5717 Y24.7131 
G01 X22.6891 Y24.5957 
G01 X22.8234 Y24.4982 
G01 X22.9713 Y24.4229 
G01 X23.1291 Y24.3716 
G01 X23.2930 Y24.3456 
G01 X24.9670 Y24.3456 
G01 X25.1309 Y24.3716 
G01 X25.2887 Y24.4229 
G01 X25.4366 Y24.4982 
G01 X25.5709 Y24.5957 
G01 X25.6883 Y24.7131 
G01 X25.7858 Y24.8474 
G01 X25.8435 Y24.9605 
G01 X25.7780 Y24.8026 
G01 X25.5560 Y24.5806 
G01 X25.4786 Y24.4648 
G01 X25.4559 Y24.4100 
G01 X25.4254 Y24.3362 
G01 X25.4039 Y24.2283 
G01 X25.3982 Y24.1996 
G01 X25.3982 Y24.0604 
G01 X25.4254 Y23.9238 
G01 X25.4468 Y23.8721 
G01 X25.4786 Y23.7952 
G01 X25.5560 Y23.6794 
G01 X25.6544 Y23.5810 
G01 X25.7780 Y23.4574 
G01 X25.7867 Y23.4364 
G01 X25.8148 Y23.3686 
G01 X25.8400 Y23.3078 
G01 X25.8657 Y23.2693 
G01 X25.9174 Y23.1920 
G01 X25.9635 Y23.1459 
G01 X26.0158 Y23.0936 
G01 X26.0578 Y23.0516 
G01 X27.1792 Y21.9302 
G01 X27.2706 Y21.7095 
G01 X27.2706 Y11.3105 
G01 X27.1792 Y11.0898 
G01 X25.7402 Y9.6508 
G01 X25.5195 Y9.5594 
G01 X22.7405 Y9.5594 
G01 X22.5198 Y9.6508 
G01 X22.2022 Y9.9684 
G01 X21.0808 Y11.0898 
G01 X20.9894 Y11.3105 
G01 X20.9894 Y14.9181 
G01 X20.9622 Y15.0546 
G01 X20.9090 Y15.1833 
G01 X20.8316 Y15.2990 
G01 X20.7332 Y15.3975 
G01 X20.2590 Y15.8716 
G01 X20.1433 Y15.9490 
G01 X20.0146 Y16.0022 
G01 X19.8781 Y16.0294 
G01 X19.3902 Y16.0294 
G01 X19.3517 Y16.0453 
G01 X19.4105 Y16.0296 
G01 X20.1013 Y16.0296 
G01 X20.9896 Y15.1413 
G01 X20.9896 Y11.3709 
G01 X21.0127 Y11.2549 
G01 X21.0579 Y11.1456 
G01 X21.1236 Y11.0473 
G01 X22.3936 Y9.7773 
G01 X22.4773 Y9.6936 
G01 X22.5756 Y9.6279 
G01 X22.6849 Y9.5827 
G01 X22.8009 Y9.5596 
G01 X25.4591 Y9.5596 
G01 X25.5751 Y9.5827 
G01 X25.6844 Y9.6279 
G01 X25.7827 Y9.6936 
G01 X27.0527 Y10.9636 
G01 X27.1364 Y11.0473 
G01 X27.2021 Y11.1456 
G01 X27.2473 Y11.2549 
G01 X27.2704 Y11.3709 
G01 X27.2704 Y21.6491 
G01 X27.2473 Y21.7651 
G01 X27.2021 Y21.8744 
G01 X27.1364 Y21.9727 
G01 X25.8692 Y23.2399 
G01 X25.8611 Y23.2647 
G00 Z2.5400 
G00 X15.4887 Y33.6896 
G01 Z-0.1000 F18.00 
G01 X16.1410 Y33.6896 F24.00 
G01 X16.2076 Y33.5979 
G01 X16.3259 Y33.4796 
G01 X16.4612 Y33.3814 
G01 X16.5752 Y33.3233 
G01 X16.4161 Y33.3892 
G01 X16.3721 Y33.4332 
G01 X16.2782 Y33.5270 
G01 X16.2737 Y33.5316 
G01 X16.1984 Y33.5819 
G01 X16.1579 Y33.6090 
G01 X16.1374 Y33.6175 
G01 X16.0293 Y33.6622 
G01 X15.8927 Y33.6894 
G01 X15.7119 Y33.6894 
G01 X15.5754 Y33.6622 
G01 X15.4467 Y33.6090 
G01 X15.3310 Y33.5316 
G01 X14.7284 Y32.9290 
G01 X14.6510 Y32.8133 
G01 X14.5978 Y32.6846 
G01 X14.5706 Y32.5481 
G01 X14.5706 Y22.0619 
G01 X14.5978 Y21.9254 
G01 X14.6510 Y21.7967 
G01 X14.7284 Y21.6810 
G01 X14.8268 Y21.5825 
G01 X17.6710 Y18.7384 
G01 X17.7867 Y18.6610 
G01 X17.9154 Y18.6078 
G01 X18.0519 Y18.5806 
G01 X18.8592 Y18.5806 
G01 X18.9958 Y18.6078 
G01 X19.1244 Y18.6610 
G01 X19.1496 Y18.6779 
G01 X19.1496 Y18.1905 
G01 X19.1701 Y18.1140 
G01 X19.2096 Y18.0456 
G01 X19.2656 Y17.9896 
G01 X19.3340 Y17.9501 
G01 X19.4105 Y17.9296 
G01 X20.8131 Y17.9296 
G01 X20.8190 Y17.8999 
G01 X20.8304 Y17.8724 
G01 X20.8723 Y17.7712 
G01 X20.9031 Y17.7252 
G01 X20.9496 Y17.6555 
G01 X20.9981 Y17.6070 
G01 X21.0481 Y17.5570 
G01 X21.1640 Y17.4411 
G01 X21.2798 Y17.3637 
G01 X21.4084 Y17.3104 
G01 X21.5450 Y17.2833 
G01 X21.6842 Y17.2833 
G01 X21.8208 Y17.3104 
G01 X21.9494 Y17.3637 
G01 X22.0652 Y17.4411 
G01 X22.1636 Y17.5395 
G01 X22.2410 Y17.6553 
G01 X22.2942 Y17.7839 
G01 X22.3214 Y17.9205 
G01 X22.3214 Y17.9898 
G01 X22.3868 Y18.1477 
G01 X22.3476 Y18.0269 
G01 X22.3216 Y17.8630 
G01 X22.3216 Y17.6970 
G01 X22.3476 Y17.5331 
G01 X22.3988 Y17.3753 
G01 X22.4742 Y17.2274 
G01 X22.5717 Y17.0931 
G01 X22.6891 Y16.9757 
G01 X22.8234 Y16.8782 
G01 X22.9713 Y16.8028 
G01 X23.1291 Y16.7516 
G01 X23.2930 Y16.7256 
G01 X24.9670 Y16.7256 
G01 X25.1309 Y16.7516 
G01 X25.2887 Y16.8028 
G01 X25.4366 Y16.8782 
G01 X25.5709 Y16.9757 
G01 X25.6883 Y17.0931 
G01 X25.7858 Y17.2274 
G01 X25.8611 Y17.3753 
G01 X25.9124 Y17.5331 
G01 X25.9384 Y17.6970 
G01 X25.9384 Y17.8630 
G01 X25.9124 Y18.0269 
G01 X25.8611 Y18.1847 
G01 X25.7858 Y18.3326 
G01 X25.6883 Y18.4669 
G01 X25.5709 Y18.5843 
G01 X25.4366 Y18.6818 
G01 X25.2887 Y18.7571 
G01 X25.1309 Y18.8084 
G01 X24.9670 Y18.8344 
G01 X23.2930 Y18.8344 
G01 X23.1291 Y18.8084 
G01 X22.9713 Y18.7571 
G01 X22.8234 Y18.6818 
G01 X22.6891 Y18.5843 
G01 X22.5717 Y18.4669 
G01 X22.4742 Y18.3326 
G01 X22.4165 Y18.2195 
G01 X22.4820 Y18.3774 
G01 X22.8049 Y18.7003 
G01 X22.8313 Y18.7179 
G01 X22.8601 Y18.7372 
G01 X22.9335 Y18.8106 
G01 X22.9585 Y18.8356 
G01 X22.9996 Y18.8972 
G01 X23.0359 Y18.9514 
G01 X23.0630 Y19.0168 
G01 X23.0892 Y19.0800 
G01 X23.1028 Y19.1484 
G01 X23.1163 Y19.2166 
G01 X23.1163 Y19.2957 
G01 X23.1291 Y19.2916 
G01 X23.2930 Y19.2656 
G01 X24.9670 Y19.2656 
G01 X25.1309 Y19.2916 
G01 X25.2887 Y19.3429 
G01 X25.4366 Y19.4182 
G01 X25.5709 Y19.5157 
G01 X25.6883 Y19.6331 
G01 X25.7858 Y19.7674 
G01 X25.8611 Y19.9153 
G01 X25.9124 Y20.0731 
G01 X25.9384 Y20.2370 
G01 X25.9384 Y20.4030 
G01 X25.9124 Y20.5669 
G01 X25.8611 Y20.7247 
G01 X25.7858 Y20.8726 
G01 X25.6883 Y21.0069 
G01 X25.5709 Y21.1242 
G01 X25.4366 Y21.2218 
G01 X25.2887 Y21.2971 
G01 X25.1309 Y21.3484 
G01 X24.9670 Y21.3744 
G01 X23.2930 Y21.3744 
G01 X23.1291 Y21.3484 
G01 X23.1163 Y21.3443 
G01 X23.1163 Y21.4234 
G01 X23.1030 Y21.4906 
G01 X23.0892 Y21.5600 
G01 X23.0636 Y21.6216 
G01 X23.0359 Y21.6886 
G01 X23.0001 Y21.7421 
G01 X22.9586 Y21.8043 
G01 X22.9343 Y21.8286 
G01 X22.8601 Y21.9028 
G01 X22.8324 Y21.9213 
G01 X22.8048 Y21.9397 
G01 X22.4819 Y22.2626 
G01 X22.4165 Y22.4206 
G01 X22.4742 Y22.3074 
G01 X22.5717 Y22.1731 
G01 X22.6891 Y22.0557 
G01 X22.8234 Y21.9582 
G01 X22.9713 Y21.8829 
G01 X23.1291 Y21.8316 
G01 X23.2930 Y21.8056 
G01 X24.9670 Y21.8056 
G01 X25.1309 Y21.8316 
G01 X25.2887 Y21.8829 
G01 X25.4366 Y21.9582 
G01 X25.4459 Y21.9650 
G01 X26.0696 Y21.3413 
G01 X26.0696 Y11.6787 
G01 X25.1513 Y10.7604 
G01 X23.1087 Y10.7604 
G01 X22.1904 Y11.6787 
G01 X22.1904 Y15.4491 
G01 X22.1673 Y15.5651 
G01 X22.1221 Y15.6744 
G01 X22.0564 Y15.7727 
G01 X21.9727 Y15.8564 
G01 X21.1504 Y16.6787 
G01 X21.1504 Y17.3695 
G01 X21.1299 Y17.4459 
G01 X21.0904 Y17.5144 
G01 X21.0344 Y17.5704 
G01 X20.9659 Y17.6099 
G01 X20.8895 Y17.6304 
G01 X19.4105 Y17.6304 
G01 X19.3340 Y17.6099 
G01 X19.2656 Y17.5704 
G01 X19.2096 Y17.5144 
G01 X19.1701 Y17.4459 
G01 X19.1496 Y17.3695 
G01 X19.1496 Y16.2904 
G01 X19.1653 Y16.2317 
G01 X19.1494 Y16.2702 
G01 X19.1494 Y16.3422 
G01 X19.1222 Y16.4788 
G01 X19.0690 Y16.6074 
G01 X18.9916 Y16.7232 
G01 X18.8932 Y16.8216 
G01 X18.7774 Y16.8990 
G01 X18.6488 Y16.9522 
G01 X18.5122 Y16.9794 
G01 X17.1902 Y16.9794 
G01 X17.1517 Y16.9953 
G01 X17.2105 Y16.9796 
G01 X18.6895 Y16.9796 
G01 X18.7660 Y17.0001 
G01 X18.8344 Y17.0396 
G01 X18.8904 Y17.0955 
G01 X18.9299 Y17.1640 
G01 X18.9504 Y17.2404 
G01 X18.9504 Y18.3195 
G01 X18.9299 Y18.3959 
G01 X18.8904 Y18.4644 
G01 X18.8344 Y18.5204 
G01 X18.7660 Y18.5599 
G01 X18.6895 Y18.5804 
G01 X17.8287 Y18.5804 
G01 X14.5704 Y21.8387 
G01 X14.5704 Y32.7713 
G01 X15.4887 Y33.6896 
G00 Z2.5400 
G00 X23.2930 Y11.6456 
G01 Z-0.1000 F18.00 
G01 X24.9670 Y11.6456 F24.00 
G01 X25.1309 Y11.6716 
G01 X25.2887 Y11.7229 
G01 X25.4366 Y11.7982 
G01 X25.5709 Y11.8957 
G01 X25.6883 Y12.0131 
G01 X25.7858 Y12.1474 
G01 X25.8611 Y12.2953 
G01 X25.9124 Y12.4531 
G01 X25.9384 Y12.6170 
G01 X25.9384 Y12.7830 
G01 X25.9124 Y12.9469 
G01 X25.8611 Y13.1047 
G01 X25.7858 Y13.2526 
G01 X25.6883 Y13.3869 
G01 X25.5709 Y13.5043 
G01 X25.4366 Y13.6018 
G01 X25.2887 Y13.6771 
G01 X25.1309 Y13.7284 
G01 X24.9670 Y13.7544 
G01 X23.2930 Y13.7544 
G01 X23.1291 Y13.7284 
G01 X22.9713 Y13.6771 
G01 X22.8234 Y13.6018 
G01 X22.6891 Y13.5043 
G01 X22.5717 Y13.3869 
G01 X22.4742 Y13.2526 
G01 X22.3988 Y13.1047 
G01 X22.3476 Y12.9469 
G01 X22.3216 Y12.7830 
G01 X22.3216 Y12.6170 
G01 X22.3476 Y12.4531 
G01 X22.3988 Y12.2953 
G01 X22.4742 Y12.1474 
G01 X22.5717 Y12.0131 
G01 X22.6891 Y11.8957 
G01 X22.8234 Y11.7982 
G01 X22.9713 Y11.7229 
G01 X23.1291 Y11.6716 
G01 X23.2930 Y11.6456 
G00 Z2.5400 
G00 X23.2930 Y14.1856 
G01 Z-0.1000 F18.00 
G01 X24.9670 Y14.1856 F24.00 
G01 X25.1309 Y14.2116 
G01 X25.2887 Y14.2629 
G01 X25.4366 Y14.3382 
G01 X25.5709 Y14.4357 
G01 X25.6883 Y14.5531 
G01 X25.7858 Y14.6874 
G01 X25.8611 Y14.8353 
G01 X25.9124 Y14.9931 
G01 X25.9384 Y15.1570 
G01 X25.9384 Y15.3230 
G01 X25.9124 Y15.4869 
G01 X25.8611 Y15.6447 
G01 X25.7858 Y15.7926 
G01 X25.6883 Y15.9269 
G01 X25.5709 Y16.0443 
G01 X25.4366 Y16.1418 
G01 X25.2887 Y16.2171 
G01 X25.1309 Y16.2684 
G01 X24.9670 Y16.2944 
G01 X23.2930 Y16.2944 
G01 X23.1291 Y16.2684 
G01 X22.9713 Y16.2171 
G01 X22.8234 Y16.1418 
G01 X22.6891 Y16.0443 
G01 X22.5717 Y15.9269 
G01 X22.4742 Y15.7926 
G01 X22.3988 Y15.6447 
G01 X22.3476 Y15.4869 
G01 X22.3216 Y15.3230 
G01 X22.3216 Y15.1570 
G01 X22.3476 Y14.9931 
G01 X22.3988 Y14.8353 
G01 X22.4742 Y14.6874 
G01 X22.5717 Y14.5531 
G01 X22.6891 Y14.4357 
G01 X22.8234 Y14.3382 
G01 X22.9713 Y14.2629 
G01 X23.1291 Y14.2116 
G01 X23.2930 Y14.1856 
G00 Z2.5400 
G00 X16.8066 Y33.2274 
G01 Z-0.1000 F18.00 
G01 X16.6475 Y33.2933 F24.00 
G01 X16.7692 Y33.2538 
G01 X16.9344 Y33.2276 
G01 X18.6256 Y33.2276 
G01 X18.7908 Y33.2538 
G01 X18.9125 Y33.2933 
G01 X18.7534 Y33.2274 
G01 X16.8066 Y33.2274 
G00 Z2.5400 
G00 X5.2619 Y41.5872 
G01 Z-0.1000 F18.00 
G01 X5.2619 Y39.6928 F24.00 
G01 X5.2776 Y39.6340 
G01 X5.2617 Y39.6726 
G01 X5.2617 Y41.6074 
G01 X5.2776 Y41.6459 
G01 X5.2619 Y41.5872 
G00 Z2.5400 
G00 X30.2686 Y3.2554 
G01 Z-0.1000 F18.00 
G01 X30.1095 Y3.3213 F24.00 
G01 X30.2312 Y3.2818 
G01 X30.3964 Y3.2556 
G01 X30.5636 Y3.2556 
G01 X30.7288 Y3.2818 
G01 X30.8505 Y3.3213 
G01 X30.6914 Y3.2554 
G01 X30.2686 Y3.2554 
G00 Z2.5400 
G00 X29.5792 Y3.7161 
G01 Z-0.1000 F18.00 
G01 X29.5133 Y3.8752 F24.00 
G01 X29.5714 Y3.7612 
G01 X29.6696 Y3.6259 
G01 X29.7879 Y3.5076 
G01 X29.9232 Y3.4094 
G01 X30.0372 Y3.3513 
G01 X29.8781 Y3.4172 
G01 X29.5792 Y3.7161 
G00 Z2.5400 
G00 X7.0116 Y39.6341 
G01 Z-0.1000 F18.00 
G01 X7.0273 Y39.6928 F24.00 
G01 X7.0273 Y41.5872 
G01 X7.0116 Y41.6459 
G01 X7.0275 Y41.6074 
G01 X7.0275 Y39.6726 
G01 X7.0116 Y39.6341 
G00 Z2.5400 
G00 X6.9030 Y39.4833 
G01 Z-0.1000 F18.00 
G01 X6.8256 Y39.3676 F24.00 
G01 X6.7724 Y39.2389 
G01 X6.7452 Y39.1024 
G01 X6.7452 Y13.3773 
G01 X6.7724 Y13.2408 
G01 X6.8256 Y13.1121 
G01 X6.9030 Y12.9964 
G01 X7.0014 Y12.8979 
G01 X14.0610 Y5.8384 
G01 X14.1767 Y5.7610 
G01 X14.3054 Y5.7078 
G01 X14.4419 Y5.6806 
G01 X28.8603 Y5.6806 
G01 X28.9969 Y5.7078 
G01 X29.0486 Y5.7292 
G01 X29.1255 Y5.7610 
G01 X29.2413 Y5.8384 
G01 X29.3397 Y5.9368 
G01 X29.4171 Y6.0526 
G01 X29.4704 Y6.1812 
G01 X29.4833 Y6.2125 
G01 X29.4438 Y6.0908 
G01 X29.4176 Y5.9256 
G01 X29.4176 Y5.6804 
G01 X14.2187 Y5.6804 
G01 X6.7917 Y13.1074 
G01 X6.7450 Y13.1541 
G01 X6.7450 Y39.4320 
G01 X6.7664 Y39.4320 
G01 X6.8429 Y39.4524 
G01 X6.9113 Y39.4920 
G01 X6.9673 Y39.5479 
G01 X6.9977 Y39.6006 
G01 X6.9817 Y39.5621 
G01 X6.9030 Y39.4833 
G00 Z2.5400 
G00 X13.5036 Y4.6973 
G01 Z-0.1000 F18.00 
G01 X13.5873 Y4.6136 F24.00 
G01 X13.6856 Y4.5479 
G01 X13.7949 Y4.5027 
G01 X13.9109 Y4.4796 
G01 X29.4176 Y4.4796 
G01 X29.4176 Y4.2344 
G01 X29.4438 Y4.0692 
G01 X29.4833 Y3.9475 
G01 X29.4704 Y3.9788 
G01 X29.4171 Y4.1074 
G01 X29.3397 Y4.2232 
G01 X29.2428 Y4.3201 
G01 X29.1255 Y4.3990 
G01 X29.0517 Y4.4295 
G01 X28.9969 Y4.4522 
G01 X28.8603 Y4.4794 
G01 X13.8505 Y4.4794 
G01 X13.6298 Y4.5708 
G01 X13.3122 Y4.8884 
G01 X6.0353 Y12.1653 
G01 X5.6354 Y12.5652 
G01 X5.5440 Y12.7859 
G01 X5.5440 Y39.1024 
G01 X5.5168 Y39.2389 
G01 X5.4636 Y39.3676 
G01 X5.3862 Y39.4833 
G01 X5.3075 Y39.5621 
G01 X5.2915 Y39.6006 
G01 X5.3219 Y39.5479 
G01 X5.3779 Y39.4920 
G01 X5.4463 Y39.4524 
G01 X5.5228 Y39.4320 
G01 X5.5442 Y39.4320 
G01 X5.5442 Y12.8463 
G01 X5.5673 Y12.7303 
G01 X5.6125 Y12.6210 
G01 X5.6782 Y12.5227 
G01 X5.9426 Y12.2583 
G01 X13.5036 Y4.6973 
G00 Z2.5400 
G00 X14.9374 Y47.6675 
G01 Z-0.1000 F18.00 
G01 X14.9759 Y47.6516 F24.00 
G01 X14.9172 Y47.6673 
G01 X13.0228 Y47.6673 
G01 X12.9641 Y47.6516 
G01 X13.0026 Y47.6675 
G01 X14.9374 Y47.6675 
G00 Z2.5400 
G00 X4.2432 Y49.1954 
G01 Z-0.1000 F18.00 
G01 X2.1576 Y49.1954 F24.00 
G01 X2.0988 Y49.1797 
G01 X2.1373 Y49.1956 
G01 X4.2635 Y49.1956 
G01 X4.3020 Y49.1797 
G01 X4.2432 Y49.1954 
G00 Z2.5400 
G00 X2.0127 Y49.1354 
G01 Z-0.1000 F18.00 
G01 X1.9567 Y49.0794 F24.00 
G01 X1.9263 Y49.0268 
G01 X1.9423 Y49.0653 
G01 X2.0268 Y49.1498 
G01 X2.0653 Y49.1658 
G01 X2.0127 Y49.1354 
G00 Z2.5400 
G00 X1.8967 Y48.9345 
G01 Z-0.1000 F18.00 
G01 X1.8967 Y45.0455 F24.00 
G01 X1.9124 Y44.9867 
G01 X1.8965 Y45.0252 
G01 X1.8965 Y48.9548 
G01 X1.9124 Y48.9933 
G01 X1.8967 Y48.9345 
G00 Z2.5400 
G00 X1.9567 Y44.9006 
G01 Z-0.1000 F18.00 
G01 X2.0127 Y44.8446 F24.00 
G01 X2.0653 Y44.8142 
G01 X2.0268 Y44.8302 
G01 X1.9423 Y44.9147 
G01 X1.9263 Y44.9532 
G01 X1.9567 Y44.9006 
G00 Z2.5400 
G00 X2.1576 Y44.7846 
G01 Z-0.1000 F18.00 
G01 X4.2432 Y44.7846 F24.00 
G01 X4.3020 Y44.8003 
G01 X4.2635 Y44.7844 
G01 X2.1373 Y44.7844 
G01 X2.0988 Y44.8003 
G01 X2.1576 Y44.7846 
G00 Z2.5400 
G00 X4.4585 Y49.0653 
G01 Z-0.1000 F18.00 
G01 X4.4745 Y49.0268 F24.00 
G01 X4.4441 Y49.0794 
G01 X4.3881 Y49.1354 
G01 X4.3355 Y49.1658 
G01 X4.3740 Y49.1498 
G01 X4.4585 Y49.0653 
G00 Z2.5400 
G00 X10.7577 Y50.2210 
G01 Z-0.1000 F18.00 
G01 X10.7737 Y50.1825 F24.00 
G01 X10.7433 Y50.2351 
G01 X10.6873 Y50.2911 
G01 X10.6347 Y50.3215 
G01 X10.6732 Y50.3055 
G01 X10.7577 Y50.2210 
G00 Z2.5400 
G00 X10.5424 Y50.3511 
G01 Z-0.1000 F18.00 
G01 X8.4567 Y50.3511 F24.00 
G01 X8.3980 Y50.3354 
G01 X8.4365 Y50.3513 
G01 X10.5627 Y50.3513 
G01 X10.6012 Y50.3354 
G01 X10.5424 Y50.3511 
G00 Z2.5400 
G00 X5.5442 Y41.8480 
G01 Z-0.1000 F18.00 
G01 X5.5228 Y41.8480 F24.00 
G01 X5.4463 Y41.8276 
G01 X5.3779 Y41.7880 
G01 X5.3219 Y41.7321 
G01 X5.2915 Y41.6794 
G01 X5.3075 Y41.7179 
G01 X5.3862 Y41.7967 
G01 X5.4636 Y41.9124 
G01 X5.5168 Y42.0411 
G01 X5.5440 Y42.1776 
G01 X5.5440 Y44.2242 
G01 X5.5440 Y44.2931 
G01 X5.5440 Y44.3634 
G01 X5.5191 Y44.4885 
G01 X5.5168 Y44.5000 
G01 X5.4886 Y44.5681 
G01 X5.4636 Y44.6286 
G01 X5.4382 Y44.6666 
G01 X5.3862 Y44.7444 
G01 X5.3377 Y44.7928 
G01 X5.2878 Y44.8428 
G01 X5.2660 Y44.8574 
G01 X5.1720 Y44.9202 
G01 X5.0434 Y44.9735 
G01 X4.9078 Y45.0004 
G01 X4.8380 Y45.0006 
G01 X4.7676 Y45.0006 
G01 X4.6425 Y44.9757 
G01 X4.6310 Y44.9735 
G01 X4.5629 Y44.9452 
G01 X4.5024 Y44.9202 
G01 X4.4645 Y44.8948 
G01 X4.3866 Y44.8428 
G01 X4.3740 Y44.8302 
G01 X4.3355 Y44.8142 
G01 X4.3881 Y44.8446 
G01 X4.4441 Y44.9006 
G01 X4.4836 Y44.9690 
G01 X4.5041 Y45.0455 
G01 X4.5041 Y48.9345 
G01 X4.4884 Y48.9933 
G01 X4.5043 Y48.9548 
G01 X4.5043 Y48.8030 
G01 X4.5299 Y48.6742 
G01 X4.5315 Y48.6665 
G01 X4.5847 Y48.5378 
G01 X4.6621 Y48.4221 
G01 X4.7605 Y48.3236 
G01 X4.8763 Y48.2463 
G01 X5.0049 Y48.1930 
G01 X5.1415 Y48.1658 
G01 X5.2807 Y48.1658 
G01 X5.4095 Y48.1915 
G01 X5.4173 Y48.1930 
G01 X5.5459 Y48.2463 
G01 X5.6617 Y48.3236 
G01 X5.7601 Y48.4221 
G01 X7.1486 Y49.8106 
G01 X7.3693 Y49.9020 
G01 X7.7067 Y49.9020 
G01 X7.7960 Y49.9198 
G01 X7.8432 Y49.9292 
G01 X7.8729 Y49.9415 
G01 X7.9719 Y49.9824 
G01 X8.0876 Y50.0598 
G01 X8.1845 Y50.1567 
G01 X8.2009 Y50.1804 
G01 X8.3260 Y50.3055 
G01 X8.3645 Y50.3215 
G01 X8.3118 Y50.2911 
G01 X8.2559 Y50.2351 
G01 X8.2164 Y50.1667 
G01 X8.1959 Y50.0902 
G01 X8.1959 Y49.9018 
G01 X7.4297 Y49.9018 
G01 X7.3137 Y49.8787 
G01 X7.2044 Y49.8335 
G01 X7.1061 Y49.7678 
G01 X5.6782 Y48.3399 
G01 X5.6125 Y48.2416 
G01 X5.5673 Y48.1323 
G01 X5.5442 Y48.0163 
G01 X5.5442 Y47.8981 
G01 X5.5442 Y41.8480 
G00 Z2.5400 
G00 X8.4861 Y45.7791 
G01 Z-0.1000 F18.00 
G01 X8.4623 Y45.8366 F24.00 
G01 X8.3849 Y45.9524 
G01 X8.2865 Y46.0508 
G01 X8.2415 Y46.0958 
G01 X8.2255 Y46.1343 
G01 X8.2559 Y46.0817 
G01 X8.3118 Y46.0257 
G01 X8.3803 Y45.9862 
G01 X8.4567 Y45.9657 
G01 X10.5424 Y45.9657 
G01 X10.6189 Y45.9862 
G01 X10.6873 Y46.0257 
G01 X10.7433 Y46.0817 
G01 X10.7828 Y46.1501 
G01 X10.8033 Y46.2266 
G01 X10.8033 Y46.4150 
G01 X12.7620 Y46.4150 
G01 X12.7620 Y46.1628 
G01 X12.7824 Y46.0863 
G01 X12.8220 Y46.0179 
G01 X12.8779 Y45.9619 
G01 X12.9306 Y45.9315 
G01 X12.8921 Y45.9475 
G01 X12.8075 Y46.0320 
G01 X12.8031 Y46.0428 
G01 X12.7415 Y46.1349 
G01 X12.7257 Y46.1585 
G01 X12.6288 Y46.2555 
G01 X12.5361 Y46.3179 
G01 X12.5115 Y46.3343 
G01 X12.4525 Y46.3588 
G01 X12.3829 Y46.3876 
G01 X12.2463 Y46.4148 
G01 X12.1775 Y46.4148 
G01 X12.1071 Y46.4148 
G01 X11.2925 Y46.4148 
G01 X11.2032 Y46.3970 
G01 X11.1560 Y46.3876 
G01 X11.1263 Y46.3753 
G01 X11.0273 Y46.3344 
G01 X10.9116 Y46.2570 
G01 X10.8147 Y46.1601 
G01 X10.7983 Y46.1364 
G01 X10.6143 Y45.9524 
G01 X10.5369 Y45.8366 
G01 X10.5131 Y45.7791 
G01 X8.4861 Y45.7791 
G00 Z2.5400 
G00 X10.8033 Y47.8042 
G01 Z-0.1000 F18.00 
G01 X10.7828 Y47.8807 F24.00 
G01 X10.7433 Y47.9491 
G01 X10.6873 Y48.0051 
G01 X10.6189 Y48.0446 
G01 X10.5424 Y48.0651 
G01 X8.4567 Y48.0651 
G01 X8.3803 Y48.0446 
G01 X8.3118 Y48.0051 
G01 X8.2559 Y47.9491 
G01 X8.2164 Y47.8807 
G01 X8.1959 Y47.8042 
G01 X8.1959 Y46.2266 
G01 X8.2116 Y46.1678 
G01 X8.1957 Y46.2063 
G01 X8.1957 Y47.3830 
G01 X8.1957 Y47.4518 
G01 X8.1957 Y47.5222 
G01 X8.1836 Y47.5829 
G01 X8.1685 Y47.6587 
G01 X8.1495 Y47.7048 
G01 X8.1153 Y47.7874 
G01 X8.0862 Y47.8308 
G01 X8.0379 Y47.9031 
G01 X7.9894 Y47.9516 
G01 X7.9395 Y48.0016 
G01 X7.8826 Y48.0396 
G01 X7.8237 Y48.0789 
G01 X7.7623 Y48.1043 
G01 X7.6951 Y48.1322 
G01 X7.6132 Y48.1485 
G01 X7.5585 Y48.1594 
G01 X7.4896 Y48.1594 
G01 X7.4193 Y48.1594 
G01 X7.3585 Y48.1473 
G01 X7.2827 Y48.1322 
G01 X7.2367 Y48.1131 
G01 X7.1541 Y48.0789 
G01 X7.1107 Y48.0499 
G01 X7.0383 Y48.0016 
G01 X6.9939 Y47.9571 
G01 X6.9399 Y47.9031 
G01 X6.9030 Y47.8662 
G01 X6.8642 Y47.8082 
G01 X6.8256 Y47.7505 
G01 X6.7993 Y47.6869 
G01 X6.7724 Y47.6218 
G01 X6.7558 Y47.5384 
G01 X6.7452 Y47.4853 
G01 X6.7452 Y47.4149 
G01 X6.7452 Y42.1776 
G01 X6.7724 Y42.0411 
G01 X6.8256 Y41.9124 
G01 X6.9030 Y41.7967 
G01 X6.9817 Y41.7179 
G01 X6.9977 Y41.6795 
G01 X6.9673 Y41.7321 
G01 X6.9113 Y41.7880 
G01 X6.8429 Y41.8276 
G01 X6.7664 Y41.8480 
G01 X6.7450 Y41.8480 
G01 X6.7450 Y47.7085 
G01 X7.7375 Y48.7010 
G01 X8.1959 Y48.7010 
G01 X8.1959 Y48.5126 
G01 X8.2164 Y48.4361 
G01 X8.2559 Y48.3677 
G01 X8.3118 Y48.3117 
G01 X8.3803 Y48.2722 
G01 X8.4567 Y48.2517 
G01 X10.5424 Y48.2517 
G01 X10.6189 Y48.2722 
G01 X10.6873 Y48.3117 
G01 X10.7433 Y48.3677 
G01 X10.7828 Y48.4361 
G01 X10.8033 Y48.5126 
G01 X10.8033 Y50.0902 
G01 X10.7876 Y50.1490 
G01 X10.8035 Y50.1105 
G01 X10.8035 Y48.4526 
G01 X10.7915 Y48.3924 
G01 X10.7915 Y48.3236 
G01 X10.7915 Y48.2532 
G01 X10.7965 Y48.2283 
G01 X10.8187 Y48.1166 
G01 X10.8720 Y47.9880 
G01 X10.9335 Y47.8959 
G01 X10.9493 Y47.8723 
G01 X10.9978 Y47.8238 
G01 X11.0477 Y47.7738 
G01 X11.1225 Y47.7238 
G01 X11.1635 Y47.6964 
G01 X11.2225 Y47.6720 
G01 X11.2921 Y47.6432 
G01 X11.4287 Y47.6160 
G01 X11.4975 Y47.6160 
G01 X11.5679 Y47.6160 
G01 X12.8072 Y47.6160 
G01 X12.9361 Y47.6416 
G01 X12.8927 Y47.6158 
G01 X10.8033 Y47.6158 
G01 X10.8033 Y47.8042 
G00 Z2.5400 
G00 X25.0938 Y49.3146 
G01 Z-0.1000 F18.00 
G01 X25.2517 Y49.2492 F24.00 
G01 X25.1309 Y49.2884 
G01 X24.9670 Y49.3144 
G01 X23.2930 Y49.3144 
G01 X23.1291 Y49.2884 
G01 X23.0083 Y49.2492 
G01 X23.1662 Y49.3146 
G01 X25.0938 Y49.3146 
G00 Z2.5400 
G00 X25.7780 Y48.8574 
G01 Z-0.1000 F18.00 
G01 X25.8435 Y48.6995 F24.00 
G01 X25.7858 Y48.8126 
G01 X25.6883 Y48.9469 
G01 X25.5709 Y49.0643 
G01 X25.4366 Y49.1618 
G01 X25.3235 Y49.2195 
G01 X25.4814 Y49.1540 
G01 X25.7780 Y48.8574 
G00 Z2.5400 
G00 X25.9386 Y48.0502 
G01 Z-0.1000 F18.00 
G01 X25.8732 Y47.8923 F24.00 
G01 X25.9124 Y48.0131 
G01 X25.9384 Y48.1770 
G01 X25.9384 Y48.3430 
G01 X25.9124 Y48.5069 
G01 X25.8732 Y48.6277 
G01 X25.9386 Y48.4698 
G01 X25.9386 Y48.0502 
G00 Z2.5400 
G00 X25.9386 Y45.5102 
G01 Z-0.1000 F18.00 
G01 X25.8732 Y45.3523 F24.00 
G01 X25.9124 Y45.4731 
G01 X25.9384 Y45.6370 
G01 X25.9384 Y45.8030 
G01 X25.9124 Y45.9669 
G01 X25.8732 Y46.0877 
G01 X25.9386 Y45.9298 
G01 X25.9386 Y45.5102 
G00 Z2.5400 
G00 X25.9386 Y42.9702 
G01 Z-0.1000 F18.00 
G01 X25.8732 Y42.8123 F24.00 
G01 X25.9124 Y42.9331 
G01 X25.9384 Y43.0970 
G01 X25.9384 Y43.2630 
G01 X25.9124 Y43.4269 
G01 X25.8732 Y43.5477 
G01 X25.9386 Y43.3898 
G01 X25.9386 Y42.9702 
G00 Z2.5400 
G00 X25.9386 Y40.4302 
G01 Z-0.1000 F18.00 
G01 X25.8732 Y40.2723 F24.00 
G01 X25.9124 Y40.3931 
G01 X25.9384 Y40.5570 
G01 X25.9384 Y40.7230 
G01 X25.9124 Y40.8869 
G01 X25.8732 Y41.0077 
G01 X25.9386 Y40.8498 
G01 X25.9386 Y40.4302 
G00 Z2.5400 
G00 X25.9386 Y37.8902 
G01 Z-0.1000 F18.00 
G01 X25.8732 Y37.7323 F24.00 
G01 X25.9124 Y37.8531 
G01 X25.9384 Y38.0170 
G01 X25.9384 Y38.1830 
G01 X25.9124 Y38.3469 
G01 X25.8732 Y38.4677 
G01 X25.9386 Y38.3098 
G01 X25.9386 Y37.8902 
G00 Z2.5400 
G00 X25.9386 Y35.3502 
G01 Z-0.1000 F18.00 
G01 X25.8732 Y35.1923 F24.00 
G01 X25.9124 Y35.3131 
G01 X25.9384 Y35.4770 
G01 X25.9384 Y35.6430 
G01 X25.9124 Y35.8069 
G01 X25.8732 Y35.9277 
G01 X25.9386 Y35.7698 
G01 X25.9386 Y35.3502 
G00 Z2.5400 
G00 X25.9386 Y32.8102 
G01 Z-0.1000 F18.00 
G01 X25.8732 Y32.6523 F24.00 
G01 X25.9124 Y32.7731 
G01 X25.9384 Y32.9370 
G01 X25.9384 Y33.1030 
G01 X25.9124 Y33.2669 
G01 X25.8732 Y33.3877 
G01 X25.9386 Y33.2298 
G01 X25.9386 Y32.8102 
G00 Z2.5400 
G00 X25.9386 Y30.2702 
G01 Z-0.1000 F18.00 
G01 X25.8732 Y30.1123 F24.00 
G01 X25.9124 Y30.2331 
G01 X25.9384 Y30.3970 
G01 X25.9384 Y30.5630 
G01 X25.9124 Y30.7269 
G01 X25.8732 Y30.8477 
G01 X25.9386 Y30.6898 
G01 X25.9386 Y30.2702 
G00 Z2.5400 
G00 X25.9386 Y27.7302 
G01 Z-0.1000 F18.00 
G01 X25.8732 Y27.5723 F24.00 
G01 X25.9124 Y27.6931 
G01 X25.9384 Y27.8570 
G01 X25.9384 Y28.0230 
G01 X25.9124 Y28.1869 
G01 X25.8732 Y28.3077 
G01 X25.9386 Y28.1498 
G01 X25.9386 Y27.7302 
G00 Z2.5400 
G00 X22.3214 Y23.0698 
G01 Z-0.1000 F18.00 
G01 X22.3868 Y23.2277 F24.00 
G01 X22.3476 Y23.1069 
G01 X22.3216 Y22.9430 
G01 X22.3216 Y22.7770 
G01 X22.3476 Y22.6131 
G01 X22.3868 Y22.4923 
G01 X22.3214 Y22.6502 
G01 X22.3214 Y23.0698 
G00 Z2.5400 
G00 X41.1786 Y17.5702 
G01 Z-0.1000 F18.00 
G01 X41.1132 Y17.4123 F24.00 
G01 X41.1524 Y17.5331 
G01 X41.1784 Y17.6970 
G01 X41.1784 Y17.8630 
G01 X41.1524 Y18.0269 
G01 X41.1132 Y18.1477 
G01 X41.1786 Y17.9898 
G01 X41.1786 Y17.5702 
G00 Z2.5400 
G00 X37.5614 Y23.0698 
G01 Z-0.1000 F18.00 
G01 X37.6268 Y23.2277 F24.00 
G01 X37.5876 Y23.1069 
G01 X37.5616 Y22.9430 
G01 X37.5616 Y22.7770 
G01 X37.5876 Y22.6131 
G01 X37.6268 Y22.4923 
G01 X37.5614 Y22.6502 
G01 X37.5614 Y23.0698 
G00 Z2.5400 
G00 X38.5330 Y24.3456 
G01 Z-0.1000 F18.00 
G01 X40.2070 Y24.3456 F24.00 
G01 X40.3709 Y24.3716 
G01 X40.5287 Y24.4229 
G01 X40.6766 Y24.4982 
G01 X40.8109 Y24.5957 
G01 X40.9282 Y24.7131 
G01 X41.0258 Y24.8474 
G01 X41.1011 Y24.9953 
G01 X41.1524 Y25.1531 
G01 X41.1784 Y25.3170 
G01 X41.1784 Y25.4830 
G01 X41.1524 Y25.6469 
G01 X41.1011 Y25.8047 
G01 X41.0258 Y25.9526 
G01 X40.9282 Y26.0869 
G01 X40.8109 Y26.2043 
G01 X40.6766 Y26.3018 
G01 X40.5287 Y26.3771 
G01 X40.3709 Y26.4284 
G01 X40.2070 Y26.4544 
G01 X38.5330 Y26.4544 
G01 X38.3691 Y26.4284 
G01 X38.2112 Y26.3771 
G01 X38.0634 Y26.3018 
G01 X37.9291 Y26.2043 
G01 X37.8117 Y26.0869 
G01 X37.7142 Y25.9526 
G01 X37.6565 Y25.8394 
G01 X37.7219 Y25.9974 
G01 X37.9440 Y26.2194 
G01 X38.0214 Y26.3352 
G01 X38.0441 Y26.3900 
G01 X38.0746 Y26.4638 
G01 X38.0961 Y26.5717 
G01 X38.1018 Y26.6004 
G01 X38.1018 Y26.7396 
G01 X38.0746 Y26.8762 
G01 X38.0532 Y26.9279 
G01 X38.0214 Y27.0048 
G01 X37.9440 Y27.1206 
G01 X37.8456 Y27.2190 
G01 X37.7219 Y27.3426 
G01 X37.6565 Y27.5006 
G01 X37.7142 Y27.3874 
G01 X37.8117 Y27.2531 
G01 X37.9291 Y27.1357 
G01 X38.0634 Y27.0382 
G01 X38.2112 Y26.9628 
G01 X38.3691 Y26.9116 
G01 X38.5330 Y26.8856 
G01 X40.2070 Y26.8856 
G01 X40.3709 Y26.9116 
G01 X40.5287 Y26.9628 
G01 X40.6766 Y27.0382 
G01 X40.8109 Y27.1357 
G01 X40.9282 Y27.2531 
G01 X41.0258 Y27.3874 
G01 X41.1011 Y27.5353 
G01 X41.1524 Y27.6931 
G01 X41.1784 Y27.8570 
G01 X41.1784 Y28.0230 
G01 X41.1524 Y28.1869 
G01 X41.1011 Y28.3447 
G01 X41.0258 Y28.4926 
G01 X40.9282 Y28.6269 
G01 X40.8109 Y28.7443 
G01 X40.6766 Y28.8418 
G01 X40.5287 Y28.9171 
G01 X40.3709 Y28.9684 
G01 X40.2070 Y28.9944 
G01 X38.5330 Y28.9944 
G01 X38.3691 Y28.9684 
G01 X38.2112 Y28.9171 
G01 X38.0634 Y28.8418 
G01 X37.9291 Y28.7443 
G01 X37.8117 Y28.6269 
G01 X37.7142 Y28.4926 
G01 X37.6565 Y28.3794 
G01 X37.7219 Y28.5374 
G01 X37.9440 Y28.7594 
G01 X38.0214 Y28.8752 
G01 X38.0441 Y28.9300 
G01 X38.0746 Y29.0038 
G01 X38.0961 Y29.1117 
G01 X38.1018 Y29.1404 
G01 X38.1018 Y29.2796 
G01 X38.0746 Y29.4162 
G01 X38.0532 Y29.4679 
G01 X38.0214 Y29.5448 
G01 X37.9440 Y29.6606 
G01 X37.8456 Y29.7590 
G01 X37.7219 Y29.8826 
G01 X37.6565 Y30.0406 
G01 X37.7142 Y29.9274 
G01 X37.8117 Y29.7931 
G01 X37.9291 Y29.6757 
G01 X38.0634 Y29.5782 
G01 X38.2112 Y29.5029 
G01 X38.3691 Y29.4516 
G01 X38.5330 Y29.4256 
G01 X40.2070 Y29.4256 
G01 X40.3709 Y29.4516 
G01 X40.5287 Y29.5029 
G01 X40.6766 Y29.5782 
G01 X40.8109 Y29.6757 
G01 X40.9282 Y29.7931 
G01 X41.0258 Y29.9274 
G01 X41.1011 Y30.0753 
G01 X41.1524 Y30.2331 
G01 X41.1784 Y30.3970 
G01 X41.1784 Y30.5630 
G01 X41.1524 Y30.7269 
G01 X41.1011 Y30.8847 
G01 X41.0258 Y31.0326 
G01 X40.9282 Y31.1669 
G01 X40.8109 Y31.2843 
G01 X40.6766 Y31.3818 
G01 X40.5287 Y31.4571 
G01 X40.3709 Y31.5084 
G01 X40.2070 Y31.5344 
G01 X38.5330 Y31.5344 
G01 X38.3691 Y31.5084 
G01 X38.2112 Y31.4571 
G01 X38.0634 Y31.3818 
G01 X37.9291 Y31.2843 
G01 X37.8117 Y31.1669 
G01 X37.7142 Y31.0326 
G01 X37.6565 Y30.9194 
G01 X37.7219 Y31.0774 
G01 X37.9440 Y31.2994 
G01 X38.0214 Y31.4152 
G01 X38.0441 Y31.4700 
G01 X38.0746 Y31.5438 
G01 X38.0961 Y31.6517 
G01 X38.1018 Y31.6804 
G01 X38.1018 Y31.8196 
G01 X38.0746 Y31.9562 
G01 X38.0532 Y32.0079 
G01 X38.0214 Y32.0848 
G01 X37.9440 Y32.2006 
G01 X37.8456 Y32.2990 
G01 X37.7219 Y32.4226 
G01 X37.6565 Y32.5806 
G01 X37.7142 Y32.4674 
G01 X37.8117 Y32.3331 
G01 X37.9291 Y32.2157 
G01 X38.0634 Y32.1182 
G01 X38.2112 Y32.0429 
G01 X38.3691 Y31.9916 
G01 X38.5330 Y31.9656 
G01 X40.2070 Y31.9656 
G01 X40.3709 Y31.9916 
G01 X40.5287 Y32.0429 
G01 X40.6766 Y32.1182 
G01 X40.8109 Y32.2157 
G01 X40.9282 Y32.3331 
G01 X41.0258 Y32.4674 
G01 X41.1011 Y32.6153 
G01 X41.1524 Y32.7731 
G01 X41.1784 Y32.9370 
G01 X41.1784 Y33.1030 
G01 X41.1524 Y33.2669 
G01 X41.1011 Y33.4247 
G01 X41.0258 Y33.5726 
G01 X40.9282 Y33.7069 
G01 X40.8109 Y33.8242 
G01 X40.6766 Y33.9218 
G01 X40.5287 Y33.9971 
G01 X40.3709 Y34.0484 
G01 X40.2070 Y34.0744 
G01 X38.5330 Y34.0744 
G01 X38.3691 Y34.0484 
G01 X38.2112 Y33.9971 
G01 X38.0634 Y33.9218 
G01 X37.9291 Y33.8242 
G01 X37.8117 Y33.7069 
G01 X37.7142 Y33.5726 
G01 X37.6565 Y33.4594 
G01 X37.7219 Y33.6174 
G01 X37.9440 Y33.8394 
G01 X38.0214 Y33.9552 
G01 X38.0441 Y34.0100 
G01 X38.0746 Y34.0838 
G01 X38.0961 Y34.1917 
G01 X38.1018 Y34.2204 
G01 X38.1018 Y34.3596 
G01 X38.0746 Y34.4962 
G01 X38.0532 Y34.5479 
G01 X38.0214 Y34.6248 
G01 X37.9440 Y34.7406 
G01 X37.8456 Y34.8390 
G01 X37.7219 Y34.9626 
G01 X37.6565 Y35.1206 
G01 X37.7142 Y35.0074 
G01 X37.8117 Y34.8731 
G01 X37.9291 Y34.7557 
G01 X38.0634 Y34.6582 
G01 X38.2112 Y34.5829 
G01 X38.3691 Y34.5316 
G01 X38.5330 Y34.5056 
G01 X40.2070 Y34.5056 
G01 X40.3709 Y34.5316 
G01 X40.5287 Y34.5829 
G01 X40.6766 Y34.6582 
G01 X40.8109 Y34.7557 
G01 X40.9282 Y34.8731 
G01 X41.0258 Y35.0074 
G01 X41.1011 Y35.1553 
G01 X41.1524 Y35.3131 
G01 X41.1784 Y35.4770 
G01 X41.1784 Y35.6430 
G01 X41.1524 Y35.8069 
G01 X41.1011 Y35.9647 
G01 X41.0258 Y36.1126 
G01 X40.9282 Y36.2469 
G01 X40.8109 Y36.3642 
G01 X40.6766 Y36.4618 
G01 X40.5287 Y36.5371 
G01 X40.3709 Y36.5884 
G01 X40.2070 Y36.6144 
G01 X38.5330 Y36.6144 
G01 X38.3691 Y36.5884 
G01 X38.2112 Y36.5371 
G01 X38.0634 Y36.4618 
G01 X37.9291 Y36.3642 
G01 X37.8117 Y36.2469 
G01 X37.7142 Y36.1126 
G01 X37.6565 Y35.9994 
G01 X37.7219 Y36.1574 
G01 X37.9440 Y36.3794 
G01 X38.0214 Y36.4952 
G01 X38.0441 Y36.5500 
G01 X38.0746 Y36.6238 
G01 X38.0961 Y36.7317 
G01 X38.1018 Y36.7604 
G01 X38.1018 Y36.8996 
G01 X38.0746 Y37.0362 
G01 X38.0532 Y37.0879 
G01 X38.0214 Y37.1648 
G01 X37.9440 Y37.2806 
G01 X37.8456 Y37.3790 
G01 X37.7219 Y37.5026 
G01 X37.6565 Y37.6606 
G01 X37.7142 Y37.5474 
G01 X37.8117 Y37.4131 
G01 X37.9291 Y37.2957 
G01 X38.0634 Y37.1982 
G01 X38.2112 Y37.1228 
G01 X38.3691 Y37.0716 
G01 X38.5330 Y37.0456 
G01 X40.2070 Y37.0456 
G01 X40.3709 Y37.0716 
G01 X40.5287 Y37.1228 
G01 X40.6766 Y37.1982 
G01 X40.6859 Y37.2050 
G01 X42.7136 Y35.1773 
G01 X42.7973 Y35.0936 
G01 X42.8956 Y35.0279 
G01 X43.0049 Y34.9827 
G01 X43.1209 Y34.9596 
G01 X45.3510 Y34.9596 
G01 X45.4176 Y34.8679 
G01 X45.5359 Y34.7496 
G01 X45.6712 Y34.6514 
G01 X45.8202 Y34.5754 
G01 X45.9792 Y34.5238 
G01 X46.1444 Y34.4976 
G01 X47.8356 Y34.4976 
G01 X48.0008 Y34.5238 
G01 X48.1598 Y34.5754 
G01 X48.3088 Y34.6514 
G01 X48.4441 Y34.7496 
G01 X48.5624 Y34.8679 
G01 X48.6606 Y35.0032 
G01 X48.7366 Y35.1522 
G01 X48.7882 Y35.3112 
G01 X48.8144 Y35.4764 
G01 X48.8144 Y35.6436 
G01 X48.7882 Y35.8088 
G01 X48.7366 Y35.9678 
G01 X48.6606 Y36.1168 
G01 X48.5624 Y36.2521 
G01 X48.4441 Y36.3704 
G01 X48.3088 Y36.4686 
G01 X48.1598 Y36.5446 
G01 X48.0008 Y36.5962 
G01 X47.8356 Y36.6224 
G01 X46.1444 Y36.6224 
G01 X45.9792 Y36.5962 
G01 X45.8202 Y36.5446 
G01 X45.6712 Y36.4686 
G01 X45.5359 Y36.3704 
G01 X45.4176 Y36.2521 
G01 X45.3510 Y36.1604 
G01 X43.4287 Y36.1604 
G01 X41.1092 Y38.4799 
G01 X41.1011 Y38.5047 
G01 X41.0258 Y38.6526 
G01 X40.9282 Y38.7869 
G01 X40.8109 Y38.9043 
G01 X40.6766 Y39.0018 
G01 X40.5287 Y39.0771 
G01 X40.3709 Y39.1284 
G01 X40.2070 Y39.1544 
G01 X38.5330 Y39.1544 
G01 X38.3691 Y39.1284 
G01 X38.2112 Y39.0771 
G01 X38.0634 Y39.0018 
G01 X37.9291 Y38.9043 
G01 X37.8117 Y38.7869 
G01 X37.7142 Y38.6526 
G01 X37.6565 Y38.5394 
G01 X37.7219 Y38.6974 
G01 X37.9440 Y38.9194 
G01 X38.0214 Y39.0352 
G01 X38.0441 Y39.0900 
G01 X38.0746 Y39.1638 
G01 X38.0961 Y39.2717 
G01 X38.1018 Y39.3004 
G01 X38.1018 Y39.4396 
G01 X38.0746 Y39.5762 
G01 X38.0532 Y39.6279 
G01 X38.0214 Y39.7048 
G01 X37.9440 Y39.8206 
G01 X37.8456 Y39.9190 
G01 X37.7219 Y40.0426 
G01 X37.6565 Y40.2006 
G01 X37.7142 Y40.0874 
G01 X37.8117 Y39.9531 
G01 X37.9291 Y39.8357 
G01 X38.0634 Y39.7382 
G01 X38.2112 Y39.6628 
G01 X38.3691 Y39.6116 
G01 X38.5330 Y39.5856 
G01 X40.2070 Y39.5856 
G01 X40.3709 Y39.6116 
G01 X40.5287 Y39.6628 
G01 X40.6766 Y39.7382 
G01 X40.8109 Y39.8357 
G01 X40.9282 Y39.9531 
G01 X41.0258 Y40.0874 
G01 X41.1011 Y40.2353 
G01 X41.1092 Y40.2601 
G01 X43.4287 Y42.5796 
G01 X45.3510 Y42.5796 
G01 X45.4176 Y42.4879 
G01 X45.5359 Y42.3696 
G01 X45.6712 Y42.2714 
G01 X45.8202 Y42.1954 
G01 X45.9792 Y42.1438 
G01 X46.1444 Y42.1176 
G01 X47.8356 Y42.1176 
G01 X48.0008 Y42.1438 
G01 X48.1598 Y42.1954 
G01 X48.3088 Y42.2714 
G01 X48.4441 Y42.3696 
G01 X48.5624 Y42.4879 
G01 X48.6606 Y42.6232 
G01 X48.7366 Y42.7722 
G01 X48.7882 Y42.9312 
G01 X48.8144 Y43.0964 
G01 X48.8144 Y43.2636 
G01 X48.7882 Y43.4288 
G01 X48.7366 Y43.5878 
G01 X48.6606 Y43.7368 
G01 X48.5624 Y43.8721 
G01 X48.4441 Y43.9903 
G01 X48.3088 Y44.0886 
G01 X48.1598 Y44.1646 
G01 X48.0008 Y44.2162 
G01 X47.8356 Y44.2424 
G01 X46.1444 Y44.2424 
G01 X45.9792 Y44.2162 
G01 X45.8202 Y44.1646 
G01 X45.6712 Y44.0886 
G01 X45.5359 Y43.9903 
G01 X45.4176 Y43.8721 
G01 X45.3510 Y43.7804 
G01 X43.1209 Y43.7804 
G01 X43.0049 Y43.7573 
G01 X42.8956 Y43.7121 
G01 X42.7973 Y43.6464 
G01 X42.7136 Y43.5627 
G01 X40.6859 Y41.5350 
G01 X40.6766 Y41.5418 
G01 X40.5287 Y41.6171 
G01 X40.3709 Y41.6684 
G01 X40.2070 Y41.6944 
G01 X38.5330 Y41.6944 
G01 X38.3691 Y41.6684 
G01 X38.2112 Y41.6171 
G01 X38.0634 Y41.5418 
G01 X37.9291 Y41.4443 
G01 X37.8117 Y41.3269 
G01 X37.7142 Y41.1926 
G01 X37.6565 Y41.0794 
G01 X37.7219 Y41.2374 
G01 X37.8456 Y41.3610 
G01 X37.8994 Y41.4149 
G01 X37.9440 Y41.4594 
G01 X38.0214 Y41.5752 
G01 X38.0746 Y41.7038 
G01 X38.1018 Y41.8404 
G01 X38.1018 Y41.9796 
G01 X38.0746 Y42.1162 
G01 X38.0303 Y42.2233 
G01 X38.0214 Y42.2448 
G01 X37.9440 Y42.3606 
G01 X37.7219 Y42.5826 
G01 X37.6565 Y42.7406 
G01 X37.7142 Y42.6274 
G01 X37.8117 Y42.4931 
G01 X37.9291 Y42.3757 
G01 X38.0634 Y42.2782 
G01 X38.2112 Y42.2029 
G01 X38.3691 Y42.1516 
G01 X38.5330 Y42.1256 
G01 X40.2070 Y42.1256 
G01 X40.3709 Y42.1516 
G01 X40.5287 Y42.2029 
G01 X40.6766 Y42.2782 
G01 X40.8109 Y42.3757 
G01 X40.9282 Y42.4931 
G01 X41.0258 Y42.6274 
G01 X41.1011 Y42.7752 
G01 X41.1524 Y42.9331 
G01 X41.1784 Y43.0970 
G01 X41.1784 Y43.2630 
G01 X41.1524 Y43.4269 
G01 X41.1132 Y43.5477 
G01 X41.1460 Y43.4684 
G01 X41.1839 Y43.3770 
G01 X41.1993 Y43.3398 
G01 X41.2766 Y43.2240 
G01 X41.3736 Y43.1271 
G01 X41.4504 Y43.0753 
G01 X41.4909 Y43.0482 
G01 X41.5404 Y43.0277 
G01 X41.6195 Y42.9950 
G01 X41.6863 Y42.9817 
G01 X41.7560 Y42.9678 
G01 X41.8953 Y42.9678 
G01 X41.9619 Y42.9811 
G01 X42.0318 Y42.9950 
G01 X42.1604 Y43.0482 
G01 X42.2762 Y43.1256 
G01 X42.3516 Y43.2009 
G01 X42.3747 Y43.2240 
G01 X42.6207 Y43.4700 
G01 X42.8398 Y43.6892 
G01 X43.0605 Y43.7806 
G01 X45.0279 Y43.7806 
G01 X45.1645 Y43.8078 
G01 X45.2162 Y43.8292 
G01 X45.2931 Y43.8610 
G01 X45.4089 Y43.9384 
G01 X45.5073 Y44.0368 
G01 X45.5319 Y44.0737 
G01 X45.5847 Y44.1526 
G01 X45.6234 Y44.2462 
G01 X45.6379 Y44.2812 
G01 X45.6580 Y44.3820 
G01 X45.6651 Y44.4178 
G01 X45.6651 Y44.5570 
G01 X45.6379 Y44.6936 
G01 X45.6165 Y44.7453 
G01 X45.5847 Y44.8222 
G01 X45.5073 Y44.9380 
G01 X45.4089 Y45.0364 
G01 X45.3272 Y45.1181 
G01 X45.2613 Y45.2772 
G01 X45.3194 Y45.1632 
G01 X45.4176 Y45.0279 
G01 X45.5359 Y44.9096 
G01 X45.6712 Y44.8114 
G01 X45.8202 Y44.7354 
G01 X45.9792 Y44.6838 
G01 X46.1444 Y44.6576 
G01 X47.8356 Y44.6576 
G01 X48.0008 Y44.6838 
G01 X48.1598 Y44.7354 
G01 X48.3088 Y44.8114 
G01 X48.3150 Y44.8159 
G01 X48.9296 Y44.2013 
G01 X48.9296 Y34.5387 
G01 X48.3150 Y33.9241 
G01 X48.3088 Y33.9286 
G01 X48.1598 Y34.0046 
G01 X48.0008 Y34.0562 
G01 X47.8356 Y34.0824 
G01 X46.1444 Y34.0824 
G01 X45.9792 Y34.0562 
G01 X45.8202 Y34.0046 
G01 X45.6712 Y33.9286 
G01 X45.5359 Y33.8304 
G01 X45.4176 Y33.7121 
G01 X45.3510 Y33.6204 
G01 X43.1209 Y33.6204 
G01 X43.0049 Y33.5973 
G01 X42.8956 Y33.5521 
G01 X42.7973 Y33.4864 
G01 X42.7136 Y33.4027 
G01 X41.5273 Y32.2164 
G01 X41.4436 Y32.1327 
G01 X41.3779 Y32.0344 
G01 X41.3327 Y31.9251 
G01 X41.3096 Y31.8091 
G01 X41.3096 Y21.8387 
G01 X40.6859 Y21.2150 
G01 X40.6766 Y21.2218 
G01 X40.5287 Y21.2971 
G01 X40.3709 Y21.3484 
G01 X40.2070 Y21.3744 
G01 X38.5330 Y21.3744 
G01 X38.3691 Y21.3484 
G01 X38.2112 Y21.2971 
G01 X38.0634 Y21.2218 
G01 X37.9291 Y21.1242 
G01 X37.8117 Y21.0069 
G01 X37.7142 Y20.8726 
G01 X37.6565 Y20.7594 
G01 X37.7219 Y20.9174 
G01 X37.9440 Y21.1394 
G01 X38.0214 Y21.2552 
G01 X38.0441 Y21.3100 
G01 X38.0746 Y21.3838 
G01 X38.0961 Y21.4917 
G01 X38.1018 Y21.5204 
G01 X38.1018 Y21.6596 
G01 X38.0746 Y21.7962 
G01 X38.0532 Y21.8479 
G01 X38.0214 Y21.9248 
G01 X37.9440 Y22.0406 
G01 X37.8456 Y22.1390 
G01 X37.7219 Y22.2626 
G01 X37.6565 Y22.4206 
G01 X37.7142 Y22.3074 
G01 X37.8117 Y22.1731 
G01 X37.9291 Y22.0557 
G01 X38.0634 Y21.9582 
G01 X38.2112 Y21.8829 
G01 X38.3691 Y21.8316 
G01 X38.5330 Y21.8056 
G01 X40.2070 Y21.8056 
G01 X40.3709 Y21.8316 
G01 X40.5287 Y21.8829 
G01 X40.6766 Y21.9582 
G01 X40.8109 Y22.0557 
G01 X40.9282 Y22.1731 
G01 X41.0258 Y22.3074 
G01 X41.1011 Y22.4552 
G01 X41.1524 Y22.6131 
G01 X41.1784 Y22.7770 
G01 X41.1784 Y22.9430 
G01 X41.1524 Y23.1069 
G01 X41.1011 Y23.2647 
G01 X41.0258 Y23.4126 
G01 X40.9282 Y23.5469 
G01 X40.8109 Y23.6643 
G01 X40.6766 Y23.7618 
G01 X40.5287 Y23.8371 
G01 X40.3709 Y23.8884 
G01 X40.2070 Y23.9144 
G01 X38.5330 Y23.9144 
G01 X38.3691 Y23.8884 
G01 X38.2112 Y23.8371 
G01 X38.0634 Y23.7618 
G01 X37.9291 Y23.6643 
G01 X37.8117 Y23.5469 
G01 X37.7142 Y23.4126 
G01 X37.6565 Y23.2994 
G01 X37.7219 Y23.4574 
G01 X37.9440 Y23.6794 
G01 X38.0214 Y23.7952 
G01 X38.0441 Y23.8500 
G01 X38.0746 Y23.9238 
G01 X38.0961 Y24.0317 
G01 X38.1018 Y24.0604 
G01 X38.1018 Y24.1996 
G01 X38.0746 Y24.3362 
G01 X38.0532 Y24.3879 
G01 X38.0214 Y24.4648 
G01 X37.9440 Y24.5806 
G01 X37.8456 Y24.6790 
G01 X37.7219 Y24.8026 
G01 X37.6565 Y24.9606 
G01 X37.7142 Y24.8474 
G01 X37.8117 Y24.7131 
G01 X37.9291 Y24.5957 
G01 X38.0634 Y24.4982 
G01 X38.2112 Y24.4229 
G01 X38.3691 Y24.3716 
G01 X38.5330 Y24.3456 
G00 Z2.5400 
G00 X37.5876 Y20.5669 
G01 Z-0.1000 F18.00 
G01 X37.5616 Y20.4030 F24.00 
G01 X37.5616 Y20.2370 
G01 X37.5876 Y20.0731 
G01 X37.6268 Y19.9523 
G01 X37.5614 Y20.1102 
G01 X37.5614 Y20.5298 
G01 X37.6268 Y20.6877 
G01 X37.5876 Y20.5669 
G00 Z2.5400 
G00 X37.7142 Y17.2274 
G01 Z-0.1000 F18.00 
G01 X37.8117 Y17.0931 F24.00 
G01 X37.9291 Y16.9757 
G01 X38.0634 Y16.8782 
G01 X38.2112 Y16.8028 
G01 X38.3691 Y16.7516 
G01 X38.5330 Y16.7256 
G01 X40.2070 Y16.7256 
G01 X40.3709 Y16.7516 
G01 X40.5287 Y16.8028 
G01 X40.6766 Y16.8782 
G01 X40.8109 Y16.9757 
G01 X40.9282 Y17.0931 
G01 X41.0258 Y17.2274 
G01 X41.0835 Y17.3405 
G01 X41.0180 Y17.1826 
G01 X40.6951 Y16.8597 
G01 X40.6687 Y16.8421 
G01 X40.6399 Y16.8228 
G01 X40.5665 Y16.7494 
G01 X40.5415 Y16.7244 
G01 X40.5003 Y16.6628 
G01 X40.4641 Y16.6086 
G01 X40.4370 Y16.5432 
G01 X40.4108 Y16.4800 
G01 X40.3972 Y16.4116 
G01 X40.3837 Y16.3434 
G01 X40.3837 Y16.2643 
G01 X40.3709 Y16.2684 
G01 X40.2070 Y16.2944 
G01 X38.5330 Y16.2944 
G01 X38.3691 Y16.2684 
G01 X38.3563 Y16.2643 
G01 X38.3563 Y16.3434 
G01 X38.3430 Y16.4106 
G01 X38.3292 Y16.4800 
G01 X38.3036 Y16.5416 
G01 X38.2759 Y16.6086 
G01 X38.2401 Y16.6621 
G01 X38.1986 Y16.7243 
G01 X38.1743 Y16.7486 
G01 X38.1001 Y16.8228 
G01 X38.0724 Y16.8413 
G01 X38.0448 Y16.8597 
G01 X37.7219 Y17.1826 
G01 X37.6565 Y17.3406 
G01 X37.7142 Y17.2274 
G00 Z2.5400 
G00 X34.5387 Y12.0996 
G01 Z-0.1000 F18.00 
G01 X37.7489 Y12.0996 F24.00 
G01 X37.8117 Y12.0131 
G01 X37.9291 Y11.8957 
G01 X38.0634 Y11.7982 
G01 X38.1766 Y11.7405 
G01 X38.0186 Y11.8060 
G01 X37.8830 Y11.9416 
G01 X37.7672 Y12.0190 
G01 X37.6386 Y12.0722 
G01 X37.5020 Y12.0994 
G01 X34.7619 Y12.0994 
G01 X34.6254 Y12.0722 
G01 X34.4967 Y12.0190 
G01 X34.3810 Y11.9416 
G01 X34.2825 Y11.8432 
G01 X31.2384 Y8.7990 
G01 X31.1610 Y8.6833 
G01 X31.1078 Y8.5546 
G01 X31.0806 Y8.4181 
G01 X31.0806 Y6.9673 
G01 X31.1078 Y6.8307 
G01 X31.1513 Y6.7257 
G01 X31.1610 Y6.7021 
G01 X31.1860 Y6.6647 
G01 X31.2384 Y6.5863 
G01 X31.3368 Y6.4879 
G01 X31.4144 Y6.4103 
G01 X31.4400 Y6.3721 
G01 X31.4889 Y6.3231 
G01 X31.5384 Y6.2736 
G01 X31.5955 Y6.2355 
G01 X31.6542 Y6.1963 
G01 X31.7209 Y6.1686 
G01 X31.7828 Y6.1430 
G01 X31.8514 Y6.1293 
G01 X31.9193 Y6.1158 
G01 X31.9919 Y6.1158 
G01 X31.9838 Y6.0908 
G01 X31.9576 Y5.9256 
G01 X31.9576 Y4.2344 
G01 X31.9838 Y4.0692 
G01 X31.9919 Y4.0442 
G01 X31.9194 Y4.0442 
G01 X31.8520 Y4.0308 
G01 X31.7828 Y4.0171 
G01 X31.7216 Y3.9917 
G01 X31.6542 Y3.9638 
G01 X31.5960 Y3.9249 
G01 X31.5385 Y3.8864 
G01 X31.4894 Y3.8374 
G01 X31.4400 Y3.7880 
G01 X31.4144 Y3.7496 
G01 X31.0819 Y3.4172 
G01 X30.9228 Y3.3513 
G01 X31.0368 Y3.4094 
G01 X31.1721 Y3.5076 
G01 X31.2904 Y3.6259 
G01 X31.3886 Y3.7612 
G01 X31.4646 Y3.9102 
G01 X31.5162 Y4.0692 
G01 X31.5424 Y4.2344 
G01 X31.5424 Y5.9256 
G01 X31.5162 Y6.0908 
G01 X31.4646 Y6.2498 
G01 X31.3886 Y6.3988 
G01 X31.2904 Y6.5341 
G01 X31.1721 Y6.6524 
G01 X31.0804 Y6.7190 
G01 X31.0804 Y8.6413 
G01 X34.5387 Y12.0996 
G00 Z2.5400 
G00 X38.3691 Y14.2116 
G01 Z-0.1000 F18.00 
G01 X38.5330 Y14.1856 F24.00 
G01 X40.2070 Y14.1856 
G01 X40.3709 Y14.2116 
G01 X40.3837 Y14.2157 
G01 X40.3837 Y14.1366 
G01 X40.3970 Y14.0694 
G01 X40.4108 Y14.0000 
G01 X40.4364 Y13.9384 
G01 X40.4641 Y13.8714 
G01 X40.4999 Y13.8179 
G01 X40.5414 Y13.7556 
G01 X40.5657 Y13.7314 
G01 X40.6399 Y13.6572 
G01 X40.6676 Y13.6387 
G01 X40.6951 Y13.6203 
G01 X41.0180 Y13.2974 
G01 X41.0835 Y13.1395 
G01 X41.0258 Y13.2526 
G01 X40.9282 Y13.3869 
G01 X40.8109 Y13.5043 
G01 X40.6766 Y13.6018 
G01 X40.5287 Y13.6771 
G01 X40.3709 Y13.7284 
G01 X40.2070 Y13.7544 
G01 X38.5330 Y13.7544 
G01 X38.3691 Y13.7284 
G01 X38.2112 Y13.6771 
G01 X38.0634 Y13.6018 
G01 X37.9291 Y13.5043 
G01 X37.8117 Y13.3869 
G01 X37.7489 Y13.3004 
G01 X34.2309 Y13.3004 
G01 X34.1149 Y13.2773 
G01 X34.0056 Y13.2321 
G01 X33.9073 Y13.1664 
G01 X30.0973 Y9.3564 
G01 X30.0136 Y9.2727 
G01 X29.9479 Y9.1744 
G01 X29.9027 Y9.0651 
G01 X29.8796 Y8.9491 
G01 X29.8796 Y6.7190 
G01 X29.7879 Y6.6524 
G01 X29.6696 Y6.5341 
G01 X29.5714 Y6.3988 
G01 X29.5133 Y6.2848 
G01 X29.5792 Y6.4439 
G01 X29.6232 Y6.4879 
G01 X29.7170 Y6.5818 
G01 X29.7216 Y6.5863 
G01 X29.7719 Y6.6616 
G01 X29.7990 Y6.7021 
G01 X29.8075 Y6.7226 
G01 X29.8522 Y6.8307 
G01 X29.8794 Y6.9673 
G01 X29.8794 Y9.0095 
G01 X29.9708 Y9.2302 
G01 X30.2884 Y9.5478 
G01 X33.9498 Y13.2092 
G01 X34.1705 Y13.3006 
G01 X37.5020 Y13.3006 
G01 X37.6386 Y13.3278 
G01 X37.7672 Y13.3810 
G01 X37.8830 Y13.4584 
G01 X37.9814 Y13.5568 
G01 X38.0449 Y13.6203 
G01 X38.0713 Y13.6379 
G01 X38.1001 Y13.6572 
G01 X38.1735 Y13.7306 
G01 X38.1985 Y13.7556 
G01 X38.2396 Y13.8172 
G01 X38.2759 Y13.8714 
G01 X38.3030 Y13.9368 
G01 X38.3292 Y14.0000 
G01 X38.3428 Y14.0684 
G01 X38.3563 Y14.1366 
G01 X38.3563 Y14.2157 
G01 X38.3691 Y14.2116 
G00 Z2.5400 
G00 X37.5876 Y18.0269 
G01 Z-0.1000 F18.00 
G01 X37.5616 Y17.8630 F24.00 
G01 X37.5616 Y17.6970 
G01 X37.5876 Y17.5331 
G01 X37.6268 Y17.4123 
G01 X37.5614 Y17.5702 
G01 X37.5614 Y17.9898 
G01 X37.6268 Y18.1477 
G01 X37.5876 Y18.0269 
G00 Z2.5400 
G00 X37.7142 Y19.7674 
G01 Z-0.1000 F18.00 
G01 X37.8117 Y19.6331 F24.00 
G01 X37.9291 Y19.5157 
G01 X38.0634 Y19.4182 
G01 X38.2112 Y19.3429 
G01 X38.3691 Y19.2916 
G01 X38.5330 Y19.2656 
G01 X40.2070 Y19.2656 
G01 X40.3709 Y19.2916 
G01 X40.5287 Y19.3429 
G01 X40.6766 Y19.4182 
G01 X40.8109 Y19.5157 
G01 X40.9282 Y19.6331 
G01 X41.0258 Y19.7674 
G01 X41.1011 Y19.9153 
G01 X41.1092 Y19.9401 
G01 X42.2927 Y21.1236 
G01 X42.3764 Y21.2073 
G01 X42.4421 Y21.3056 
G01 X42.4873 Y21.4149 
G01 X42.5104 Y21.5309 
G01 X42.5104 Y31.5013 
G01 X43.4287 Y32.4196 
G01 X45.3510 Y32.4196 
G01 X45.4176 Y32.3279 
G01 X45.5359 Y32.2096 
G01 X45.6712 Y32.1114 
G01 X45.8202 Y32.0354 
G01 X45.9792 Y31.9838 
G01 X46.1444 Y31.9576 
G01 X47.8356 Y31.9576 
G01 X48.0008 Y31.9838 
G01 X48.1598 Y32.0354 
G01 X48.3088 Y32.1114 
G01 X48.4441 Y32.2096 
G01 X48.5624 Y32.3279 
G01 X48.6606 Y32.4632 
G01 X48.7187 Y32.5772 
G01 X48.7030 Y32.5393 
G01 X48.6752 Y32.4721 
G01 X48.6528 Y32.4181 
G01 X48.3203 Y32.0856 
G01 X48.2821 Y32.0600 
G01 X48.2331 Y32.0111 
G01 X48.1836 Y31.9616 
G01 X48.1455 Y31.9045 
G01 X48.1063 Y31.8458 
G01 X48.0786 Y31.7791 
G01 X48.0530 Y31.7172 
G01 X48.0393 Y31.6486 
G01 X48.0258 Y31.5807 
G01 X48.0258 Y31.5081 
G01 X48.0008 Y31.5162 
G01 X47.8356 Y31.5424 
G01 X46.1444 Y31.5424 
G01 X45.9792 Y31.5162 
G01 X45.9542 Y31.5081 
G01 X45.9542 Y31.5806 
G01 X45.9408 Y31.6480 
G01 X45.9271 Y31.7171 
G01 X45.9017 Y31.7784 
G01 X45.8738 Y31.8458 
G01 X45.8349 Y31.9040 
G01 X45.7964 Y31.9615 
G01 X45.7474 Y32.0106 
G01 X45.6980 Y32.0600 
G01 X45.6596 Y32.0856 
G01 X45.5821 Y32.1632 
G01 X45.4882 Y32.2570 
G01 X45.4837 Y32.2616 
G01 X45.4084 Y32.3119 
G01 X45.3679 Y32.3390 
G01 X45.3474 Y32.3475 
G01 X45.2393 Y32.3922 
G01 X45.1027 Y32.4194 
G01 X43.6519 Y32.4194 
G01 X43.5154 Y32.3922 
G01 X43.3867 Y32.3390 
G01 X43.2710 Y32.2616 
G01 X43.1725 Y32.1632 
G01 X42.7668 Y31.7575 
G01 X42.6684 Y31.6590 
G01 X42.5910 Y31.5433 
G01 X42.5378 Y31.4146 
G01 X42.5106 Y31.2781 
G01 X42.5106 Y21.4705 
G01 X42.4192 Y21.2498 
G01 X42.2000 Y21.0307 
G01 X42.1016 Y20.9322 
G01 X41.1993 Y20.0300 
G01 X41.1574 Y19.9880 
G01 X41.0800 Y19.8722 
G01 X41.0267 Y19.7436 
G01 X41.0180 Y19.7226 
G01 X40.8944 Y19.5990 
G01 X40.7989 Y19.5035 
G01 X40.7960 Y19.5006 
G01 X40.7186 Y19.3848 
G01 X40.6881 Y19.3110 
G01 X40.6654 Y19.2562 
G01 X40.6382 Y19.1196 
G01 X40.6382 Y18.9804 
G01 X40.6433 Y18.9548 
G01 X40.6654 Y18.8438 
G01 X40.6972 Y18.7669 
G01 X40.7186 Y18.7152 
G01 X40.7960 Y18.5994 
G01 X40.8929 Y18.5025 
G01 X41.0180 Y18.3774 
G01 X41.0834 Y18.2195 
G01 X41.0258 Y18.3326 
G01 X40.9282 Y18.4669 
G01 X40.8109 Y18.5843 
G01 X40.6766 Y18.6818 
G01 X40.5287 Y18.7571 
G01 X40.3709 Y18.8084 
G01 X40.2070 Y18.8344 
G01 X38.5330 Y18.8344 
G01 X38.3691 Y18.8084 
G01 X38.2112 Y18.7571 
G01 X38.0634 Y18.6818 
G01 X37.9291 Y18.5843 
G01 X37.8117 Y18.4669 
G01 X37.7142 Y18.3326 
G01 X37.6565 Y18.2194 
G01 X37.7219 Y18.3774 
G01 X37.9440 Y18.5994 
G01 X38.0214 Y18.7152 
G01 X38.0441 Y18.7700 
G01 X38.0746 Y18.8438 
G01 X38.0961 Y18.9517 
G01 X38.1018 Y18.9804 
G01 X38.1018 Y19.1196 
G01 X38.0746 Y19.2562 
G01 X38.0532 Y19.3079 
G01 X38.0214 Y19.3848 
G01 X37.9440 Y19.5006 
G01 X37.8456 Y19.5990 
G01 X37.7219 Y19.7226 
G01 X37.6565 Y19.8806 
G01 X37.7142 Y19.7674 
G00 Z2.5400 
G00 X37.5614 Y25.6098 
G01 Z-0.1000 F18.00 
G01 X37.6268 Y25.7677 F24.00 
G01 X37.5876 Y25.6469 
G01 X37.5616 Y25.4830 
G01 X37.5616 Y25.3170 
G01 X37.5876 Y25.1531 
G01 X37.6268 Y25.0323 
G01 X37.5614 Y25.1902 
G01 X37.5614 Y25.6098 
G00 Z2.5400 
G00 X37.5614 Y28.1498 
G01 Z-0.1000 F18.00 
G01 X37.6268 Y28.3077 F24.00 
G01 X37.5876 Y28.1869 
G01 X37.5616 Y28.0230 
G01 X37.5616 Y27.8570 
G01 X37.5876 Y27.6931 
G01 X37.6268 Y27.5723 
G01 X37.5614 Y27.7302 
G01 X37.5614 Y28.1498 
G00 Z2.5400 
G00 X37.5614 Y30.6898 
G01 Z-0.1000 F18.00 
G01 X37.6268 Y30.8477 F24.00 
G01 X37.5876 Y30.7269 
G01 X37.5616 Y30.5630 
G01 X37.5616 Y30.3970 
G01 X37.5876 Y30.2331 
G01 X37.6268 Y30.1123 
G01 X37.5614 Y30.2702 
G01 X37.5614 Y30.6898 
G00 Z2.5400 
G00 X37.5614 Y33.2298 
G01 Z-0.1000 F18.00 
G01 X37.6268 Y33.3877 F24.00 
G01 X37.5876 Y33.2669 
G01 X37.5616 Y33.1030 
G01 X37.5616 Y32.9370 
G01 X37.5876 Y32.7731 
G01 X37.6268 Y32.6523 
G01 X37.5614 Y32.8102 
G01 X37.5614 Y33.2298 
G00 Z2.5400 
G00 X37.5614 Y35.7698 
G01 Z-0.1000 F18.00 
G01 X37.6268 Y35.9277 F24.00 
G01 X37.5876 Y35.8069 
G01 X37.5616 Y35.6430 
G01 X37.5616 Y35.4770 
G01 X37.5876 Y35.3131 
G01 X37.6268 Y35.1923 
G01 X37.5614 Y35.3502 
G01 X37.5614 Y35.7698 
G00 Z2.5400 
G00 X37.5614 Y40.8498 
G01 Z-0.1000 F18.00 
G01 X37.6268 Y41.0077 F24.00 
G01 X37.5876 Y40.8869 
G01 X37.5616 Y40.7230 
G01 X37.5616 Y40.5570 
G01 X37.5876 Y40.3931 
G01 X37.6268 Y40.2723 
G01 X37.5614 Y40.4302 
G01 X37.5614 Y40.8498 
G00 Z2.5400 
G00 X41.1786 Y45.5102 
G01 Z-0.1000 F18.00 
G01 X41.1132 Y45.3523 F24.00 
G01 X41.1524 Y45.4731 
G01 X41.1784 Y45.6370 
G01 X41.1784 Y45.8030 
G01 X41.1524 Y45.9669 
G01 X41.1132 Y46.0877 
G01 X41.1786 Y45.9298 
G01 X41.1786 Y45.5102 
G00 Z2.5400 
G00 X41.1786 Y48.0502 
G01 Z-0.1000 F18.00 
G01 X41.1132 Y47.8923 F24.00 
G01 X41.1524 Y48.0131 
G01 X41.1784 Y48.1770 
G01 X41.1784 Y48.3430 
G01 X41.1524 Y48.5069 
G01 X41.1132 Y48.6277 
G01 X41.1786 Y48.4698 
G01 X41.1786 Y48.0502 
G00 Z2.5400 
G00 X41.0180 Y48.8574 
G01 Z-0.1000 F18.00 
G01 X41.0835 Y48.6995 F24.00 
G01 X41.0258 Y48.8126 
G01 X40.9282 Y48.9469 
G01 X40.8109 Y49.0643 
G01 X40.6766 Y49.1618 
G01 X40.5635 Y49.2195 
G01 X40.7214 Y49.1540 
G01 X41.0180 Y48.8574 
G00 Z2.5400 
G00 X40.3338 Y49.3146 
G01 Z-0.1000 F18.00 
G01 X40.4917 Y49.2492 F24.00 
G01 X40.3709 Y49.2884 
G01 X40.2070 Y49.3144 
G01 X38.5330 Y49.3144 
G01 X38.3691 Y49.2884 
G01 X38.2483 Y49.2492 
G01 X38.4062 Y49.3146 
G01 X40.3338 Y49.3146 
G00 Z2.5400 
G00 X38.0186 Y49.1540 
G01 Z-0.1000 F18.00 
G01 X38.1765 Y49.2195 F24.00 
G01 X38.0634 Y49.1618 
G01 X37.9291 Y49.0643 
G01 X37.8117 Y48.9469 
G01 X37.7142 Y48.8126 
G01 X37.6565 Y48.6994 
G01 X37.7219 Y48.8574 
G01 X38.0186 Y49.1540 
G00 Z2.5400 
G00 X37.5614 Y48.4698 
G01 Z-0.1000 F18.00 
G01 X37.6268 Y48.6277 F24.00 
G01 X37.5876 Y48.5069 
G01 X37.5616 Y48.3430 
G01 X37.5616 Y48.1770 
G01 X37.5876 Y48.0131 
G01 X37.6268 Y47.8923 
G01 X37.5614 Y48.0502 
G01 X37.5614 Y48.4698 
G00 Z2.5400 
G00 X38.5330 Y47.2056 
G01 Z-0.1000 F18.00 
G01 X40.2070 Y47.2056 F24.00 
G01 X40.3709 Y47.2316 
G01 X40.5287 Y47.2829 
G01 X40.6766 Y47.3582 
G01 X40.8109 Y47.4557 
G01 X40.9282 Y47.5731 
G01 X41.0258 Y47.7074 
G01 X41.0835 Y47.8205 
G01 X41.0180 Y47.6626 
G01 X40.8944 Y47.5390 
G01 X40.7989 Y47.4435 
G01 X40.7960 Y47.4406 
G01 X40.7186 Y47.3248 
G01 X40.6881 Y47.2510 
G01 X40.6654 Y47.1962 
G01 X40.6382 Y47.0596 
G01 X40.6382 Y46.9204 
G01 X40.6433 Y46.8948 
G01 X40.6654 Y46.7838 
G01 X40.6972 Y46.7069 
G01 X40.7186 Y46.6552 
G01 X40.7960 Y46.5394 
G01 X40.8929 Y46.4425 
G01 X41.0180 Y46.3174 
G01 X41.0835 Y46.1595 
G01 X41.0258 Y46.2726 
G01 X40.9282 Y46.4069 
G01 X40.8109 Y46.5243 
G01 X40.6766 Y46.6218 
G01 X40.5287 Y46.6971 
G01 X40.3709 Y46.7484 
G01 X40.2070 Y46.7744 
G01 X38.5330 Y46.7744 
G01 X38.3691 Y46.7484 
G01 X38.2112 Y46.6971 
G01 X38.0634 Y46.6218 
G01 X37.9291 Y46.5243 
G01 X37.8117 Y46.4069 
G01 X37.7142 Y46.2726 
G01 X37.6565 Y46.1594 
G01 X37.7219 Y46.3174 
G01 X37.9440 Y46.5394 
G01 X38.0214 Y46.6552 
G01 X38.0441 Y46.7100 
G01 X38.0746 Y46.7838 
G01 X38.0961 Y46.8917 
G01 X38.1018 Y46.9204 
G01 X38.1018 Y47.0596 
G01 X38.0746 Y47.1962 
G01 X38.0532 Y47.2479 
G01 X38.0214 Y47.3248 
G01 X37.9440 Y47.4406 
G01 X37.8456 Y47.5390 
G01 X37.7219 Y47.6626 
G01 X37.6565 Y47.8206 
G01 X37.7142 Y47.7074 
G01 X37.8117 Y47.5731 
G01 X37.9291 Y47.4557 
G01 X38.0634 Y47.3582 
G01 X38.2112 Y47.2829 
G01 X38.3691 Y47.2316 
G01 X38.5330 Y47.2056 
G00 Z2.5400 
G00 X37.5876 Y45.9669 
G01 Z-0.1000 F18.00 
G01 X37.5616 Y45.8030 F24.00 
G01 X37.5616 Y45.6370 
G01 X37.5876 Y45.4731 
G01 X37.6268 Y45.3523 
G01 X37.5614 Y45.5102 
G01 X37.5614 Y45.9298 
G01 X37.6268 Y46.0877 
G01 X37.5876 Y45.9669 
G00 Z2.5400 
G00 X37.5876 Y43.4269 
G01 Z-0.1000 F18.00 
G01 X37.5616 Y43.2630 F24.00 
G01 X37.5616 Y43.0970 
G01 X37.5876 Y42.9331 
G01 X37.6268 Y42.8123 
G01 X37.5614 Y42.9702 
G01 X37.5614 Y43.3898 
G01 X37.6268 Y43.5477 
G01 X37.5876 Y43.4269 
G00 Z2.5400 
G00 X37.7142 Y45.1674 
G01 Z-0.1000 F18.00 
G01 X37.8117 Y45.0331 F24.00 
G01 X37.9291 Y44.9157 
G01 X38.0634 Y44.8182 
G01 X38.2112 Y44.7429 
G01 X38.3691 Y44.6916 
G01 X38.5330 Y44.6656 
G01 X40.2070 Y44.6656 
G01 X40.3709 Y44.6916 
G01 X40.5287 Y44.7429 
G01 X40.6766 Y44.8182 
G01 X40.8109 Y44.9157 
G01 X40.9282 Y45.0331 
G01 X41.0258 Y45.1674 
G01 X41.0835 Y45.2805 
G01 X41.0180 Y45.1226 
G01 X40.8944 Y44.9990 
G01 X40.7989 Y44.9035 
G01 X40.7960 Y44.9006 
G01 X40.7186 Y44.7848 
G01 X40.6881 Y44.7110 
G01 X40.6654 Y44.6562 
G01 X40.6382 Y44.5196 
G01 X40.6382 Y44.3804 
G01 X40.6433 Y44.3548 
G01 X40.6654 Y44.2438 
G01 X40.6972 Y44.1669 
G01 X40.7186 Y44.1152 
G01 X40.7960 Y43.9994 
G01 X40.8929 Y43.9025 
G01 X41.0180 Y43.7774 
G01 X41.0834 Y43.6195 
G01 X41.0258 Y43.7326 
G01 X40.9282 Y43.8669 
G01 X40.8109 Y43.9843 
G01 X40.6766 Y44.0818 
G01 X40.5287 Y44.1571 
G01 X40.3709 Y44.2084 
G01 X40.2070 Y44.2344 
G01 X38.5330 Y44.2344 
G01 X38.3691 Y44.2084 
G01 X38.2112 Y44.1571 
G01 X38.0634 Y44.0818 
G01 X37.9291 Y43.9843 
G01 X37.8117 Y43.8669 
G01 X37.7142 Y43.7326 
G01 X37.6565 Y43.6194 
G01 X37.7219 Y43.7774 
G01 X37.9440 Y43.9994 
G01 X38.0214 Y44.1152 
G01 X38.0441 Y44.1700 
G01 X38.0746 Y44.2438 
G01 X38.0961 Y44.3517 
G01 X38.1018 Y44.3804 
G01 X38.1018 Y44.5196 
G01 X38.0746 Y44.6562 
G01 X38.0532 Y44.7079 
G01 X38.0214 Y44.7848 
G01 X37.9440 Y44.9006 
G01 X37.8456 Y44.9990 
G01 X37.7219 Y45.1226 
G01 X37.6565 Y45.2806 
G01 X37.7142 Y45.1674 
G00 Z2.5400 
G00 X37.5614 Y38.3098 
G01 Z-0.1000 F18.00 
G01 X37.6268 Y38.4677 F24.00 
G01 X37.5876 Y38.3469 
G01 X37.5616 Y38.1830 
G01 X37.5616 Y38.0170 
G01 X37.5876 Y37.8531 
G01 X37.6268 Y37.7323 
G01 X37.5614 Y37.8902 
G01 X37.5614 Y38.3098 
G00 Z2.5400 
G00 X45.6597 Y46.6544 
G01 Z-0.1000 F18.00 
G01 X45.6979 Y46.6800 F24.00 
G01 X45.6980 Y46.6800 
G01 X45.7464 Y46.7284 
G01 X45.7964 Y46.7784 
G01 X45.8470 Y46.8542 
G01 X45.8738 Y46.8942 
G01 X45.8978 Y46.9522 
G01 X45.9270 Y47.0228 
G01 X45.9360 Y47.0681 
G01 X45.9542 Y47.1594 
G01 X45.9542 Y47.2319 
G01 X45.9792 Y47.2238 
G01 X46.1444 Y47.1976 
G01 X47.8356 Y47.1976 
G01 X48.0008 Y47.2238 
G01 X48.0258 Y47.2319 
G01 X48.0258 Y47.1594 
G01 X48.0434 Y47.0706 
G01 X48.0529 Y47.0228 
G01 X48.0817 Y46.9535 
G01 X48.1062 Y46.8942 
G01 X48.1319 Y46.8558 
G01 X48.1836 Y46.7784 
G01 X48.2321 Y46.7300 
G01 X48.2820 Y46.6800 
G01 X48.3203 Y46.6544 
G01 X48.6528 Y46.3219 
G01 X48.6813 Y46.2533 
G01 X48.7187 Y46.1629 
G01 X48.6606 Y46.2768 
G01 X48.5624 Y46.4121 
G01 X48.4441 Y46.5304 
G01 X48.3088 Y46.6286 
G01 X48.1598 Y46.7046 
G01 X48.0008 Y46.7562 
G01 X47.8356 Y46.7824 
G01 X46.1444 Y46.7824 
G01 X45.9792 Y46.7562 
G01 X45.8202 Y46.7046 
G01 X45.6712 Y46.6286 
G01 X45.5359 Y46.5304 
G01 X45.4176 Y46.4121 
G01 X45.3194 Y46.2768 
G01 X45.2613 Y46.1628 
G01 X45.3272 Y46.3219 
G01 X45.6597 Y46.6544 
G00 Z2.5400 
G00 X45.1654 Y45.9314 
G01 Z-0.1000 F18.00 
G01 X45.2313 Y46.0905 F24.00 
G01 X45.1918 Y45.9688 
G01 X45.1656 Y45.8036 
G01 X45.1656 Y45.6364 
G01 X45.1918 Y45.4712 
G01 X45.2313 Y45.3495 
G01 X45.1654 Y45.5086 
G01 X45.1654 Y45.9314 
G00 Z2.5400 
G00 X19.1952 Y16.1597 
G01 Z-0.1000 F18.00 
G01 X19.1792 Y16.1982 F24.00 
G01 X19.2096 Y16.1456 
G01 X19.2656 Y16.0896 
G01 X19.3182 Y16.0592 
G01 X19.2797 Y16.0752 
G01 X19.1952 Y16.1597 
G00 Z2.5400 
G00 X25.9386 Y25.1902 
G01 Z-0.1000 F18.00 
G01 X25.8732 Y25.0323 F24.00 
G01 X25.9124 Y25.1531 
G01 X25.9384 Y25.3170 
G01 X25.9384 Y25.4830 
G01 X25.9124 Y25.6469 
G01 X25.8732 Y25.7677 
G01 X25.9386 Y25.6098 
G01 X25.9386 Y25.1902 
G00 Z2.5400 
G00 X16.9952 Y17.1097 
G01 Z-0.1000 F18.00 
G01 X16.9792 Y17.1482 F24.00 
G01 X17.0096 Y17.0955 
G01 X17.0656 Y17.0396 
G01 X17.1182 Y17.0092 
G01 X17.0797 Y17.0252 
G01 X16.9952 Y17.1097 
G00 Z2.5400 
G00 X17.0797 Y50.2848 
G01 Z-0.1000 F18.00 
G01 X17.1182 Y50.3008 F24.00 
G01 X17.0656 Y50.2704 
G01 X17.0096 Y50.2144 
G01 X16.9792 Y50.1618 
G01 X16.9952 Y50.2003 
G01 X17.0797 Y50.2848 
G00 Z2.5400 
G00 X21.1504 Y49.1195 
G01 Z-0.1000 F18.00 
G01 X21.1347 Y49.1783 F24.00 
G01 X21.1506 Y49.1398 
G01 X21.1506 Y49.1269 
G01 X21.1651 Y49.0538 
G01 X21.1778 Y48.9903 
G01 X21.2079 Y48.9176 
G01 X21.2310 Y48.8617 
G01 X21.2794 Y48.7893 
G01 X21.3084 Y48.7460 
G01 X21.3735 Y48.6808 
G01 X21.4068 Y48.6475 
G01 X21.4638 Y48.6094 
G01 X21.5226 Y48.5702 
G01 X21.5677 Y48.5515 
G01 X21.6512 Y48.5169 
G01 X21.7059 Y48.5060 
G01 X21.7878 Y48.4897 
G01 X21.8567 Y48.4897 
G01 X21.9270 Y48.4897 
G01 X22.0001 Y48.5043 
G01 X22.0636 Y48.5169 
G01 X22.1363 Y48.5470 
G01 X22.1922 Y48.5702 
G01 X22.2646 Y48.6185 
G01 X22.3080 Y48.6475 
G01 X22.3731 Y48.7127 
G01 X22.4064 Y48.7460 
G01 X22.4445 Y48.8029 
G01 X22.4786 Y48.8541 
G01 X22.7786 Y49.1540 
G01 X22.9366 Y49.2195 
G01 X22.8234 Y49.1618 
G01 X22.6891 Y49.0643 
G01 X22.5717 Y48.9469 
G01 X22.4742 Y48.8126 
G01 X22.3988 Y48.6647 
G01 X22.3476 Y48.5069 
G01 X22.3216 Y48.3430 
G01 X22.3216 Y48.1770 
G01 X22.3476 Y48.0131 
G01 X22.3988 Y47.8553 
G01 X22.4742 Y47.7074 
G01 X22.5717 Y47.5731 
G01 X22.6891 Y47.4557 
G01 X22.8234 Y47.3582 
G01 X22.9713 Y47.2829 
G01 X23.1291 Y47.2316 
G01 X23.2930 Y47.2056 
G01 X24.9670 Y47.2056 
G01 X25.1309 Y47.2316 
G01 X25.2887 Y47.2829 
G01 X25.4366 Y47.3582 
G01 X25.5709 Y47.4557 
G01 X25.6883 Y47.5731 
G01 X25.7858 Y47.7074 
G01 X25.8435 Y47.8205 
G01 X25.7780 Y47.6626 
G01 X25.5560 Y47.4406 
G01 X25.4786 Y47.3248 
G01 X25.4559 Y47.2700 
G01 X25.4254 Y47.1962 
G01 X25.4039 Y47.0883 
G01 X25.3982 Y47.0596 
G01 X25.3982 Y46.9204 
G01 X25.4254 Y46.7838 
G01 X25.4468 Y46.7321 
G01 X25.4786 Y46.6552 
G01 X25.5560 Y46.5394 
G01 X25.6544 Y46.4410 
G01 X25.7780 Y46.3174 
G01 X25.8435 Y46.1595 
G01 X25.7858 Y46.2726 
G01 X25.6883 Y46.4069 
G01 X25.5709 Y46.5243 
G01 X25.4366 Y46.6218 
G01 X25.2887 Y46.6971 
G01 X25.1309 Y46.7484 
G01 X24.9670 Y46.7744 
G01 X23.2930 Y46.7744 
G01 X23.1291 Y46.7484 
G01 X22.9713 Y46.6971 
G01 X22.8234 Y46.6218 
G01 X22.6891 Y46.5243 
G01 X22.5717 Y46.4069 
G01 X22.4742 Y46.2726 
G01 X22.3988 Y46.1247 
G01 X22.3476 Y45.9669 
G01 X22.3216 Y45.8030 
G01 X22.3216 Y45.6370 
G01 X22.3476 Y45.4731 
G01 X22.3988 Y45.3152 
G01 X22.4742 Y45.1674 
G01 X22.5717 Y45.0331 
G01 X22.6891 Y44.9157 
G01 X22.8234 Y44.8182 
G01 X22.9713 Y44.7429 
G01 X23.1291 Y44.6916 
G01 X23.2930 Y44.6656 
G01 X24.9670 Y44.6656 
G01 X25.1309 Y44.6916 
G01 X25.2887 Y44.7429 
G01 X25.4366 Y44.8182 
G01 X25.5709 Y44.9157 
G01 X25.6883 Y45.0331 
G01 X25.7858 Y45.1674 
G01 X25.8435 Y45.2805 
G01 X25.7780 Y45.1226 
G01 X25.5560 Y44.9006 
G01 X25.4786 Y44.7848 
G01 X25.4559 Y44.7300 
G01 X25.4254 Y44.6562 
G01 X25.4039 Y44.5483 
G01 X25.3982 Y44.5196 
G01 X25.3982 Y44.3804 
G01 X25.4254 Y44.2438 
G01 X25.4468 Y44.1921 
G01 X25.4786 Y44.1152 
G01 X25.5560 Y43.9994 
G01 X25.6544 Y43.9010 
G01 X25.7780 Y43.7774 
G01 X25.8435 Y43.6195 
G01 X25.7858 Y43.7326 
G01 X25.6883 Y43.8669 
G01 X25.5709 Y43.9843 
G01 X25.4366 Y44.0818 
G01 X25.2887 Y44.1571 
G01 X25.1309 Y44.2084 
G01 X24.9670 Y44.2344 
G01 X23.2930 Y44.2344 
G01 X23.1291 Y44.2084 
G01 X22.9713 Y44.1571 
G01 X22.8234 Y44.0818 
G01 X22.6891 Y43.9843 
G01 X22.5717 Y43.8669 
G01 X22.4742 Y43.7326 
G01 X22.3988 Y43.5847 
G01 X22.3476 Y43.4269 
G01 X22.3216 Y43.2630 
G01 X22.3216 Y43.0970 
G01 X22.3476 Y42.9331 
G01 X22.3988 Y42.7752 
G01 X22.4742 Y42.6274 
G01 X22.5717 Y42.4931 
G01 X22.6891 Y42.3757 
G01 X22.8234 Y42.2782 
G01 X22.9713 Y42.2029 
G01 X23.1291 Y42.1516 
G01 X23.2930 Y42.1256 
G01 X24.9670 Y42.1256 
G01 X25.1309 Y42.1516 
G01 X25.2887 Y42.2029 
G01 X25.4366 Y42.2782 
G01 X25.5709 Y42.3757 
G01 X25.6883 Y42.4931 
G01 X25.7858 Y42.6274 
G01 X25.8435 Y42.7405 
G01 X25.7780 Y42.5826 
G01 X25.5560 Y42.3606 
G01 X25.4786 Y42.2448 
G01 X25.4559 Y42.1900 
G01 X25.4254 Y42.1162 
G01 X25.4039 Y42.0083 
G01 X25.3982 Y41.9796 
G01 X25.3982 Y41.8404 
G01 X25.4254 Y41.7038 
G01 X25.4468 Y41.6521 
G01 X25.4786 Y41.5752 
G01 X25.5560 Y41.4594 
G01 X25.6544 Y41.3610 
G01 X25.7780 Y41.2374 
G01 X25.8435 Y41.0795 
G01 X25.7858 Y41.1926 
G01 X25.6883 Y41.3269 
G01 X25.5709 Y41.4443 
G01 X25.4366 Y41.5418 
G01 X25.2887 Y41.6171 
G01 X25.1309 Y41.6684 
G01 X24.9670 Y41.6944 
G01 X23.2930 Y41.6944 
G01 X23.1291 Y41.6684 
G01 X22.9713 Y41.6171 
G01 X22.8234 Y41.5418 
G01 X22.6891 Y41.4443 
G01 X22.5717 Y41.3269 
G01 X22.4742 Y41.1926 
G01 X22.3988 Y41.0447 
G01 X22.3476 Y40.8869 
G01 X22.3216 Y40.7230 
G01 X22.3216 Y40.5570 
G01 X22.3476 Y40.3931 
G01 X22.3988 Y40.2353 
G01 X22.4742 Y40.0874 
G01 X22.5717 Y39.9531 
G01 X22.6891 Y39.8357 
G01 X22.8234 Y39.7382 
G01 X22.9713 Y39.6628 
G01 X23.1291 Y39.6116 
G01 X23.2930 Y39.5856 
G01 X24.9670 Y39.5856 
G01 X25.1309 Y39.6116 
G01 X25.2887 Y39.6628 
G01 X25.4366 Y39.7382 
G01 X25.5709 Y39.8357 
G01 X25.6883 Y39.9531 
G01 X25.7858 Y40.0874 
G01 X25.8435 Y40.2005 
G01 X25.7780 Y40.0426 
G01 X25.5560 Y39.8206 
G01 X25.4786 Y39.7048 
G01 X25.4559 Y39.6500 
G01 X25.4254 Y39.5762 
G01 X25.4039 Y39.4683 
G01 X25.3982 Y39.4396 
G01 X25.3982 Y39.3004 
G01 X25.4254 Y39.1638 
G01 X25.4468 Y39.1121 
G01 X25.4786 Y39.0352 
G01 X25.5560 Y38.9194 
G01 X25.6544 Y38.8210 
G01 X25.7780 Y38.6974 
G01 X25.8435 Y38.5395 
G01 X25.7858 Y38.6526 
G01 X25.6883 Y38.7869 
G01 X25.5709 Y38.9043 
G01 X25.4366 Y39.0018 
G01 X25.2887 Y39.0771 
G01 X25.1309 Y39.1284 
G01 X24.9670 Y39.1544 
G01 X23.2930 Y39.1544 
G01 X23.1291 Y39.1284 
G01 X22.9713 Y39.0771 
G01 X22.8234 Y39.0018 
G01 X22.6891 Y38.9043 
G01 X22.5717 Y38.7869 
G01 X22.4742 Y38.6526 
G01 X22.3988 Y38.5047 
G01 X22.3476 Y38.3469 
G01 X22.3216 Y38.1830 
G01 X22.3216 Y38.0170 
G01 X22.3476 Y37.8531 
G01 X22.3988 Y37.6953 
G01 X22.4742 Y37.5474 
G01 X22.5717 Y37.4131 
G01 X22.6891 Y37.2957 
G01 X22.8234 Y37.1982 
G01 X22.9713 Y37.1228 
G01 X23.1291 Y37.0716 
G01 X23.2930 Y37.0456 
G01 X24.9670 Y37.0456 
G01 X25.1309 Y37.0716 
G01 X25.2887 Y37.1228 
G01 X25.4366 Y37.1982 
G01 X25.5709 Y37.2957 
G01 X25.6883 Y37.4131 
G01 X25.7858 Y37.5474 
G01 X25.8435 Y37.6605 
G01 X25.7780 Y37.5026 
G01 X25.5560 Y37.2806 
G01 X25.4786 Y37.1648 
G01 X25.4559 Y37.1100 
G01 X25.4254 Y37.0362 
G01 X25.4039 Y36.9283 
G01 X25.3982 Y36.8996 
G01 X25.3982 Y36.7604 
G01 X25.4254 Y36.6238 
G01 X25.4468 Y36.5721 
G01 X25.4786 Y36.4952 
G01 X25.5560 Y36.3794 
G01 X25.6544 Y36.2810 
G01 X25.7780 Y36.1574 
G01 X25.8435 Y35.9995 
G01 X25.7858 Y36.1126 
G01 X25.6883 Y36.2469 
G01 X25.5709 Y36.3642 
G01 X25.4366 Y36.4618 
G01 X25.2887 Y36.5371 
G01 X25.1309 Y36.5884 
G01 X24.9670 Y36.6144 
G01 X23.2930 Y36.6144 
G01 X23.1291 Y36.5884 
G01 X22.9713 Y36.5371 
G01 X22.8234 Y36.4618 
G01 X22.6891 Y36.3642 
G01 X22.5717 Y36.2469 
G01 X22.4742 Y36.1126 
G01 X22.3988 Y35.9647 
G01 X22.3476 Y35.8069 
G01 X22.3216 Y35.6430 
G01 X22.3216 Y35.4770 
G01 X22.3476 Y35.3131 
G01 X22.3988 Y35.1553 
G01 X22.4742 Y35.0074 
G01 X22.5717 Y34.8731 
G01 X22.6891 Y34.7557 
G01 X22.8234 Y34.6582 
G01 X22.9713 Y34.5829 
G01 X23.1291 Y34.5316 
G01 X23.2930 Y34.5056 
G01 X24.9670 Y34.5056 
G01 X25.1309 Y34.5316 
G01 X25.2887 Y34.5829 
G01 X25.4366 Y34.6582 
G01 X25.5709 Y34.7557 
G01 X25.6883 Y34.8731 
G01 X25.7858 Y35.0074 
G01 X25.8435 Y35.1206 
G01 X25.7780 Y34.9626 
G01 X25.5560 Y34.7406 
G01 X25.4786 Y34.6248 
G01 X25.4559 Y34.5700 
G01 X25.4254 Y34.4962 
G01 X25.4039 Y34.3883 
G01 X25.3982 Y34.3596 
G01 X25.3982 Y34.2204 
G01 X25.4254 Y34.0838 
G01 X25.4468 Y34.0321 
G01 X25.4786 Y33.9552 
G01 X25.5560 Y33.8394 
G01 X25.6544 Y33.7410 
G01 X25.7780 Y33.6174 
G01 X25.8435 Y33.4595 
G01 X25.7858 Y33.5726 
G01 X25.6883 Y33.7069 
G01 X25.5709 Y33.8242 
G01 X25.4366 Y33.9218 
G01 X25.2887 Y33.9971 
G01 X25.1309 Y34.0484 
G01 X24.9670 Y34.0744 
G01 X23.2930 Y34.0744 
G01 X23.1291 Y34.0484 
G01 X22.9713 Y33.9971 
G01 X22.8234 Y33.9218 
G01 X22.6891 Y33.8242 
G01 X22.5717 Y33.7069 
G01 X22.4742 Y33.5726 
G01 X22.3988 Y33.4247 
G01 X22.3476 Y33.2669 
G01 X22.3216 Y33.1030 
G01 X22.3216 Y32.9370 
G01 X22.3476 Y32.7731 
G01 X22.3988 Y32.6153 
G01 X22.4742 Y32.4674 
G01 X22.5717 Y32.3331 
G01 X22.6891 Y32.2157 
G01 X22.8234 Y32.1182 
G01 X22.9713 Y32.0429 
G01 X23.1291 Y31.9916 
G01 X23.2930 Y31.9656 
G01 X24.9670 Y31.9656 
G01 X25.1309 Y31.9916 
G01 X25.2887 Y32.0429 
G01 X25.4366 Y32.1182 
G01 X25.5709 Y32.2157 
G01 X25.6883 Y32.3331 
G01 X25.7858 Y32.4674 
G01 X25.8435 Y32.5806 
G01 X25.7780 Y32.4226 
G01 X25.6544 Y32.2990 
G01 X25.5560 Y32.2006 
G01 X25.4786 Y32.0848 
G01 X25.4254 Y31.9562 
G01 X25.3986 Y31.8218 
G01 X25.3982 Y31.6804 
G01 X25.4143 Y31.5993 
G01 X25.4254 Y31.5438 
G01 X25.4342 Y31.5224 
G01 X25.4786 Y31.4152 
G01 X25.5560 Y31.2994 
G01 X25.7780 Y31.0774 
G01 X25.8435 Y30.9195 
G01 X25.7858 Y31.0326 
G01 X25.6883 Y31.1669 
G01 X25.5709 Y31.2843 
G01 X25.4366 Y31.3818 
G01 X25.2887 Y31.4571 
G01 X25.1309 Y31.5084 
G01 X24.9670 Y31.5344 
G01 X23.2930 Y31.5344 
G01 X23.1291 Y31.5084 
G01 X22.9713 Y31.4571 
G01 X22.8234 Y31.3818 
G01 X22.6891 Y31.2843 
G01 X22.5717 Y31.1669 
G01 X22.4742 Y31.0326 
G01 X22.3988 Y30.8847 
G01 X22.3476 Y30.7269 
G01 X22.3216 Y30.5630 
G01 X22.3216 Y30.3970 
G01 X22.3476 Y30.2331 
G01 X22.3988 Y30.0753 
G01 X22.4742 Y29.9274 
G01 X22.5717 Y29.7931 
G01 X22.6891 Y29.6757 
G01 X22.8234 Y29.5782 
G01 X22.9713 Y29.5029 
G01 X23.1291 Y29.4516 
G01 X23.2930 Y29.4256 
G01 X24.9670 Y29.4256 
G01 X25.1309 Y29.4516 
G01 X25.2887 Y29.5029 
G01 X25.4366 Y29.5782 
G01 X25.5709 Y29.6757 
G01 X25.6883 Y29.7931 
G01 X25.7858 Y29.9274 
G01 X25.8435 Y30.0405 
G01 X25.7780 Y29.8826 
G01 X25.5560 Y29.6606 
G01 X25.4786 Y29.5448 
G01 X25.4559 Y29.4900 
G01 X25.4254 Y29.4162 
G01 X25.4039 Y29.3083 
G01 X25.3982 Y29.2796 
G01 X25.3982 Y29.1404 
G01 X25.4254 Y29.0038 
G01 X25.4468 Y28.9521 
G01 X25.4786 Y28.8752 
G01 X25.5560 Y28.7594 
G01 X25.6544 Y28.6610 
G01 X25.7780 Y28.5374 
G01 X25.8435 Y28.3795 
G01 X25.7858 Y28.4926 
G01 X25.6883 Y28.6269 
G01 X25.5709 Y28.7443 
G01 X25.4366 Y28.8418 
G01 X25.2887 Y28.9171 
G01 X25.1309 Y28.9684 
G01 X24.9670 Y28.9944 
G01 X23.2930 Y28.9944 
G01 X23.1291 Y28.9684 
G01 X22.9713 Y28.9171 
G01 X22.8234 Y28.8418 
G01 X22.6891 Y28.7443 
G01 X22.5717 Y28.6269 
G01 X22.4742 Y28.4926 
G01 X22.3988 Y28.3447 
G01 X22.3476 Y28.1869 
G01 X22.3216 Y28.0230 
G01 X22.3216 Y27.8570 
G01 X22.3476 Y27.6931 
G01 X22.3988 Y27.5353 
G01 X22.4742 Y27.3874 
G01 X22.5717 Y27.2531 
G01 X22.6891 Y27.1357 
G01 X22.8234 Y27.0382 
G01 X22.9713 Y26.9628 
G01 X23.1291 Y26.9116 
G01 X23.2930 Y26.8856 
G01 X24.9670 Y26.8856 
G01 X25.1309 Y26.9116 
G01 X25.2887 Y26.9628 
G01 X25.4366 Y27.0382 
G01 X25.5709 Y27.1357 
G01 X25.6883 Y27.2531 
G01 X25.7858 Y27.3874 
G01 X25.8435 Y27.5005 
G01 X25.7780 Y27.3426 
G01 X25.5560 Y27.1206 
G01 X25.4786 Y27.0048 
G01 X25.4559 Y26.9500 
G01 X25.4254 Y26.8762 
G01 X25.4039 Y26.7683 
G01 X25.3982 Y26.7396 
G01 X25.3982 Y26.6004 
G01 X25.4254 Y26.4638 
G01 X25.4468 Y26.4121 
G01 X25.4786 Y26.3352 
G01 X25.5560 Y26.2194 
G01 X25.6544 Y26.1210 
G01 X25.7780 Y25.9974 
G01 X25.8435 Y25.8395 
G01 X25.7858 Y25.9526 
G01 X25.6883 Y26.0869 
G01 X25.5709 Y26.2043 
G01 X25.4366 Y26.3018 
G01 X25.2887 Y26.3771 
G01 X25.1309 Y26.4284 
G01 X24.9670 Y26.4544 
G01 X23.2930 Y26.4544 
G01 X23.1291 Y26.4284 
G01 X22.9713 Y26.3771 
G01 X22.8234 Y26.3018 
G01 X22.8141 Y26.2950 
G01 X21.2404 Y27.8687 
G01 X21.2404 Y48.1491 
G01 X21.2173 Y48.2651 
G01 X21.1721 Y48.3744 
G01 X21.1504 Y48.4068 
G01 X21.1504 Y49.1195 
G00 Z2.5400 
G00 X38.4062 Y11.6454 
G01 Z-0.1000 F18.00 
G01 X38.2483 Y11.7108 F24.00 
G01 X38.3691 Y11.6716 
G01 X38.5330 Y11.6456 
G01 X40.2070 Y11.6456 
G01 X40.3709 Y11.6716 
G01 X40.4917 Y11.7108 
G01 X40.3338 Y11.6454 
G01 X38.4062 Y11.6454 
G00 Z2.5400 
G00 X40.7214 Y11.8060 
G01 Z-0.1000 F18.00 
G01 X40.5635 Y11.7405 F24.00 
G01 X40.6766 Y11.7982 
G01 X40.8109 Y11.8957 
G01 X40.9282 Y12.0131 
G01 X41.0258 Y12.1474 
G01 X41.0835 Y12.2605 
G01 X41.0180 Y12.1026 
G01 X40.7214 Y11.8060 
G00 Z2.5400 
G00 X41.1786 Y12.4902 
G01 Z-0.1000 F18.00 
G01 X41.1132 Y12.3323 F24.00 
G01 X41.1524 Y12.4531 
G01 X41.1784 Y12.6170 
G01 X41.1784 Y12.7830 
G01 X41.1524 Y12.9469 
G01 X41.1132 Y13.0677 
G01 X41.1786 Y12.9098 
G01 X41.1786 Y12.4902 
G00 Z2.5400 
G00 X50.4794 Y54.6122 
G01 Z-0.1000 F18.00 
G01 X50.4522 Y54.7488 F24.00 
G01 X50.3990 Y54.8774 
G01 X50.3216 Y54.9932 
G01 X50.2232 Y55.0916 
G01 X50.1074 Y55.1690 
G01 X49.9788 Y55.2222 
G01 X49.8422 Y55.2494 
G01 X0.9378 Y55.2494 
G01 X0.8012 Y55.2222 
G01 X0.6726 Y55.1690 
G01 X0.5568 Y55.0916 
G01 X0.4584 Y54.9932 
G01 X0.3810 Y54.8774 
G01 X0.3278 Y54.7488 
G01 X0.3006 Y54.6122 
G01 X0.3006 Y0.9378 
G01 X0.3278 Y0.8012 
G01 X0.3810 Y0.6726 
G01 X0.4584 Y0.5568 
G01 X0.5568 Y0.4584 
G01 X0.6726 Y0.3810 
G01 X0.8012 Y0.3278 
G01 X0.9378 Y0.3006 
G01 X49.8422 Y0.3006 
G01 X49.9788 Y0.3278 
G01 X50.1074 Y0.3810 
G01 X50.2232 Y0.4584 
G01 X50.3216 Y0.5568 
G01 X50.3990 Y0.6726 
G01 X50.4522 Y0.8012 
G01 X50.4794 Y0.9378 
G01 X50.4794 Y32.7533 
G01 X50.4522 Y32.8898 
G01 X50.4308 Y32.9416 
G01 X50.3990 Y33.0185 
G01 X50.3216 Y33.1342 
G01 X50.2232 Y33.2327 
G01 X50.1074 Y33.3100 
G01 X49.9788 Y33.3633 
G01 X49.8422 Y33.3905 
G01 X49.7030 Y33.3905 
G01 X49.5664 Y33.3633 
G01 X49.5147 Y33.3419 
G01 X49.4378 Y33.3100 
G01 X49.3220 Y33.2327 
G01 X49.2236 Y33.1342 
G01 X48.9043 Y32.8149 
G01 X48.8551 Y32.7657 
G01 X48.8059 Y32.7165 
G01 X48.7678 Y32.6595 
G01 X48.7370 Y32.6134 
G01 X48.7535 Y32.6645 
G01 X49.9964 Y33.9073 
G01 X50.0621 Y34.0056 
G01 X50.1073 Y34.1149 
G01 X50.1304 Y34.2309 
G01 X50.1304 Y44.5091 
G01 X50.1073 Y44.6251 
G01 X50.0621 Y44.7344 
G01 X49.9964 Y44.8327 
G01 X49.9127 Y44.9164 
G01 X48.7535 Y46.0755 
G01 X48.7370 Y46.1266 
G01 X48.8058 Y46.0236 
G01 X48.9027 Y45.9267 
G01 X49.3220 Y45.5073 
G01 X49.4378 Y45.4300 
G01 X49.5664 Y45.3767 
G01 X49.7030 Y45.3495 
G01 X49.8422 Y45.3495 
G01 X49.9788 Y45.3767 
G01 X50.1074 Y45.4300 
G01 X50.2232 Y45.5073 
G01 X50.3216 Y45.6058 
G01 X50.3990 Y45.7215 
G01 X50.4522 Y45.8502 
G01 X50.4794 Y45.9867 
G01 X50.4794 Y46.1259 
G01 X50.4794 Y54.6122 
G00 Z2.5400 
G00 Z2.540000
G00 X40.6400 Y5.0800 
G01 Z-0.1000 F18.00 
G01 Z2.540000
(R2.5400  P1.000000)
(G00 Z2.540000)
G00 X30.4800 Y5.0800 
G01 Z-1.600000
G01 Z2.540000
(G00 Z2.540000)
G00 X33.0200 Y5.0800 
G01 Z-1.600000
G01 Z2.540000
(G00 Z2.540000)
G00 X17.7800 Y44.4500 
G01 Z-1.600000
G01 Z2.540000
(G00 Z2.540000)
G00 X17.7800 Y41.9100 
G01 Z-1.600000
G01 Z2.540000
(G00 Z2.540000)
G00 X17.7800 Y34.2900 
G01 Z-1.600000
G01 Z2.540000
(G00 Z2.540000)
G00 X17.7800 Y36.8300 
G01 Z-1.600000
G01 Z2.540000
(G00 Z2.540000)
G00 X46.9900 Y43.1800 
G01 Z-1.600000
G01 Z2.540000
(G00 Z2.540000)
G00 X46.9900 Y45.7200 
G01 Z-1.600000
G01 Z2.540000
(G00 Z2.540000)
G00 X46.9900 Y48.2600 
G01 Z-1.600000
G01 Z2.540000
(G00 Z2.540000)
G00 X46.9900 Y30.4800 
G01 Z-1.600000
G01 Z2.540000
(G00 Z2.540000)
G00 X46.9900 Y33.0200 
G01 Z-1.600000
G01 Z2.540000
(G00 Z2.540000)
G00 X46.9900 Y35.5600 
G01 Z-1.600000
G01 Z2.540000
(G00 Z2.540000)
G00 X39.3700 Y48.2600 
G01 Z-1.600000
G01 Z2.540000
(G00 Z2.540000)
G00 X39.3700 Y45.7200 
G01 Z-1.600000
G01 Z2.540000
(G00 Z2.540000)
G00 X39.3700 Y43.1800 
G01 Z-1.600000
G01 Z2.540000
(G00 Z2.540000)
G00 X39.3700 Y40.6400 
G01 Z-1.600000
G01 Z2.540000
(G00 Z2.540000)
G00 X39.3700 Y38.1000 
G01 Z-1.600000
G01 Z2.540000
(G00 Z2.540000)
G00 X39.3700 Y35.5600 
G01 Z-1.600000
G01 Z2.540000
(G00 Z2.540000)
G00 X39.3700 Y33.0200 
G01 Z-1.600000
G01 Z2.540000
(G00 Z2.540000)
G00 X39.3700 Y30.4800 
G01 Z-1.600000
G01 Z2.540000
(G00 Z2.540000)
G00 X39.3700 Y27.9400 
G01 Z-1.600000
G01 Z2.540000
(G00 Z2.540000)
G00 X39.3700 Y25.4000 
G01 Z-1.600000
G01 Z2.540000
(G00 Z2.540000)
G00 X39.3700 Y22.8600 
G01 Z-1.600000
G01 Z2.540000
(G00 Z2.540000)
G00 X39.3700 Y20.3200 
G01 Z-1.600000
G01 Z2.540000
(G00 Z2.540000)
G00 X39.3700 Y17.7800 
G01 Z-1.600000
G01 Z2.540000
(G00 Z2.540000)
G00 X39.3700 Y15.2400 
G01 Z-1.600000
G01 Z2.540000
(G00 Z2.540000)
G00 X39.3700 Y12.7000 
G01 Z-1.600000
G01 Z2.540000
(G00 Z2.540000)
G00 X24.1300 Y12.7000 
G01 Z-1.600000
G01 Z2.540000
(G00 Z2.540000)
G00 X24.1300 Y15.2400 
G01 Z-1.600000
G01 Z2.540000
(G00 Z2.540000)
G00 X24.1300 Y17.7800 
G01 Z-1.600000
G01 Z2.540000
(G00 Z2.540000)
G00 X24.1300 Y20.3200 
G01 Z-1.600000
G01 Z2.540000
(G00 Z2.540000)
G00 X24.1300 Y22.8600 
G01 Z-1.600000
G01 Z2.540000
(G00 Z2.540000)
G00 X24.1300 Y25.4000 
G01 Z-1.600000
G01 Z2.540000
(G00 Z2.540000)
G00 X24.1300 Y27.9400 
G01 Z-1.600000
G01 Z2.540000
(G00 Z2.540000)
G00 X24.1300 Y30.4800 
G01 Z-1.600000
G01 Z2.540000
(G00 Z2.540000)
G00 X24.1300 Y33.0200 
G01 Z-1.600000
G01 Z2.540000
(G00 Z2.540000)
G00 X24.1300 Y35.5600 
G01 Z-1.600000
G01 Z2.540000
(G00 Z2.540000)
G00 X24.1300 Y38.1000 
G01 Z-1.600000
G01 Z2.540000
(G00 Z2.540000)
G00 X24.1300 Y40.6400 
G01 Z-1.600000
G01 Z2.540000
(G00 Z2.540000)
G00 X24.1300 Y43.1800 
G01 Z-1.600000
G01 Z2.540000
(G00 Z2.540000)
G00 X24.1300 Y45.7200 
G01 Z-1.600000
G01 Z2.540000
(G00 Z2.540000)
G00 X24.1300 Y48.2600 
G01 Z-1.600000
G01 Z2.540000
G00 Z12.7000 
M05
M02
